; generated by Slic3r 1.2.9 on 2018-10-14 at 12:10:21

; external perimeters extrusion width = 0.40mm
; perimeters extrusion width = 0.67mm
; infill extrusion width = 0.67mm
; solid infill extrusion width = 0.67mm
; top infill extrusion width = 0.26mm

M107
M190 S78 ; set bed temperature
M104 S245 ; set temperature
G28 ; home all axes
G1 Z5 F5000 ; lift nozzle

M109 S245 ; wait for temperature to be reached
G21 ; set units to millimeters
G90 ; use absolute coordinates
M82 ; use absolute distances for extrusion
G92 E0
G1 E-3.00000 F1800.00000
G92 E0
G1 Z0.300 F6000.000
G1 X85.973 Y86.305 F6000.000
G1 E3.00000 F1800.00000
M204 S2000
G1 X86.305 Y85.973 E3.01910 F1200.000
G1 X87.409 Y85.093 E3.07641
G1 X87.967 Y84.752 E3.10297
G1 X89.081 Y84.235 E3.15287
G1 X89.879 Y83.980 E3.18687
G1 X90.905 Y83.777 E3.22934
G1 X91.523 Y83.716 E3.25458
G1 X92.000 Y83.698 E3.27397
G1 X108.000 Y83.698 E3.92378
G1 X108.822 Y83.746 E3.95723
G1 X109.095 Y83.777 E3.96839
G1 X110.121 Y83.980 E4.01086
G1 X110.919 Y84.235 E4.04487
G1 X112.033 Y84.752 E4.09477
G1 X112.359 Y84.947 E4.11016
G1 X112.591 Y85.093 E4.12132
G1 X113.695 Y85.973 E4.17864
G1 X114.027 Y86.305 E4.19774
G1 X114.907 Y87.409 E4.25505
G1 X115.248 Y87.967 E4.28161
G1 X115.765 Y89.081 E4.33151
G1 X116.020 Y89.879 E4.36551
G1 X116.223 Y90.905 E4.40798
G1 X116.284 Y91.523 E4.43321
G1 X116.302 Y92.000 E4.45261
G1 X116.302 Y108.000 E5.10242
G1 X116.254 Y108.822 E5.13587
G1 X116.223 Y109.095 E5.14703
G1 X116.020 Y110.121 E5.18950
G1 X115.765 Y110.919 E5.22351
G1 X115.248 Y112.033 E5.27341
G1 X115.053 Y112.359 E5.28880
G1 X114.907 Y112.591 E5.29996
G1 X114.027 Y113.695 E5.35728
G1 X113.695 Y114.027 E5.37638
G1 X112.591 Y114.907 E5.43370
G1 X112.033 Y115.248 E5.46025
G1 X110.919 Y115.765 E5.51015
G1 X110.121 Y116.020 E5.54415
G1 X109.095 Y116.223 E5.58662
G1 X108.477 Y116.284 E5.61186
G1 X108.000 Y116.302 E5.63125
G1 X92.000 Y116.302 E6.28106
G1 X91.178 Y116.254 E6.31451
G1 X90.905 Y116.223 E6.32567
G1 X89.879 Y116.020 E6.36814
G1 X89.081 Y115.765 E6.40215
G1 X87.967 Y115.248 E6.45205
G1 X87.642 Y115.053 E6.46744
G1 X87.409 Y114.907 E6.47860
G1 X86.305 Y114.027 E6.53592
G1 X85.973 Y113.695 E6.55502
G1 X85.093 Y112.591 E6.61234
G1 X84.752 Y112.033 E6.63889
G1 X84.235 Y110.919 E6.68879
G1 X83.980 Y110.121 E6.72279
G1 X83.777 Y109.095 E6.76526
G1 X83.716 Y108.477 E6.79050
G1 X83.698 Y108.000 E6.80989
G1 X83.698 Y92.000 E7.45970
G1 X83.746 Y91.178 E7.49315
G1 X83.777 Y90.905 E7.50431
G1 X83.980 Y89.879 E7.54679
G1 X84.235 Y89.081 E7.58079
G1 X84.752 Y87.967 E7.63069
G1 X84.947 Y87.642 E7.64608
G1 X85.093 Y87.409 E7.65724
G1 X85.935 Y86.352 E7.71213
G1 X86.203 Y86.536 F6000.000
G1 X86.536 Y86.203 E7.73122 F1200.000
G1 X87.582 Y85.369 E7.78558
G1 X88.132 Y85.033 E7.81175
G1 X89.189 Y84.543 E7.85907
G1 X89.968 Y84.293 E7.89230
G1 X90.941 Y84.100 E7.93258
G1 X91.548 Y84.040 E7.95733
G1 X92.000 Y84.023 E7.97572
G1 X108.000 Y84.023 E8.62553
G1 X108.786 Y84.070 E8.65750
G1 X109.059 Y84.100 E8.66866
G1 X110.032 Y84.293 E8.70894
G1 X110.811 Y84.543 E8.74217
G1 X111.868 Y85.033 E8.78949
G1 X112.185 Y85.222 E8.80450
G1 X112.418 Y85.369 E8.81567
G1 X113.464 Y86.203 E8.87002
G1 X113.797 Y86.536 E8.88912
G1 X114.631 Y87.582 E8.94347
G1 X114.967 Y88.132 E8.96964
G1 X115.457 Y89.189 E9.01696
G1 X115.707 Y89.968 E9.05020
G1 X115.900 Y90.941 E9.09047
G1 X115.960 Y91.547 E9.11522
G1 X115.977 Y92.000 E9.13361
G1 X115.977 Y108.000 E9.78342
G1 X115.930 Y108.786 E9.81539
G1 X115.900 Y109.059 E9.82656
G1 X115.707 Y110.032 E9.86683
G1 X115.457 Y110.811 E9.90007
G1 X114.967 Y111.868 E9.94739
G1 X114.778 Y112.185 E9.96240
G1 X114.631 Y112.418 E9.97356
G1 X113.797 Y113.464 E10.02791
G1 X113.464 Y113.797 E10.04701
G1 X112.418 Y114.631 E10.10137
G1 X111.868 Y114.967 E10.12754
G1 X110.811 Y115.457 E10.17486
G1 X110.032 Y115.707 E10.20809
G1 X109.059 Y115.900 E10.24837
G1 X108.452 Y115.960 E10.27312
G1 X108.000 Y115.977 E10.29151
G1 X92.000 Y115.977 E10.94132
G1 X91.214 Y115.930 E10.97329
G1 X90.941 Y115.900 E10.98445
G1 X89.968 Y115.707 E11.02473
G1 X89.189 Y115.457 E11.05796
G1 X88.132 Y114.967 E11.10528
G1 X87.815 Y114.778 E11.12029
G1 X87.582 Y114.631 E11.13145
G1 X86.536 Y113.797 E11.18581
G1 X86.203 Y113.464 E11.20491
G1 X85.369 Y112.418 E11.25926
G1 X85.033 Y111.868 E11.28543
G1 X84.543 Y110.811 E11.33275
G1 X84.293 Y110.032 E11.36599
G1 X84.100 Y109.059 E11.40626
G1 X84.040 Y108.452 E11.43102
G1 X84.023 Y108.000 E11.44940
G1 X84.023 Y92.000 E12.09921
G1 X84.070 Y91.214 E12.13118
G1 X84.100 Y90.941 E12.14235
G1 X84.293 Y89.968 E12.18262
G1 X84.543 Y89.189 E12.21586
G1 X85.033 Y88.132 E12.26318
G1 X85.222 Y87.815 E12.27818
G1 X85.369 Y87.582 E12.28935
G1 X86.166 Y86.582 E12.34127
G1 X86.433 Y86.766 F6000.000
G1 X86.766 Y86.433 E12.36036 F1200.000
G1 X87.755 Y85.644 E12.41176
G1 X88.297 Y85.313 E12.43754
G1 X89.296 Y84.850 E12.48228
G1 X90.058 Y84.606 E12.51475
G1 X90.977 Y84.424 E12.55283
G1 X91.572 Y84.365 E12.57710
G1 X92.000 Y84.349 E12.59449
G1 X108.000 Y84.349 E13.24430
G1 X108.749 Y84.393 E13.27478
G1 X109.023 Y84.424 E13.28595
G1 X109.942 Y84.606 E13.32403
G1 X110.704 Y84.850 E13.35649
G1 X111.703 Y85.313 E13.40124
G1 X112.012 Y85.498 E13.41586
G1 X112.245 Y85.644 E13.42702
G1 X113.234 Y86.433 E13.47842
G1 X113.567 Y86.766 E13.49751
G1 X114.356 Y87.755 E13.54891
G1 X114.687 Y88.297 E13.57469
G1 X115.150 Y89.296 E13.61943
G1 X115.394 Y90.058 E13.65190
G1 X115.576 Y90.978 E13.68998
G1 X115.635 Y91.572 E13.71425
G1 X115.651 Y92.000 E13.73164
G1 X115.651 Y108.000 E14.38145
G1 X115.607 Y108.749 E14.41193
G1 X115.576 Y109.023 E14.42310
G1 X115.394 Y109.942 E14.46118
G1 X115.150 Y110.704 E14.49364
G1 X114.687 Y111.703 E14.53838
G1 X114.502 Y112.012 E14.55301
G1 X114.356 Y112.245 E14.56417
G1 X113.567 Y113.234 E14.61556
G1 X113.234 Y113.567 E14.63466
G1 X112.245 Y114.356 E14.68606
G1 X111.703 Y114.687 E14.71184
G1 X110.704 Y115.150 E14.75658
G1 X109.942 Y115.394 E14.78905
G1 X109.023 Y115.576 E14.82713
G1 X108.428 Y115.635 E14.85140
G1 X108.000 Y115.651 E14.86879
G1 X92.000 Y115.651 E15.51860
G1 X91.251 Y115.607 E15.54908
G1 X90.977 Y115.576 E15.56025
G1 X90.058 Y115.394 E15.59833
G1 X89.296 Y115.150 E15.63079
G1 X88.297 Y114.687 E15.67554
G1 X87.988 Y114.502 E15.69015
G1 X87.755 Y114.356 E15.70132
G1 X86.766 Y113.567 E15.75271
G1 X86.433 Y113.234 E15.77181
G1 X85.644 Y112.245 E15.82321
G1 X85.313 Y111.703 E15.84899
G1 X84.850 Y110.703 E15.89373
G1 X84.606 Y109.942 E15.92620
G1 X84.424 Y109.023 E15.96428
G1 X84.365 Y108.428 E15.98855
G1 X84.349 Y108.000 E16.00593
G1 X84.349 Y92.000 E16.65574
G1 X84.393 Y91.251 E16.68623
G1 X84.424 Y90.977 E16.69739
G1 X84.606 Y90.058 E16.73548
G1 X84.850 Y89.296 E16.76794
G1 X85.313 Y88.297 E16.81268
G1 X85.498 Y87.988 E16.82730
G1 X85.644 Y87.755 E16.83847
G1 X86.396 Y86.813 E16.88743
G1 X86.664 Y86.996 F6000.000
G1 X86.996 Y86.664 E16.90652 F1200.000
G1 X87.928 Y85.920 E16.95496
G1 X88.462 Y85.594 E16.98035
G1 X89.404 Y85.157 E17.02252
G1 X90.147 Y84.919 E17.05421
G1 X91.014 Y84.748 E17.09010
G1 X91.597 Y84.690 E17.11389
G1 X92.000 Y84.674 E17.13027
G1 X108.000 Y84.674 E17.78008
G1 X108.713 Y84.717 E17.80909
G1 X108.986 Y84.747 E17.82025
G1 X109.853 Y84.919 E17.85614
G1 X110.596 Y85.157 E17.88783
G1 X111.538 Y85.594 E17.92999
G1 X111.839 Y85.774 E17.94423
G1 X112.072 Y85.920 E17.95540
G1 X113.004 Y86.664 E18.00383
G1 X113.336 Y86.996 E18.02293
G1 X114.080 Y87.928 E18.07136
G1 X114.406 Y88.462 E18.09676
G1 X114.843 Y89.404 E18.13892
G1 X115.081 Y90.147 E18.17062
G1 X115.253 Y91.014 E18.20650
G1 X115.310 Y91.597 E18.23029
G1 X115.326 Y92.000 E18.24668
G1 X115.326 Y108.000 E18.89649
G1 X115.283 Y108.713 E18.92549
G1 X115.253 Y108.986 E18.93665
G1 X115.081 Y109.853 E18.97254
G1 X114.843 Y110.596 E19.00424
G1 X114.406 Y111.538 E19.04640
G1 X114.226 Y111.839 E19.06064
G1 X114.080 Y112.072 E19.07180
G1 X113.336 Y113.004 E19.12023
G1 X113.004 Y113.336 E19.13933
G1 X112.072 Y114.080 E19.18776
G1 X111.538 Y114.406 E19.21316
G1 X110.596 Y114.843 E19.25532
G1 X109.853 Y115.081 E19.28702
G1 X108.986 Y115.252 E19.32290
G1 X108.403 Y115.310 E19.34670
G1 X108.000 Y115.326 E19.36308
G1 X92.000 Y115.326 E20.01289
G1 X91.287 Y115.283 E20.04189
G1 X91.014 Y115.253 E20.05306
G1 X90.147 Y115.081 E20.08894
G1 X89.404 Y114.843 E20.12064
G1 X88.462 Y114.406 E20.16280
G1 X88.161 Y114.226 E20.17704
G1 X87.929 Y114.080 E20.18820
G1 X86.996 Y113.336 E20.23664
G1 X86.664 Y113.004 E20.25573
G1 X85.920 Y112.072 E20.30416
G1 X85.594 Y111.538 E20.32956
G1 X85.157 Y110.596 E20.37173
G1 X84.919 Y109.853 E20.40342
G1 X84.748 Y108.986 E20.43931
G1 X84.690 Y108.403 E20.46310
G1 X84.674 Y108.000 E20.47948
G1 X84.674 Y92.000 E21.12929
G1 X84.699 Y91.480 E21.15042
G1 X84.747 Y91.014 E21.16947
G1 X84.919 Y90.147 E21.20535
G1 X85.157 Y89.404 E21.23705
G1 X85.594 Y88.462 E21.27921
G1 X85.774 Y88.161 E21.29345
G1 X85.920 Y87.928 E21.30461
G1 X86.626 Y87.043 E21.35061
G1 E18.35061 F1800.00000
G92 E0
G1 X105.563 Y105.982 F6000.000
G1 E3.00000 F1800.00000
G1 X105.061 Y106.289 E3.02386 F1200.000
G1 X104.488 Y106.474 E3.04831
G1 X104.026 Y106.521 E3.06717
G1 X95.974 Y106.521 E3.39422
G1 X95.503 Y106.473 E3.41344
G1 X94.944 Y106.292 E3.43728
G1 X94.437 Y105.982 E3.46140
G1 X94.018 Y105.563 E3.48552
G1 X93.711 Y105.061 E3.50938
G1 X93.526 Y104.488 E3.53383
G1 X93.479 Y104.026 E3.55269
G1 X93.479 Y95.974 E3.87973
G1 X93.527 Y95.503 E3.89896
G1 X93.708 Y94.944 E3.92280
G1 X94.018 Y94.437 E3.94692
G1 X94.437 Y94.018 E3.97104
G1 X94.944 Y93.708 E3.99516
G1 X95.500 Y93.528 E4.01888
G1 X95.852 Y93.488 E4.03327
G1 X104.146 Y93.488 E4.37012
G1 X104.500 Y93.528 E4.38458
G1 X105.056 Y93.708 E4.40830
G1 X105.563 Y94.018 E4.43242
G1 X105.982 Y94.437 E4.45654
G1 X106.289 Y94.939 E4.48040
G1 X106.474 Y95.512 E4.50485
G1 X106.521 Y95.974 E4.52371
G1 X106.521 Y104.026 E4.85076
G1 X106.473 Y104.497 E4.86998
G1 X106.292 Y105.056 E4.89382
G1 X105.982 Y105.563 E4.91794
G1 X105.605 Y105.940 E4.93963
G1 X105.360 Y105.725 F6000.000
G1 X104.921 Y105.993 E4.96050 F1200.000
G1 X104.637 Y106.093 E4.97274
G1 X104.427 Y106.153 E4.98161
G1 X104.010 Y106.195 E4.99863
G1 X95.990 Y106.195 E5.32433
G1 X95.570 Y106.152 E5.34148
G1 X95.081 Y105.994 E5.36235
G1 X94.640 Y105.725 E5.38333
G1 X94.275 Y105.360 E5.40431
G1 X94.007 Y104.921 E5.42519
G1 X93.907 Y104.637 E5.43743
G1 X93.847 Y104.427 E5.44629
G1 X93.805 Y104.010 E5.46331
G1 X93.805 Y95.990 E5.78901
G1 X93.848 Y95.570 E5.80617
G1 X94.006 Y95.081 E5.82704
G1 X94.275 Y94.640 E5.84801
G1 X94.640 Y94.275 E5.86899
G1 X95.081 Y94.006 E5.88997
G1 X95.569 Y93.848 E5.91079
G1 X95.872 Y93.814 E5.92316
G1 X104.128 Y93.814 E6.25847
G1 X104.431 Y93.848 E6.27086
G1 X104.919 Y94.006 E6.29169
G1 X105.360 Y94.275 E6.31267
G1 X105.725 Y94.640 E6.33364
G1 X105.993 Y95.079 E6.35452
G1 X106.093 Y95.363 E6.36676
G1 X106.153 Y95.573 E6.37563
G1 X106.195 Y95.990 E6.39264
G1 X106.195 Y104.010 E6.71835
G1 X106.152 Y104.430 E6.73550
G1 X105.994 Y104.919 E6.75637
G1 X105.725 Y105.360 E6.77735
G1 X105.402 Y105.682 E6.79589
G1 X105.401 Y106.123 F6000.000
G1 X107.974 Y109.479 F6000.000
G1 X92.026 Y109.479 E7.44355 F1200.000
G1 X91.718 Y109.448 E7.45615
G1 X91.382 Y109.340 E7.47049
G1 X91.086 Y109.159 E7.48456
G1 X90.841 Y108.914 E7.49863
G1 X90.657 Y108.613 E7.51296
G1 X90.590 Y108.420 E7.52126
G1 X90.553 Y108.291 E7.52670
G1 X90.521 Y107.974 E7.53966
G1 X90.521 Y92.026 E8.18733
G1 X90.552 Y91.718 E8.19993
G1 X90.660 Y91.382 E8.21426
G1 X90.841 Y91.086 E8.22833
G1 X91.086 Y90.841 E8.24241
G1 X91.382 Y90.660 E8.25648
G1 X91.720 Y90.551 E8.27093
G1 X91.915 Y90.529 E8.27886
G1 X107.974 Y90.521 E8.93107
G1 X108.282 Y90.552 E8.94367
G1 X108.618 Y90.660 E8.95801
G1 X108.914 Y90.841 E8.97208
G1 X109.159 Y91.086 E8.98615
G1 X109.343 Y91.387 E9.00048
G1 X109.410 Y91.580 E9.00877
G1 X109.447 Y91.709 E9.01421
G1 X109.479 Y92.026 E9.02718
G1 X109.479 Y107.974 E9.67484
G1 X109.448 Y108.282 E9.68744
G1 X109.340 Y108.618 E9.70178
G1 X109.159 Y108.914 E9.71585
G1 X108.914 Y109.159 E9.72992
G1 X108.613 Y109.343 E9.74425
G1 X108.291 Y109.447 E9.75798
G1 X108.033 Y109.473 E9.76851
G1 X107.990 Y109.805 F6000.000
G1 X92.010 Y109.805 E10.41751 F1200.000
G1 X91.651 Y109.768 E10.43218
G1 X91.245 Y109.637 E10.44949
G1 X90.883 Y109.416 E10.46670
G1 X90.584 Y109.117 E10.48392
G1 X90.361 Y108.753 E10.50123
G1 X90.279 Y108.519 E10.51132
G1 X90.232 Y108.353 E10.51832
G1 X90.195 Y107.990 E10.53312
G1 X90.195 Y92.010 E11.18213
G1 X90.232 Y91.651 E11.19680
G1 X90.363 Y91.245 E11.21411
G1 X90.584 Y90.883 E11.23132
G1 X90.883 Y90.584 E11.24854
G1 X91.245 Y90.363 E11.26575
G1 X91.652 Y90.231 E11.28310
G1 X91.895 Y90.204 E11.29306
G1 X107.990 Y90.195 E11.94673
G1 X108.349 Y90.232 E11.96140
G1 X108.755 Y90.363 E11.97870
G1 X109.117 Y90.584 E11.99592
G1 X109.416 Y90.883 E12.01313
G1 X109.639 Y91.247 E12.03044
G1 X109.721 Y91.481 E12.04053
G1 X109.768 Y91.647 E12.04753
G1 X109.805 Y92.010 E12.06234
G1 X109.805 Y107.990 E12.71134
G1 X109.768 Y108.349 E12.72601
G1 X109.637 Y108.755 E12.74332
G1 X109.416 Y109.117 E12.76054
G1 X109.117 Y109.416 E12.77775
G1 X108.753 Y109.639 E12.79506
G1 X108.353 Y109.768 E12.81214
G1 X108.050 Y109.799 E12.82451
G1 X107.779 Y109.466 F6000.000
G1 X95.502 Y106.669 F6000.000
M204 S750
G1 X98.125 Y109.292 E12.97674 F1200.000
G1 X98.590 Y109.292 E12.99583
G1 X96.007 Y106.708 E13.14576
G1 X96.472 Y106.708 E13.16485
G1 X99.055 Y109.292 E13.31477
G1 X99.521 Y109.292 E13.33387
G1 X96.937 Y106.708 E13.48379
G1 X97.402 Y106.708 E13.50289
G1 X99.986 Y109.292 E13.65281
G1 X100.451 Y109.292 E13.67190
G1 X97.868 Y106.708 E13.82183
G1 X98.333 Y106.708 E13.84092
G1 X100.916 Y109.292 E13.99085
G1 X101.382 Y109.292 E14.00994
G1 X98.798 Y106.708 E14.15986
G1 X99.264 Y106.708 E14.17896
G1 X101.847 Y109.292 E14.32888
G1 X102.312 Y109.292 E14.34798
G1 X99.729 Y106.708 E14.49790
G1 X100.194 Y106.708 E14.51700
G1 X102.778 Y109.292 E14.66692
G1 X103.243 Y109.292 E14.68601
G1 X100.659 Y106.708 E14.83594
G1 X101.125 Y106.708 E14.85503
G1 X103.708 Y109.292 E15.00496
G1 X104.173 Y109.292 E15.02405
G1 X101.590 Y106.708 E15.17397
G1 X102.055 Y106.708 E15.19307
G1 X104.639 Y109.292 E15.34299
G1 X105.104 Y109.292 E15.36209
G1 X102.521 Y106.708 E15.51201
G1 X102.986 Y106.708 E15.53110
G1 X105.569 Y109.292 E15.68103
G1 X106.035 Y109.292 E15.70012
G1 X103.451 Y106.708 E15.85005
G1 X103.917 Y106.708 E15.86914
G1 X106.500 Y109.292 E16.01907
G1 X106.965 Y109.292 E16.03816
G1 X104.344 Y106.670 E16.19029
G1 X104.717 Y106.578 E16.20606
G1 X107.431 Y109.292 E16.36353
G1 X107.896 Y109.292 E16.38263
G1 X105.069 Y106.465 E16.54667
G1 X105.363 Y106.294 E16.56064
G1 X108.327 Y109.257 E16.73261
G1 X108.659 Y109.125 E16.74731
G1 X105.652 Y106.117 E16.92183
G1 X105.885 Y105.885 E16.93533
G1 X108.910 Y108.910 E17.11086
G1 X109.125 Y108.659 E17.12440
G1 X106.117 Y105.652 E17.29893
G1 X106.294 Y105.363 E17.31282
G1 X109.256 Y108.325 E17.48470
G1 X109.292 Y107.896 E17.50238
G1 X106.466 Y105.070 E17.66636
G1 X106.580 Y104.719 E17.68152
G1 X109.292 Y107.431 E17.83891
G1 X109.292 Y106.965 E17.85800
G1 X106.670 Y104.344 E18.01013
G1 X106.708 Y103.917 E18.02774
G1 X109.292 Y106.500 E18.17766
G1 X109.292 Y106.035 E18.19675
G1 X106.708 Y103.451 E18.34668
G1 X106.708 Y102.986 E18.36577
G1 X109.292 Y105.569 E18.51570
G1 X109.292 Y105.104 E18.53479
G1 X106.708 Y102.521 E18.68472
G1 X106.708 Y102.055 E18.70381
G1 X109.292 Y104.639 E18.85373
G1 X109.292 Y104.174 E18.87283
G1 X106.708 Y101.590 E19.02275
G1 X106.708 Y101.125 E19.04185
G1 X109.292 Y103.708 E19.19177
G1 X109.292 Y103.243 E19.21086
G1 X106.708 Y100.660 E19.36079
G1 X106.708 Y100.194 E19.37988
G1 X109.292 Y102.778 E19.52981
G1 X109.292 Y102.312 E19.54890
G1 X106.708 Y99.729 E19.69882
G1 X106.708 Y99.264 E19.71792
G1 X109.292 Y101.847 E19.86784
G1 X109.292 Y101.382 E19.88694
G1 X106.708 Y98.798 E20.03686
G1 X106.708 Y98.333 E20.05595
G1 X109.292 Y100.916 E20.20588
G1 X109.292 Y100.451 E20.22497
G1 X106.708 Y97.868 E20.37490
G1 X106.708 Y97.402 E20.39399
G1 X109.292 Y99.986 E20.54392
G1 X109.292 Y99.521 E20.56301
G1 X106.708 Y96.937 E20.71293
G1 X106.708 Y96.472 E20.73203
G1 X109.292 Y99.055 E20.88195
G1 X109.292 Y98.590 E20.90104
