; generated by Slic3r 1.2.9 on 2018-09-30 at 20:21:24

; external perimeters extrusion width = 0.40mm
; perimeters extrusion width = 0.67mm
; infill extrusion width = 0.67mm
; solid infill extrusion width = 0.67mm
; top infill extrusion width = 0.26mm

M107
M190 S78 ; set bed temperature
M104 S245 ; set temperature
G28 ; home all axes
G1 Z5 F5000 ; lift nozzle

M109 S245 ; wait for temperature to be reached
G21 ; set units to millimeters
G90 ; use absolute coordinates
M82 ; use absolute distances for extrusion
G92 E0
G1 E-2.00000 F1800.00000
G92 E0
G1 Z0.300 F6000.000
G1 X85.235 Y85.875 F6000.000
G1 E2.00000 F1800.00000
M204 S2000
G1 X86.975 Y84.471 E2.09083 F1200.000
G1 X90.000 Y83.698 E2.21762
G1 X110.000 Y83.698 E3.02988
G1 X112.201 Y84.094 E3.12071
G1 X114.125 Y85.235 E3.21154
G1 X115.529 Y86.975 E3.30237
G1 X116.302 Y90.000 E3.42916
G1 X116.302 Y110.000 E4.24142
G1 X115.906 Y112.201 E4.33225
G1 X114.765 Y114.125 E4.42309
G1 X113.025 Y115.529 E4.51392
G1 X110.000 Y116.302 E4.64070
G1 X90.000 Y116.302 E5.45296
G1 X87.799 Y115.906 E5.54380
G1 X85.875 Y114.765 E5.63463
G1 X84.471 Y113.025 E5.72546
G1 X83.698 Y110.000 E5.85225
G1 X83.698 Y90.000 E6.66451
G1 X84.094 Y87.799 E6.75534
G1 X85.204 Y85.927 E6.84373
G1 X85.557 Y86.002 F6000.000
G1 X87.284 Y84.676 E6.93217 F1200.000
G1 X90.000 Y84.023 E7.04561
G1 X110.000 Y84.023 E7.85787
G1 X112.141 Y84.420 E7.94630
G1 X113.998 Y85.557 E8.03474
G1 X115.324 Y87.284 E8.12317
G1 X115.977 Y90.000 E8.23661
G1 X115.977 Y110.000 E9.04887
G1 X115.580 Y112.141 E9.13731
G1 X114.443 Y113.998 E9.22574
G1 X112.716 Y115.324 E9.31418
G1 X110.000 Y115.977 E9.42762
G1 X90.000 Y115.977 E10.23988
G1 X87.859 Y115.580 E10.32831
G1 X86.002 Y114.443 E10.41675
G1 X84.676 Y112.716 E10.50518
G1 X84.023 Y110.000 E10.61862
G1 X84.023 Y90.000 E11.43088
G1 X84.420 Y87.859 E11.51932
G1 X85.526 Y86.053 E11.60532
G1 X85.879 Y86.133 F6000.000
G1 X87.591 Y84.888 E11.69129 F1200.000
G1 X90.000 Y84.349 E11.79155
G1 X110.000 Y84.349 E12.60381
G1 X112.079 Y84.745 E12.68978
G1 X113.867 Y85.879 E12.77575
G1 X115.112 Y87.591 E12.86172
G1 X115.651 Y90.000 E12.96198
G1 X115.651 Y110.000 E13.77424
G1 X115.255 Y112.079 E13.86021
G1 X114.121 Y113.867 E13.94618
G1 X112.409 Y115.112 E14.03216
G1 X110.000 Y115.651 E14.13242
G1 X90.000 Y115.651 E14.94468
G1 X87.921 Y115.255 E15.03065
G1 X86.133 Y114.121 E15.11662
G1 X84.888 Y112.409 E15.20259
G1 X84.349 Y110.000 E15.30285
G1 X84.349 Y90.000 E16.11511
G1 X84.745 Y87.921 E16.20108
G1 X85.847 Y86.184 E16.28461
G1 X86.200 Y86.268 F6000.000
G1 X87.896 Y85.108 E16.36805 F1200.000
G1 X90.000 Y84.674 E16.45531
G1 X110.000 Y84.674 E17.26757
G1 X112.016 Y85.071 E17.35101
G1 X113.732 Y86.200 E17.43444
G1 X114.892 Y87.896 E17.51788
G1 X115.326 Y90.000 E17.60514
G1 X115.326 Y110.000 E18.41740
G1 X114.929 Y112.016 E18.50083
G1 X113.800 Y113.732 E18.58427
G1 X112.104 Y114.892 E18.66770
G1 X110.000 Y115.326 E18.75496
G1 X90.000 Y115.326 E19.56722
G1 X87.984 Y114.929 E19.65066
G1 X86.268 Y113.800 E19.73409
G1 X85.108 Y112.104 E19.81753
G1 X84.674 Y110.000 E19.90479
G1 X84.674 Y90.000 E20.71705
G1 X85.071 Y87.984 E20.80049
G1 X86.167 Y86.318 E20.88148
G1 E18.88148 F1800.00000
G92 E0
G1 X109.479 Y109.479 F6000.000
G1 E2.00000 F1800.00000
G1 X90.521 Y109.479 E2.76997 F1200.000
G1 X90.521 Y90.521 E3.53995
G1 X109.479 Y90.521 E4.30992
G1 X109.479 Y109.419 E5.07745
G1 X109.805 Y109.700 F6000.000
G1 X109.805 Y109.805 E5.08172 F1200.000
G1 X90.195 Y109.805 E5.87814
G1 X90.195 Y90.195 E6.67456
G1 X109.805 Y90.195 E7.47098
G1 X109.805 Y109.640 E8.26070
G1 X109.714 Y109.752 F6000.000
G1 X109.292 Y90.886 F6000.000
M204 S750
G1 X109.114 Y90.708 E8.27106 F1200.000
G1 X108.648 Y90.708 E8.29021
G1 X109.292 Y91.352 E8.32764
G1 X109.292 Y91.818 E8.34679
G1 X108.182 Y90.708 E8.41130
G1 X107.716 Y90.708 E8.43045
G1 X109.292 Y92.284 E8.52204
G1 X109.292 Y92.750 E8.54119
G1 X107.250 Y90.708 E8.65986
G1 X106.784 Y90.708 E8.67901
G1 X109.292 Y93.216 E8.82476
G1 X109.292 Y93.682 E8.84391
G1 X106.318 Y90.708 E9.01674
G1 X105.852 Y90.708 E9.03589
G1 X109.292 Y94.148 E9.23580
G1 X109.292 Y94.614 E9.25495
G1 X105.386 Y90.708 E9.48194
G1 X104.920 Y90.708 E9.50109
G1 X109.292 Y95.080 E9.75516
G1 X109.292 Y95.546 E9.77431
G1 X104.454 Y90.708 E10.05546
G1 X103.988 Y90.708 E10.07461
G1 X109.292 Y96.012 E10.38284
G1 X109.292 Y96.478 E10.40199
G1 X103.522 Y90.708 E10.73730
G1 X103.056 Y90.708 E10.75645
G1 X109.292 Y96.944 E11.11884
G1 X109.292 Y97.410 E11.13799
G1 X102.590 Y90.708 E11.52746
G1 X102.124 Y90.708 E11.54661
G1 X109.292 Y97.876 E11.96316
G1 X109.292 Y98.342 E11.98231
G1 X101.658 Y90.708 E12.42594
G1 X101.192 Y90.708 E12.44508
G1 X109.292 Y98.808 E12.91579
G1 X109.292 Y99.274 E12.93494
G1 X100.726 Y90.708 E13.43273
G1 X100.260 Y90.708 E13.45188
G1 X109.292 Y99.740 E13.97675
G1 X109.292 Y100.206 E13.99590
G1 X99.794 Y90.708 E14.54785
G1 X99.328 Y90.708 E14.56699
G1 X109.292 Y100.672 E15.14602
G1 X109.292 Y101.137 E15.16517
G1 X98.863 Y90.708 E15.77128
G1 X98.397 Y90.708 E15.79043
G1 X109.292 Y101.603 E16.42362
G1 X109.292 Y102.069 E16.44277
G1 X97.931 Y90.708 E17.10303
G1 X97.465 Y90.708 E17.12218
G1 X109.292 Y102.535 E17.80953
G1 X109.292 Y103.001 E17.82868
G1 X96.999 Y90.708 E18.54311
G1 X96.533 Y90.708 E18.56225
G1 X109.292 Y103.467 E19.30376
G1 X109.292 Y103.933 E19.32291
G1 X96.067 Y90.708 E20.09150
G1 X95.601 Y90.708 E20.11065
G1 X109.292 Y104.399 E20.90631
G1 X109.292 Y104.865 E20.92546
G1 X95.135 Y90.708 E21.74821
G1 X94.669 Y90.708 E21.76736
G1 X109.292 Y105.331 E22.61718
G1 X109.292 Y105.797 E22.63633
G1 X94.203 Y90.708 E23.51324
G1 X93.737 Y90.708 E23.53239
G1 X109.292 Y106.263 E24.43637
G1 X109.292 Y106.729 E24.45552
G1 X93.271 Y90.708 E25.38659
G1 X92.805 Y90.708 E25.40573
G1 X109.292 Y107.195 E26.36388
G1 X109.292 Y107.661 E26.38303
G1 X92.339 Y90.708 E27.36825
G1 X91.873 Y90.708 E27.38740
G1 X109.292 Y108.127 E28.39971
G1 X109.292 Y108.593 E28.41886
G1 X91.407 Y90.708 E29.45824
G1 X90.941 Y90.708 E29.47739
G1 X109.292 Y109.059 E30.54386
G1 X109.059 Y109.292 E30.55739
G1 X90.708 Y90.941 E31.62386
G1 X90.708 Y91.407 E31.64301
G1 X108.593 Y109.292 E32.68239
G1 X108.127 Y109.292 E32.70154
G1 X90.708 Y91.873 E33.71384
G1 X90.708 Y92.339 E33.73299
G1 X107.661 Y109.292 E34.71821
G1 X107.195 Y109.292 E34.73736
G1 X90.708 Y92.805 E35.69550
G1 X90.708 Y93.271 E35.71465
G1 X106.729 Y109.292 E36.64571
G1 X106.263 Y109.292 E36.66486
G1 X90.708 Y93.737 E37.56884
G1 X90.708 Y94.203 E37.58799
G1 X105.797 Y109.292 E38.46490
G1 X105.331 Y109.292 E38.48404
G1 X90.708 Y94.669 E39.33387
G1 X90.708 Y95.135 E39.35302
G1 X104.865 Y109.292 E40.17576
G1 X104.399 Y109.292 E40.19491
G1 X90.708 Y95.601 E40.99057
G1 X90.708 Y96.067 E41.00972
G1 X103.933 Y109.292 E41.77831
G1 X103.467 Y109.292 E41.79745
G1 X90.708 Y96.533 E42.53896
G1 X90.708 Y96.999 E42.55811
G1 X103.001 Y109.292 E43.27253
G1 X102.535 Y109.292 E43.29168
G1 X90.708 Y97.465 E43.97903
G1 X90.708 Y97.931 E43.99817
G1 X102.069 Y109.292 E44.65844
G1 X101.603 Y109.292 E44.67759
G1 X90.708 Y98.397 E45.31077
G1 X90.708 Y98.863 E45.32992
G1 X101.137 Y109.292 E45.93603
G1 X100.671 Y109.292 E45.95518
G1 X90.708 Y99.329 E46.53420
G1 X90.708 Y99.794 E46.55335
G1 X100.206 Y109.292 E47.10530
G1 X99.740 Y109.292 E47.12445
G1 X90.708 Y100.260 E47.64931
G1 X90.708 Y100.726 E47.66846
G1 X99.274 Y109.292 E48.16625
G1 X98.808 Y109.292 E48.18539
G1 X90.708 Y101.192 E48.65610
G1 X90.708 Y101.658 E48.67525
G1 X98.342 Y109.292 E49.11888
G1 X97.876 Y109.292 E49.13803
G1 X90.708 Y102.124 E49.55457
G1 X90.708 Y102.590 E49.57372
G1 X97.410 Y109.292 E49.96319
G1 X96.944 Y109.292 E49.98234
G1 X90.708 Y103.056 E50.34472
G1 X90.708 Y103.522 E50.36387
G1 X96.478 Y109.292 E50.69918
G1 X96.012 Y109.292 E50.71833
G1 X90.708 Y103.988 E51.02656
G1 X90.708 Y104.454 E51.04570
G1 X95.546 Y109.292 E51.32685
G1 X95.080 Y109.292 E51.34600
G1 X90.708 Y104.920 E51.60007
G1 X90.708 Y105.386 E51.61922
G1 X94.614 Y109.292 E51.84621
G1 X94.148 Y109.292 E51.86536
G1 X90.708 Y105.852 E52.06526
G1 X90.708 Y106.318 E52.08441
G1 X93.682 Y109.292 E52.25724
G1 X93.216 Y109.292 E52.27639
G1 X90.708 Y106.784 E52.42214
G1 X90.708 Y107.250 E52.44129
G1 X92.750 Y109.292 E52.55996
G1 X92.284 Y109.292 E52.57911
G1 X90.708 Y107.716 E52.67070
G1 X90.708 Y108.182 E52.68984
G1 X91.818 Y109.292 E52.75435
G1 X91.352 Y109.292 E52.77350
G1 X90.708 Y108.648 E52.81093
G1 X90.708 Y109.114 E52.83008
G1 X90.886 Y109.292 E52.84043
M204 S2000
M106 S255
M104 S240 ; set temperature
M140 S73 ; wait for bed temperature to be reached
G1 E50.84043 F1800.00000
G92 E0
G1 Z0.500 F6000.000
G1 X109.307 Y109.307 F6000.000
G1 E2.00000 F1800.00000
G1 X90.693 Y109.307 E2.97252 F2400.000
G1 X90.693 Y90.693 E3.94503
G1 X109.307 Y90.693 E4.91755
G1 X109.307 Y109.247 E5.88694
G1 X109.800 Y109.800 F6000.000
G1 X90.200 Y109.800 E6.46888 F1800.000
G1 X90.200 Y90.200 E7.05083
G1 X109.800 Y90.200 E7.63278
G1 X109.800 Y109.740 E8.21295
G1 X109.454 Y109.600 F6000.000
G1 X108.620 Y108.927 F6000.000
M204 S750
G1 X108.927 Y108.620 E8.23589 F3600.000
G1 X108.927 Y107.720 E8.28349
G1 X107.720 Y108.927 E8.37376
G1 X106.820 Y108.927 E8.42136
G1 X108.927 Y106.820 E8.57895
G1 X108.927 Y105.920 E8.62656
G1 X105.920 Y108.927 E8.85147
G1 X105.021 Y108.927 E8.89908
G1 X108.927 Y105.021 E9.19131
G1 X108.927 Y104.121 E9.23892
G1 X104.121 Y108.927 E9.59848
G1 X103.221 Y108.927 E9.64609
G1 X108.927 Y103.221 E10.07298
G1 X108.927 Y102.321 E10.12058
G1 X102.321 Y108.927 E10.61480
G1 X101.421 Y108.927 E10.66240
G1 X108.927 Y101.421 E11.22394
G1 X108.927 Y100.522 E11.27154
G1 X100.522 Y108.927 E11.90041
G1 X99.622 Y108.927 E11.94801
G1 X108.927 Y99.622 E12.64420
G1 X108.927 Y98.722 E12.69181
G1 X98.722 Y108.927 E13.45532
G1 X97.822 Y108.927 E13.50293
G1 X108.927 Y97.822 E14.33376
G1 X108.927 Y96.922 E14.38137
G1 X96.922 Y108.927 E15.27953
G1 X96.022 Y108.927 E15.32714
G1 X108.927 Y96.022 E16.29263
G1 X108.927 Y95.123 E16.34023
G1 X95.123 Y108.927 E17.37304
G1 X94.223 Y108.927 E17.42065
G1 X108.927 Y94.223 E18.52079
G1 X108.927 Y93.323 E18.56839
G1 X93.323 Y108.927 E19.73586
G1 X92.423 Y108.927 E19.78346
G1 X108.927 Y92.423 E21.01825
G1 X108.927 Y91.523 E21.06586
G1 X91.523 Y108.927 E22.36797
G1 X91.073 Y108.477 E22.40163
G1 X108.477 Y91.073 E23.70374
G1 X107.577 Y91.073 E23.75135
G1 X91.073 Y107.577 E24.98613
G1 X91.073 Y106.677 E25.03374
G1 X106.677 Y91.073 E26.20120
G1 X105.777 Y91.073 E26.24880
G1 X91.073 Y105.777 E27.34894
G1 X91.073 Y104.877 E27.39654
G1 X104.877 Y91.073 E28.42935
G1 X103.977 Y91.073 E28.47696
G1 X91.073 Y103.977 E29.44244
G1 X91.073 Y103.078 E29.49005
G1 X103.078 Y91.073 E30.38821
G1 X102.178 Y91.073 E30.43582
G1 X91.073 Y102.178 E31.26665
G1 X91.073 Y101.278 E31.31426
G1 X101.278 Y91.073 E32.07777
G1 X100.378 Y91.073 E32.12537
G1 X91.073 Y100.378 E32.82156
G1 X91.073 Y99.478 E32.86916
G1 X99.478 Y91.073 E33.49802
G1 X98.579 Y91.073 E33.54563
G1 X91.073 Y98.579 E34.10716
G1 X91.073 Y97.679 E34.15477
G1 X97.679 Y91.073 E34.64898
G1 X96.779 Y91.073 E34.69659
G1 X91.073 Y96.779 E35.12347
G1 X91.073 Y95.879 E35.17108
G1 X95.879 Y91.073 E35.53064
G1 X94.979 Y91.073 E35.57824
G1 X91.073 Y94.979 E35.87048
G1 X91.073 Y94.079 E35.91808
G1 X94.079 Y91.073 E36.14299
G1 X93.180 Y91.073 E36.19060
G1 X91.073 Y93.180 E36.34818
G1 X91.073 Y92.280 E36.39579
G1 X92.280 Y91.073 E36.48605
G1 X91.380 Y91.073 E36.53366
G1 X91.073 Y91.380 E36.55659
M204 S2000
G1 E34.55659 F1800.00000
G92 E0
G1 Z0.700 F6000.000
G1 X109.307 Y109.307 F6000.000
G1 E2.00000 F1800.00000
G1 X90.693 Y109.307 E2.97252 F2400.000
G1 X90.693 Y90.693 E3.94503
G1 X109.307 Y90.693 E4.91755
G1 X109.307 Y109.247 E5.88694
G1 X109.800 Y109.800 F6000.000
G1 X90.200 Y109.800 E6.46888 F1800.000
G1 X90.200 Y90.200 E7.05083
G1 X109.800 Y90.200 E7.63278
G1 X109.800 Y109.740 E8.21295
G1 X109.454 Y109.600 F6000.000
G1 X108.927 Y91.380 F6000.000
M204 S750
G1 X108.620 Y91.073 E8.23589 F3600.000
G1 X107.720 Y91.073 E8.28349
G1 X108.927 Y92.280 E8.37376
G1 X108.927 Y93.180 E8.42136
G1 X106.820 Y91.073 E8.57895
G1 X105.920 Y91.073 E8.62656
G1 X108.927 Y94.080 E8.85147
G1 X108.927 Y94.979 E8.89908
G1 X105.021 Y91.073 E9.19131
G1 X104.121 Y91.073 E9.23892
G1 X108.927 Y95.879 E9.59848
G1 X108.927 Y96.779 E9.64609
G1 X103.221 Y91.073 E10.07298
G1 X102.321 Y91.073 E10.12058
G1 X108.927 Y97.679 E10.61479
G1 X108.927 Y98.579 E10.66240
G1 X101.421 Y91.073 E11.22394
G1 X100.522 Y91.073 E11.27154
G1 X108.927 Y99.478 E11.90041
G1 X108.927 Y100.378 E11.94801
G1 X99.622 Y91.073 E12.64420
G1 X98.722 Y91.073 E12.69181
G1 X108.927 Y101.278 E13.45532
G1 X108.927 Y102.178 E13.50292
G1 X97.822 Y91.073 E14.33376
G1 X96.922 Y91.073 E14.38137
G1 X108.927 Y103.078 E15.27953
G1 X108.927 Y103.978 E15.32714
G1 X96.022 Y91.073 E16.29262
G1 X95.123 Y91.073 E16.34023
G1 X108.927 Y104.877 E17.37304
G1 X108.927 Y105.777 E17.42065
G1 X94.223 Y91.073 E18.52078
G1 X93.323 Y91.073 E18.56839
G1 X108.927 Y106.677 E19.73585
G1 X108.927 Y107.577 E19.78346
G1 X92.423 Y91.073 E21.01824
G1 X91.523 Y91.073 E21.06585
G1 X108.927 Y108.477 E22.36796
G1 X108.477 Y108.927 E22.40163
G1 X91.073 Y91.523 E23.70373
G1 X91.073 Y92.423 E23.75134
G1 X107.577 Y108.927 E24.98613
G1 X106.677 Y108.927 E25.03373
G1 X91.073 Y93.323 E26.20119
G1 X91.073 Y94.223 E26.24880
G1 X105.777 Y108.927 E27.34893
G1 X104.877 Y108.927 E27.39654
G1 X91.073 Y95.123 E28.42935
G1 X91.073 Y96.023 E28.47695
G1 X103.977 Y108.927 E29.44244
G1 X103.078 Y108.927 E29.49004
G1 X91.073 Y96.922 E30.38820
G1 X91.073 Y97.822 E30.43581
G1 X102.178 Y108.927 E31.26665
G1 X101.278 Y108.927 E31.31425
G1 X91.073 Y98.722 E32.07776
G1 X91.073 Y99.622 E32.12537
G1 X100.378 Y108.927 E32.82155
G1 X99.478 Y108.927 E32.86916
G1 X91.073 Y100.522 E33.49802
G1 X91.073 Y101.421 E33.54562
G1 X98.579 Y108.927 E34.10716
G1 X97.679 Y108.927 E34.15477
G1 X91.073 Y102.321 E34.64898
G1 X91.073 Y103.221 E34.69658
G1 X96.779 Y108.927 E35.12347
G1 X95.879 Y108.927 E35.17107
G1 X91.073 Y104.121 E35.53063
G1 X91.073 Y105.021 E35.57824
G1 X94.979 Y108.927 E35.87047
G1 X94.079 Y108.927 E35.91808
G1 X91.073 Y105.921 E36.14299
G1 X91.073 Y106.820 E36.19060
G1 X93.180 Y108.927 E36.34818
G1 X92.280 Y108.927 E36.39579
G1 X91.073 Y107.720 E36.48605
G1 X91.073 Y108.620 E36.53365
G1 X91.380 Y108.927 E36.55659
M204 S2000
G1 E34.55659 F1800.00000
G92 E0
G1 Z0.900 F6000.000
G1 X109.307 Y109.307 F6000.000
G1 E2.00000 F1800.00000
G1 X90.693 Y109.307 E2.97252 F2400.000
G1 X90.693 Y90.693 E3.94503
G1 X109.307 Y90.693 E4.91755
G1 X109.307 Y109.247 E5.88694
G1 X109.800 Y109.800 F6000.000
G1 X90.200 Y109.800 E6.46888 F1800.000
G1 X90.200 Y90.200 E7.05083
G1 X109.800 Y90.200 E7.63278
G1 X109.800 Y109.740 E8.21295
G1 X109.454 Y109.600 F6000.000
G1 X108.620 Y108.927 F6000.000
M204 S750
G1 X108.927 Y108.620 E8.23589 F3600.000
G1 X108.927 Y107.720 E8.28349
G1 X107.720 Y108.927 E8.37376
G1 X106.820 Y108.927 E8.42136
G1 X108.927 Y106.820 E8.57895
G1 X108.927 Y105.920 E8.62656
G1 X105.920 Y108.927 E8.85147
G1 X105.021 Y108.927 E8.89908
G1 X108.927 Y105.021 E9.19131
G1 X108.927 Y104.121 E9.23892
G1 X104.121 Y108.927 E9.59848
G1 X103.221 Y108.927 E9.64609
G1 X108.927 Y103.221 E10.07298
G1 X108.927 Y102.321 E10.12058
G1 X102.321 Y108.927 E10.61480
G1 X101.421 Y108.927 E10.66240
G1 X108.927 Y101.421 E11.22394
G1 X108.927 Y100.522 E11.27154
G1 X100.522 Y108.927 E11.90041
G1 X99.622 Y108.927 E11.94801
G1 X108.927 Y99.622 E12.64420
G1 X108.927 Y98.722 E12.69181
G1 X98.722 Y108.927 E13.45532
G1 X97.822 Y108.927 E13.50293
G1 X108.927 Y97.822 E14.33376
G1 X108.927 Y96.922 E14.38137
G1 X96.922 Y108.927 E15.27953
G1 X96.022 Y108.927 E15.32714
G1 X108.927 Y96.022 E16.29263
G1 X108.927 Y95.123 E16.34023
G1 X95.123 Y108.927 E17.37304
G1 X94.223 Y108.927 E17.42065
G1 X108.927 Y94.223 E18.52079
G1 X108.927 Y93.323 E18.56839
G1 X93.323 Y108.927 E19.73586
G1 X92.423 Y108.927 E19.78346
G1 X108.927 Y92.423 E21.01825
G1 X108.927 Y91.523 E21.06586
G1 X91.523 Y108.927 E22.36797
G1 X91.073 Y108.477 E22.40163
G1 X108.477 Y91.073 E23.70374
G1 X107.577 Y91.073 E23.75135
G1 X91.073 Y107.577 E24.98613
G1 X91.073 Y106.677 E25.03374
G1 X106.677 Y91.073 E26.20120
