; generated by Slic3r 1.2.9 on 2018-09-29 at 12:24:02

; external perimeters extrusion width = 0.40mm
; perimeters extrusion width = 0.67mm
; infill extrusion width = 0.67mm
; solid infill extrusion width = 0.67mm
; top infill extrusion width = 0.26mm

M107
M190 S78 ; set bed temperature
M104 S240 ; set temperature
G28 ; home all axes
G1 Z5 F5000 ; lift nozzle

M109 S240 ; wait for temperature to be reached
G21 ; set units to millimeters
G90 ; use absolute coordinates
M82 ; use absolute distances for extrusion
G92 E0
G1 E-2.00000 F1800.00000
G92 E0
G1 Z0.300 F6000.000
G1 X19.379 Y19.633 F6000.000
G1 E2.00000 F1800.00000
M204 S2000
G1 X21.091 Y18.388 E2.08597 F1200.000
G1 X23.500 Y17.849 E2.18623
G1 X176.500 Y17.849 E8.40003
G1 X178.579 Y18.245 E8.48600
G1 X180.367 Y19.379 E8.57197 F1200.000
G1 X181.612 Y21.091 E8.65794
G1 X182.151 Y23.500 E8.75820
G1 X182.151 Y176.500 E14.97200
G1 X181.755 Y178.579 E15.05797
G1 X180.621 Y180.367 E15.14394
G1 X178.909 Y181.612 E15.22991
G1 X176.500 Y182.151 E15.33017
G1 X23.500 Y182.151 E21.54397
G1 X21.421 Y181.755 E21.62994
G1 X19.633 Y180.621 E21.71591
G1 X18.388 Y178.909 E21.80188
G1 X17.849 Y176.500 E21.90214
G1 X17.849 Y23.500 E28.11594
G1 X18.245 Y21.421 E28.20191
G1 X19.347 Y19.684 E28.28544
G1 X19.665 Y19.822 F6000.000
G1 X19.700 Y19.768 E28.28803 F1200.000
G1 X21.396 Y18.608 E28.37147
G1 X23.500 Y18.174 E28.45873
G1 X176.500 Y18.174 E34.67252
G1 X178.516 Y18.571 E34.75596
G1 X180.232 Y19.700 E34.83939 F1200.000
G1 X181.392 Y21.396 E34.92283
G1 X181.826 Y23.500 E35.01009
G1 X181.826 Y176.500 E41.22389
G1 X181.429 Y178.516 E41.30732
G1 X180.300 Y180.232 E41.39076
G1 X178.604 Y181.392 E41.47419
G1 X176.500 Y181.826 E41.56145
G1 X23.500 Y181.826 E47.77525
G1 X21.484 Y181.429 E47.85868
G1 X19.768 Y180.300 E47.94212
G1 X18.608 Y178.604 E48.02555
G1 X18.174 Y176.500 E48.11281
G1 X18.174 Y23.500 E54.32661
G1 X18.571 Y21.484 E54.41005
G1 X19.632 Y19.872 E54.48846
G1 E52.48846 F1800.00000
G92 E0
G1 X154.305 Y154.305 F6000.000
G1 E2.00000 F1800.00000
G1 X175.695 Y154.305 E2.86871 F1200.000
G1 X175.695 Y175.695 E3.73743
G1 X154.305 Y175.695 E4.60614
G1 X154.305 Y154.365 E5.47242
G1 X154.305 Y153.905 F6000.000
G1 X153.695 Y153.695 F6000.000
G1 X176.305 Y153.695 E6.39068 F1200.000
G1 X176.305 Y176.305 E7.30894
G1 X153.695 Y176.305 E8.22720
G1 X153.695 Y153.755 E9.14302
G1 X154.041 Y153.895 F6000.000
G1 E7.14302 F1800.00000
G92 E0
G1 X155.521 Y155.521 F6000.000
G1 E2.00000 F1800.00000
G1 X174.479 Y155.521 E2.76997 F1200.000
G1 X174.479 Y174.479 E3.53995
G1 X155.521 Y174.479 E4.30992
G1 X155.521 Y155.581 E5.07746
G1 X155.195 Y155.195 F6000.000
G1 X174.805 Y155.195 E5.87388 F1200.000
G1 X174.805 Y174.805 E6.67030
G1 X155.195 Y174.805 E7.46672
G1 X155.195 Y155.255 E8.26071
G1 X155.541 Y155.395 F6000.000
G1 X154.024 Y154.024 F6000.000
G1 X154.142 Y154.000 E8.27144 F1200.000
G1 X175.858 Y154.000 E10.20969
G1 X175.976 Y154.024 E10.22043
G1 X176.000 Y154.142 E10.23117
G1 X176.000 Y175.858 E12.16941
G1 X175.976 Y175.976 E12.18015
G1 X175.858 Y176.000 E12.19089
G1 X154.142 Y176.000 E14.12914
G1 X154.024 Y175.976 E14.13987
G1 X154.000 Y175.858 E14.15061
G1 X154.012 Y154.083 E16.09413
G1 E14.09413 F1800.00000
G92 E0
G1 X155.886 Y174.292 F6000.000
G1 E2.00000 F1800.00000
M204 S750
G1 X155.708 Y174.114 E2.01035 F1200.000
G1 X155.708 Y173.648 E2.02950
G1 X156.352 Y174.292 E2.06693
G1 X156.818 Y174.292 E2.08608
G1 X155.708 Y173.182 E2.15059
G1 X155.708 Y172.716 E2.16974
G1 X157.284 Y174.292 E2.26133
G1 X157.750 Y174.292 E2.28047
G1 X155.708 Y172.250 E2.39914
G1 X155.708 Y171.784 E2.41829
G1 X158.216 Y174.292 E2.56404
G1 X158.682 Y174.292 E2.58319
G1 X155.708 Y171.318 E2.75602
G1 X155.708 Y170.852 E2.77517
G1 X159.148 Y174.292 E2.97508
G1 X159.614 Y174.292 E2.99422
G1 X155.708 Y170.386 E3.22121
G1 X155.708 Y169.920 E3.24036
G1 X160.080 Y174.292 E3.49443
G1 X160.546 Y174.292 E3.51358
G1 X155.708 Y169.454 E3.79473
G1 X155.708 Y168.988 E3.81388
G1 X161.012 Y174.292 E4.12210
G1 X161.478 Y174.292 E4.14125
G1 X155.708 Y168.522 E4.47656
G1 X155.708 Y168.056 E4.49571
G1 X161.944 Y174.292 E4.85810
G1 X162.410 Y174.292 E4.87725
G1 X155.708 Y167.590 E5.26671
G1 X155.708 Y167.124 E5.28586
G1 X162.876 Y174.292 E5.70241
G1 X163.342 Y174.292 E5.72156
G1 X155.708 Y166.658 E6.16518
G1 X155.708 Y166.192 E6.18433
G1 X163.808 Y174.292 E6.65504
G1 X164.274 Y174.292 E6.67419
G1 X155.708 Y165.726 E7.17198
G1 X155.708 Y165.260 E7.19112
G1 X164.740 Y174.292 E7.71599
G1 X165.206 Y174.292 E7.73514
G1 X155.708 Y164.794 E8.28709
G1 X155.708 Y164.329 E8.30623
G1 X165.671 Y174.292 E8.88526
G1 X166.137 Y174.292 E8.90441
G1 X155.708 Y163.863 E9.51052
G1 X155.708 Y163.397 E9.52966
G1 X166.603 Y174.292 E10.16285
G1 X167.069 Y174.292 E10.18200
G1 X155.708 Y162.931 E10.84226
G1 X155.708 Y162.465 E10.86141
G1 X167.535 Y174.292 E11.54876
G1 X168.001 Y174.292 E11.56791
G1 X155.708 Y161.999 E12.28233
G1 X155.708 Y161.533 E12.30148
G1 X168.467 Y174.292 E13.04299
G1 X168.933 Y174.292 E13.06213
G1 X155.708 Y161.067 E13.83072
G1 X155.708 Y160.601 E13.84987
G1 X169.399 Y174.292 E14.64553
G1 X169.865 Y174.292 E14.66468
G1 X155.708 Y160.135 E15.48743
G1 X155.708 Y159.669 E15.50658
G1 X170.331 Y174.292 E16.35640
G1 X170.797 Y174.292 E16.37555
G1 X155.708 Y159.203 E17.25245
G1 X155.708 Y158.737 E17.27160
G1 X171.263 Y174.292 E18.17559
G1 X171.729 Y174.292 E18.19473
G1 X155.708 Y158.271 E19.12580
G1 X155.708 Y157.805 E19.14495
G1 X172.195 Y174.292 E20.10309
G1 X172.661 Y174.292 E20.12224
G1 X155.708 Y157.339 E21.10746
G1 X155.708 Y156.873 E21.12661
G1 X173.127 Y174.292 E22.13891
G1 X173.593 Y174.292 E22.15806
G1 X155.708 Y156.407 E23.19745
G1 X155.708 Y155.941 E23.21659
G1 X174.059 Y174.292 E24.28306
G1 X174.292 Y174.059 E24.29660
G1 X155.941 Y155.708 E25.36306
G1 X156.407 Y155.708 E25.38221
G1 X174.292 Y173.593 E26.42160
G1 X174.292 Y173.127 E26.44075
G1 X156.873 Y155.708 E27.45305
G1 X157.339 Y155.708 E27.47220
G1 X174.292 Y172.661 E28.45743
G1 X174.292 Y172.195 E28.47657
G1 X157.805 Y155.708 E29.43472
G1 X158.271 Y155.708 E29.45387
G1 X174.292 Y171.729 E30.38493
G1 X174.292 Y171.263 E30.40408
G1 X158.737 Y155.708 E31.30807
G1 X159.203 Y155.708 E31.32722
G1 X174.292 Y170.797 E32.20412
G1 X174.292 Y170.331 E32.22327
G1 X159.669 Y155.708 E33.07310
G1 X160.135 Y155.708 E33.09225
G1 X174.292 Y169.865 E33.91499
G1 X174.292 Y169.399 E33.93414
G1 X160.601 Y155.708 E34.72981
G1 X161.067 Y155.708 E34.74896
G1 X174.292 Y168.933 E35.51755
G1 X174.292 Y168.467 E35.53669
G1 X161.533 Y155.708 E36.27820
G1 X161.999 Y155.708 E36.29735
G1 X174.292 Y168.001 E37.01178
G1 X174.292 Y167.535 E37.03093
G1 X162.465 Y155.708 E37.71827
G1 X162.931 Y155.708 E37.73742
G1 X174.292 Y167.069 E38.39769
G1 X174.292 Y166.603 E38.41684
G1 X163.397 Y155.708 E39.05003
G1 X163.863 Y155.708 E39.06918
G1 X174.292 Y166.137 E39.67529
G1 X174.292 Y165.672 E39.69443
G1 X164.328 Y155.708 E40.27346
G1 X164.794 Y155.708 E40.29261
G1 X174.292 Y165.206 E40.84456
G1 X174.292 Y164.740 E40.86371
G1 X165.260 Y155.708 E41.38858
G1 X165.726 Y155.708 E41.40773
G1 X174.292 Y164.274 E41.90552
G1 X174.292 Y163.808 E41.92466
G1 X166.192 Y155.708 E42.39537
G1 X166.658 Y155.708 E42.41452
G1 X174.292 Y163.342 E42.85815
G1 X174.292 Y162.876 E42.87730
G1 X167.124 Y155.708 E43.29385
G1 X167.590 Y155.708 E43.31300
G1 X174.292 Y162.410 E43.70247
G1 X174.292 Y161.944 E43.72162
G1 X168.056 Y155.708 E44.08401
G1 X168.522 Y155.708 E44.10316
G1 X174.292 Y161.478 E44.43847
G1 X174.292 Y161.012 E44.45762
G1 X168.988 Y155.708 E44.76585
G1 X169.454 Y155.708 E44.78500
G1 X174.292 Y160.546 E45.06615
G1 X174.292 Y160.080 E45.08530
G1 X169.920 Y155.708 E45.33937
G1 X170.386 Y155.708 E45.35852
G1 X174.292 Y159.614 E45.58551
G1 X174.292 Y159.148 E45.60466
G1 X170.852 Y155.708 E45.80457
G1 X171.318 Y155.708 E45.82372
G1 X174.292 Y158.682 E45.99655
G1 X174.292 Y158.216 E46.01570
G1 X171.784 Y155.708 E46.16145
G1 X172.250 Y155.708 E46.18060
G1 X174.292 Y157.750 E46.29927
G1 X174.292 Y157.284 E46.31842
G1 X172.716 Y155.708 E46.41001
G1 X173.182 Y155.708 E46.42916
G1 X174.292 Y156.818 E46.49367
G1 X174.292 Y156.352 E46.51282
G1 X173.648 Y155.708 E46.55025
G1 X174.114 Y155.708 E46.56940
G1 X174.292 Y155.886 E46.57976
M204 S2000
G1 E44.57976 F1800.00000
G92 E0
G1 X110.695 Y110.695 F6000.000
G1 E2.00000 F1800.00000
G1 X89.305 Y110.695 E2.86871 F1200.000
G1 X89.305 Y89.305 E3.73743
G1 X110.695 Y89.305 E4.60614
G1 X110.695 Y110.635 E5.47242
G1 X110.695 Y111.095 F6000.000
G1 X111.305 Y111.305 F6000.000
G1 X88.695 Y111.305 E6.39068 F1200.000
G1 X88.695 Y88.695 E7.30894
G1 X111.305 Y88.695 E8.22720
G1 X111.305 Y111.245 E9.14302
G1 X110.959 Y111.105 F6000.000
G1 E7.14302 F1800.00000
G92 E0
G1 X109.479 Y109.479 F6000.000
G1 E2.00000 F1800.00000
G1 X90.521 Y109.479 E2.76997 F1200.000
G1 X90.521 Y90.521 E3.53995
G1 X109.479 Y90.521 E4.30992
G1 X109.479 Y109.419 E5.07746
G1 X109.805 Y109.805 F6000.000
G1 X90.195 Y109.805 E5.87388 F1200.000
G1 X90.195 Y90.195 E6.67030
G1 X109.805 Y90.195 E7.46672
G1 X109.805 Y109.745 E8.26071
G1 X109.459 Y109.605 F6000.000
G1 E6.26071 F1800.00000
G92 E0
G1 X109.292 Y90.886 F6000.000
G1 E2.00000 F1800.00000
M204 S750
G1 X109.114 Y90.708 E2.01035 F1200.000
G1 X108.648 Y90.708 E2.02950
G1 X109.292 Y91.352 E2.06694
G1 X109.292 Y91.818 E2.08608
G1 X108.182 Y90.708 E2.15060
G1 X107.716 Y90.708 E2.16974
G1 X109.292 Y92.284 E2.26134
G1 X109.292 Y92.750 E2.28049
G1 X107.250 Y90.708 E2.39916
G1 X106.784 Y90.708 E2.41831
G1 X109.292 Y93.216 E2.56406
G1 X109.292 Y93.682 E2.58321
G1 X106.318 Y90.708 E2.75604
G1 X105.852 Y90.708 E2.77519
G1 X109.292 Y94.148 E2.97510
G1 X109.292 Y94.614 E2.99425
G1 X105.386 Y90.708 E3.22124
G1 X104.920 Y90.708 E3.24039
G1 X109.292 Y95.080 E3.49446
G1 X109.292 Y95.546 E3.51361
G1 X104.454 Y90.708 E3.79476
G1 X103.988 Y90.708 E3.81391
G1 X109.292 Y96.012 E4.12214
G1 X109.292 Y96.478 E4.14129
G1 X103.522 Y90.708 E4.47660
G1 X103.056 Y90.708 E4.49575
G1 X109.292 Y96.944 E4.85814
G1 X109.292 Y97.410 E4.87729
G1 X102.590 Y90.708 E5.26676
G1 X102.124 Y90.708 E5.28591
G1 X109.292 Y97.876 E5.70246
G1 X109.292 Y98.342 E5.72161
G1 X101.658 Y90.708 E6.16524
G1 X101.192 Y90.708 E6.18439
G1 X109.292 Y98.808 E6.65510
G1 X109.292 Y99.274 E6.67424
G1 X100.726 Y90.708 E7.17203
G1 X100.260 Y90.708 E7.19118
G1 X109.292 Y99.740 E7.71605
G1 X109.292 Y100.206 E7.73520
G1 X99.794 Y90.708 E8.28715
G1 X99.328 Y90.708 E8.30630
G1 X109.292 Y100.672 E8.88533
G1 X109.292 Y101.137 E8.90448
G1 X98.863 Y90.708 E9.51059
G1 X98.397 Y90.708 E9.52973
G1 X109.292 Y101.603 E10.16292
G1 X109.292 Y102.069 E10.18207
G1 X97.931 Y90.708 E10.84234
G1 X97.465 Y90.708 E10.86149
G1 X109.292 Y102.535 E11.54884
G1 X109.292 Y103.001 E11.56799
G1 X96.999 Y90.708 E12.28241
G1 X96.533 Y90.708 E12.30156
G1 X109.292 Y103.467 E13.04307
G1 X109.292 Y103.933 E13.06222
G1 X96.067 Y90.708 E13.83081
G1 X95.601 Y90.708 E13.84996
G1 X109.292 Y104.399 E14.64562
G1 X109.292 Y104.865 E14.66477
G1 X95.135 Y90.708 E15.48752
G1 X94.669 Y90.708 E15.50667
G1 X109.292 Y105.331 E16.35650
G1 X109.292 Y105.797 E16.37564
G1 X94.203 Y90.708 E17.25255
G1 X93.737 Y90.708 E17.27170
G1 X109.292 Y106.263 E18.17569
G1 X109.292 Y106.729 E18.19484
G1 X93.271 Y90.708 E19.12590
G1 X92.805 Y90.708 E19.14505
G1 X109.292 Y107.195 E20.10320
G1 X109.292 Y107.661 E20.12235
G1 X92.339 Y90.708 E21.10757
G1 X91.873 Y90.708 E21.12672
G1 X109.292 Y108.127 E22.13903
G1 X109.292 Y108.593 E22.15818
G1 X91.407 Y90.708 E23.19756
G1 X90.941 Y90.708 E23.21671
G1 X109.292 Y109.059 E24.28318
G1 X109.059 Y109.292 E24.29672
G1 X90.708 Y90.941 E25.36318
G1 X90.708 Y91.407 E25.38233
G1 X108.593 Y109.292 E26.42171
G1 X108.127 Y109.292 E26.44086
G1 X90.708 Y91.873 E27.45316
G1 X90.708 Y92.339 E27.47231
G1 X107.661 Y109.292 E28.45754
G1 X107.195 Y109.292 E28.47668
G1 X90.708 Y92.805 E29.43483
G1 X90.708 Y93.271 E29.45398
G1 X106.729 Y109.292 E30.38504
G1 X106.263 Y109.292 E30.40419
G1 X90.708 Y93.737 E31.30817
G1 X90.708 Y94.203 E31.32732
G1 X105.797 Y109.292 E32.20423
G1 X105.331 Y109.292 E32.22337
G1 X90.708 Y94.669 E33.07320
G1 X90.708 Y95.135 E33.09235
G1 X104.865 Y109.292 E33.91509
G1 X104.399 Y109.292 E33.93424
G1 X90.708 Y95.601 E34.72991
G1 X90.708 Y96.067 E34.74905
G1 X103.933 Y109.292 E35.51764
G1 X103.467 Y109.292 E35.53679
G1 X90.708 Y96.533 E36.27829
G1 X90.708 Y96.999 E36.29744
G1 X103.001 Y109.292 E37.01187
G1 X102.535 Y109.292 E37.03101
G1 X90.708 Y97.465 E37.71836
G1 X90.708 Y97.931 E37.73751
G1 X102.069 Y109.292 E38.39777
G1 X101.603 Y109.292 E38.41692
G1 X90.708 Y98.397 E39.05011
G1 X90.708 Y98.863 E39.06926
G1 X101.137 Y109.292 E39.67536
G1 X100.671 Y109.292 E39.69451
G1 X90.708 Y99.329 E40.27354
G1 X90.708 Y99.794 E40.29269
G1 X100.206 Y109.292 E40.84463
G1 X99.740 Y109.292 E40.86378
G1 X90.708 Y100.260 E41.38865
G1 X90.708 Y100.726 E41.40780
G1 X99.274 Y109.292 E41.90558
G1 X98.808 Y109.292 E41.92473
G1 X90.708 Y101.192 E42.39544
G1 X90.708 Y101.658 E42.41459
G1 X98.342 Y109.292 E42.85821
G1 X97.876 Y109.292 E42.87736
G1 X90.708 Y102.124 E43.29391
G1 X90.708 Y102.590 E43.31306
G1 X97.410 Y109.292 E43.70253
G1 X96.944 Y109.292 E43.72167
G1 X90.708 Y103.056 E44.08406
G1 X90.708 Y103.522 E44.10321
G1 X96.478 Y109.292 E44.43852
G1 X96.012 Y109.292 E44.45767
G1 X90.708 Y103.988 E44.76590
G1 X90.708 Y104.454 E44.78504
G1 X95.546 Y109.292 E45.06619
G1 X95.080 Y109.292 E45.08534
G1 X90.708 Y104.920 E45.33941
G1 X90.708 Y105.386 E45.35856
G1 X94.614 Y109.292 E45.58555
G1 X94.148 Y109.292 E45.60469
G1 X90.708 Y105.852 E45.80460
G1 X90.708 Y106.318 E45.82375
G1 X93.682 Y109.292 E45.99658
G1 X93.216 Y109.292 E46.01573
G1 X90.708 Y106.784 E46.16148
G1 X90.708 Y107.250 E46.18063
G1 X92.750 Y109.292 E46.29930
G1 X92.284 Y109.292 E46.31845
G1 X90.708 Y107.716 E46.41004
G1 X90.708 Y108.182 E46.42918
G1 X91.818 Y109.292 E46.49369
G1 X91.352 Y109.292 E46.51284
G1 X90.708 Y108.648 E46.55027
G1 X90.708 Y109.114 E46.56942
G1 X90.886 Y109.292 E46.57977
M204 S2000
G1 E44.57977 F1800.00000
G92 E0
G1 X110.976 Y110.976 F6000.000
G1 E2.00000 F1800.00000
G1 X110.858 Y111.000 E2.01074 F1200.000
G1 X89.142 Y111.000 E3.94899
G1 X89.024 Y110.976 E3.95972
G1 X89.000 Y110.858 E3.97046
G1 X89.000 Y89.142 E5.90871
G1 X89.024 Y89.024 E5.91945
G1 X89.142 Y89.000 E5.93018
G1 X110.858 Y89.000 E7.86843
G1 X110.976 Y89.024 E7.87917
G1 X111.000 Y89.142 E7.88991
G1 X110.988 Y110.917 E9.83343
G1 E7.83343 F1800.00000
G92 E0
G1 X44.479 Y155.521 F6000.000
G1 E2.00000 F1800.00000
G1 X44.479 Y174.479 E2.76997 F1200.000
G1 X25.521 Y174.479 E3.53995
G1 X25.521 Y155.521 E4.30992
G1 X44.419 Y155.521 E5.07746
G1 X44.805 Y155.195 F6000.000
G1 X44.805 Y174.805 E5.87388 F1200.000
G1 X25.195 Y174.805 E6.67030
G1 X25.195 Y155.195 E7.46672
G1 X44.745 Y155.195 E8.26071
G1 X44.605 Y155.541 F6000.000
G1 X44.292 Y155.886 F6000.000
M204 S750
G1 X44.114 Y155.708 E8.27106 F1200.000
G1 X43.648 Y155.708 E8.29021
G1 X44.292 Y156.352 E8.32764
G1 X44.292 Y156.818 E8.34679
G1 X43.182 Y155.708 E8.41130
G1 X42.716 Y155.708 E8.43045
G1 X44.292 Y157.284 E8.52205
G1 X44.292 Y157.750 E8.54119
G1 X42.250 Y155.708 E8.65987
G1 X41.784 Y155.708 E8.67901
G1 X44.292 Y158.216 E8.82477
G1 X44.292 Y158.682 E8.84392
G1 X41.318 Y155.708 E9.01675
G1 X40.852 Y155.708 E9.03590
G1 X44.292 Y159.148 E9.23581
G1 X44.292 Y159.614 E9.25496
G1 X40.386 Y155.708 E9.48195
G1 X39.920 Y155.708 E9.50110
G1 X44.292 Y160.080 E9.75517
G1 X44.292 Y160.546 E9.77432
G1 X39.454 Y155.708 E10.05547
G1 X38.988 Y155.708 E10.07462
G1 X44.292 Y161.012 E10.38285
G1 X44.292 Y161.478 E10.40200
G1 X38.522 Y155.708 E10.73731
G1 X38.056 Y155.708 E10.75646
G1 X44.292 Y161.944 E11.11885
G1 X44.292 Y162.410 E11.13800
G1 X37.590 Y155.708 E11.52747
G1 X37.124 Y155.708 E11.54661
G1 X44.292 Y162.876 E11.96317
G1 X44.292 Y163.342 E11.98231
G1 X36.658 Y155.708 E12.42594
G1 X36.192 Y155.708 E12.44509
G1 X44.292 Y163.808 E12.91580
G1 X44.292 Y164.274 E12.93495
G1 X35.726 Y155.708 E13.43274
G1 X35.260 Y155.708 E13.45189
G1 X44.292 Y164.740 E13.97676
G1 X44.292 Y165.206 E13.99591
G1 X34.794 Y155.708 E14.54786
G1 X34.328 Y155.708 E14.56701
G1 X44.292 Y165.672 E15.14604
G1 X44.292 Y166.137 E15.16518
