; generated by Slic3r 1.2.9 on 2018-09-29 at 11:13:08

; external perimeters extrusion width = 0.40mm
; perimeters extrusion width = 0.67mm
; infill extrusion width = 0.67mm
; solid infill extrusion width = 0.67mm
; top infill extrusion width = 0.26mm

M107
M190 S78 ; set bed temperature
M104 S240 ; set temperature
G28 ; home all axes
G1 Z5 F5000 ; lift nozzle

M109 S240 ; wait for temperature to be reached
G21 ; set units to millimeters
G90 ; use absolute coordinates
M82 ; use absolute distances for extrusion
G92 E0
G1 E-2.00000 F1800.00000
G92 E0
G1 Z0.400 F6000.000
G1 X85.649 Y85.649 F6000.000
G1 E2.00000 F1800.00000
M204 S2000
G1 X86.249 Y85.067 E2.06034 F1200.000
G1 X87.213 Y84.233 E2.15242
G1 X88.227 Y83.462 E2.24436
G1 X88.956 Y82.967 E2.30800
G1 X90.394 Y82.116 E2.42860
G1 X91.178 Y81.717 E2.49213
G1 X92.343 Y81.199 E2.58420
G1 X93.539 Y80.755 E2.67631
G1 X94.022 Y80.602 E2.71285
G1 X95.144 Y80.289 E2.79697
G1 X96.389 Y80.023 E2.88893
G1 X97.260 Y79.885 E2.95255
G1 X98.528 Y79.753 E3.04459
G1 X100.198 Y79.701 E3.16523
G1 X101.472 Y79.753 E3.25734 F1200.000
G1 X102.740 Y79.885 E3.34934
G1 X103.610 Y80.023 E3.41296
G1 X105.240 Y80.388 E3.53356
G1 X106.085 Y80.633 E3.59706
G1 X107.289 Y81.053 E3.68912
G1 X108.822 Y81.717 E3.80978
G1 X110.048 Y82.363 E3.90982
G1 X111.044 Y82.967 E3.99389
G1 X111.772 Y83.461 E4.05746
G1 X113.092 Y84.485 E4.17805
G1 X114.040 Y85.338 E4.27014
G1 X114.662 Y85.960 E4.33365
G1 X115.515 Y86.908 E4.42573
G1 X116.538 Y88.227 E4.54625
G1 X117.033 Y88.956 E4.60989
G1 X117.693 Y90.047 E4.70195
G1 X118.452 Y91.536 E4.82259
G1 X118.985 Y92.816 E4.92270
G1 X119.367 Y93.915 E5.00668
G1 X119.612 Y94.760 E5.07024
G1 X119.977 Y96.389 E5.19079
G1 X120.115 Y97.260 E5.25442
G1 X120.226 Y98.302 E5.33011
G1 X120.272 Y98.923 E5.37506
G1 X120.299 Y99.802 E5.43856
G1 X120.247 Y101.472 E5.55921
G1 X120.115 Y102.740 E5.65121
G1 X119.977 Y103.610 E5.71481
G1 X119.612 Y105.240 E5.83543
G1 X119.367 Y106.085 E5.89893
G1 X118.947 Y107.289 E5.99099
G1 X118.452 Y108.464 E6.08309
G1 X117.694 Y109.952 E6.20366
G1 X116.971 Y111.136 E6.30384
G1 X116.307 Y112.091 E6.38781
G1 X115.767 Y112.787 E6.45136
G1 X114.662 Y114.040 E6.57201
G1 X113.751 Y114.933 E6.66411
G1 X112.787 Y115.767 E6.75619
G1 X111.773 Y116.538 E6.84814
G1 X111.044 Y117.033 E6.91177
G1 X109.606 Y117.884 E7.03238
G1 X108.822 Y118.283 E7.09590
G1 X107.657 Y118.801 E7.18797
G1 X106.085 Y119.367 E7.30856
G1 X104.856 Y119.711 E7.40073
G1 X103.610 Y119.977 E7.49269
G1 X102.740 Y120.115 E7.55631
G1 X101.077 Y120.272 E7.67693
G1 X100.198 Y120.299 E7.74043
G1 X98.923 Y120.272 E7.83249
G1 X97.260 Y120.115 E7.95308
G1 X96.390 Y119.977 E8.01669
G1 X95.144 Y119.711 E8.10869
G1 X93.915 Y119.367 E8.20082
G1 X92.343 Y118.801 E8.32143
G1 X91.178 Y118.283 E8.41353
G1 X90.048 Y117.693 E8.50555
G1 X89.290 Y117.245 E8.56913
G1 X87.909 Y116.307 E8.68969
G1 X86.908 Y115.515 E8.78182
G1 X86.249 Y114.933 E8.84532
G1 X85.338 Y114.040 E8.93741
G1 X84.233 Y112.787 E9.05807
G1 X83.462 Y111.773 E9.15002
G1 X82.967 Y111.044 E9.21366
G1 X82.116 Y109.606 E9.33426
G1 X81.717 Y108.822 E9.39778
G1 X81.199 Y107.657 E9.48985
G1 X80.633 Y106.085 E9.61045
G1 X80.289 Y104.856 E9.70261
G1 X80.023 Y103.611 E9.79457
G1 X79.885 Y102.740 E9.85819
G1 X79.728 Y101.077 E9.97881
G1 X79.701 Y100.198 E10.04232
G1 X79.728 Y98.923 E10.13437
G1 X79.836 Y97.652 E10.22648
G1 X80.023 Y96.390 E10.31858
G1 X80.388 Y94.760 E10.43920
G1 X80.755 Y93.539 E10.53125
G1 X81.053 Y92.711 E10.59475
G1 X81.717 Y91.178 E10.71542
G1 X82.116 Y90.394 E10.77892
G1 X82.640 Y89.485 E10.85468
G1 X82.967 Y88.956 E10.89954
G1 X83.461 Y88.228 E10.96311
G1 X84.485 Y86.908 E11.08371
G1 X85.067 Y86.249 E11.14721
G1 X85.606 Y85.691 E11.20322
G1 X85.956 Y85.956 F6000.000
G1 X86.536 Y85.392 E11.26159 F1200.000
G1 X87.480 Y84.576 E11.35171
G1 X88.471 Y83.821 E11.44169
G1 X89.200 Y83.326 E11.50532
G1 X90.591 Y82.503 E11.62199
G1 X91.375 Y82.104 E11.68551
G1 X92.516 Y81.597 E11.77561
G1 X93.686 Y81.164 E11.86575
G1 X94.664 Y80.868 E11.93950
G1 X95.239 Y80.713 E11.98247
G1 X96.457 Y80.452 E12.07247
G1 X97.328 Y80.314 E12.13609
G1 X98.569 Y80.185 E12.22616
G1 X100.184 Y80.135 E12.34286
G1 X101.432 Y80.185 E12.43300 F1200.000
G1 X102.672 Y80.314 E12.52303
G1 X103.542 Y80.452 E12.58665
G1 X105.119 Y80.805 E12.70332
G1 X105.964 Y81.050 E12.76682
G1 X107.141 Y81.462 E12.85690
G1 X108.625 Y82.104 E12.97363
G1 X109.827 Y82.737 E13.07170
G1 X110.800 Y83.326 E13.15380
G1 X111.528 Y83.821 E13.21737
G1 X112.805 Y84.811 E13.33403
G1 X113.733 Y85.645 E13.42415
G1 X114.355 Y86.267 E13.48765
G1 X115.189 Y87.195 E13.57777
G1 X116.179 Y88.471 E13.69436
G1 X116.674 Y89.200 E13.75799
G1 X117.319 Y90.268 E13.84808
G1 X118.053 Y91.708 E13.96479
G1 X118.576 Y92.963 E14.06290
G1 X118.950 Y94.036 E14.14495
G1 X119.196 Y94.881 E14.20850
G1 X119.548 Y96.457 E14.32512
G1 X119.686 Y97.328 E14.38874
G1 X119.793 Y98.343 E14.46247
G1 X119.838 Y98.937 E14.50544
G1 X119.865 Y99.816 E14.56894
G1 X119.815 Y101.432 E14.68565
G1 X119.686 Y102.672 E14.77569
G1 X119.548 Y103.542 E14.83929
G1 X119.195 Y105.119 E14.95597
G1 X118.950 Y105.964 E15.01947
G1 X118.538 Y107.141 E15.10956
G1 X118.053 Y108.292 E15.19969
G1 X117.320 Y109.731 E15.31634
G1 X116.612 Y110.892 E15.41449
G1 X115.964 Y111.825 E15.49654
G1 X115.424 Y112.521 E15.56009
G1 X114.355 Y113.733 E15.67680
G1 X113.464 Y114.608 E15.76693
G1 X112.520 Y115.424 E15.85704
G1 X111.529 Y116.179 E15.94703
G1 X110.800 Y116.674 E16.01066
G1 X109.409 Y117.497 E16.12733
G1 X108.625 Y117.896 E16.19085
G1 X107.484 Y118.403 E16.28095
G1 X105.964 Y118.950 E16.39761
G1 X104.761 Y119.287 E16.48780
G1 X103.542 Y119.548 E16.57780
G1 X102.672 Y119.686 E16.64141
G1 X101.063 Y119.838 E16.75810
G1 X100.184 Y119.865 E16.82160
G1 X98.937 Y119.838 E16.91169
G1 X97.328 Y119.686 E17.02835
G1 X96.458 Y119.548 E17.09195
G1 X95.239 Y119.287 E17.18199
G1 X94.036 Y118.950 E17.27214
G1 X92.516 Y118.403 E17.38882
G1 X91.375 Y117.896 E17.47895
G1 X90.269 Y117.320 E17.56901
G1 X89.511 Y116.872 E17.63258
G1 X88.175 Y115.964 E17.74922
G1 X87.195 Y115.189 E17.83937
G1 X86.536 Y114.608 E17.90287
G1 X85.645 Y113.733 E17.99299
G1 X84.576 Y112.520 E18.10972
G1 X83.821 Y111.529 E18.19970
G1 X83.326 Y110.800 E18.26333
G1 X82.503 Y109.409 E18.38000
G1 X82.104 Y108.625 E18.44352
G1 X81.597 Y107.484 E18.53362
G1 X81.050 Y105.964 E18.65029
G1 X80.713 Y104.761 E18.74047
G1 X80.452 Y103.543 E18.83047
G1 X80.314 Y102.672 E18.89408
G1 X80.162 Y101.063 E19.01077
G1 X80.135 Y100.184 E19.07428
G1 X80.162 Y98.937 E19.16436
G1 X80.268 Y97.693 E19.25450
G1 X80.452 Y96.458 E19.34463
G1 X80.805 Y94.881 E19.46131
G1 X81.050 Y94.036 E19.52481
G1 X81.462 Y92.859 E19.61490
G1 X82.104 Y91.375 E19.73163
G1 X82.503 Y90.591 E19.79513
G1 X83.013 Y89.706 E19.86889
G1 X83.326 Y89.200 E19.91182
G1 X83.821 Y88.472 E19.97538
G1 X84.811 Y87.195 E20.09204
G1 X85.392 Y86.536 E20.15554
G1 X85.913 Y85.998 E20.20959
G1 X86.263 Y86.263 F6000.000
G1 X86.823 Y85.718 E20.26599 F1200.000
G1 X87.746 Y84.919 E20.35413
G1 X88.715 Y84.180 E20.44216
G1 X89.444 Y83.685 E20.50578
G1 X90.788 Y82.890 E20.61851
G1 X91.572 Y82.491 E20.68203
G1 X92.688 Y81.996 E20.77017
G1 X93.833 Y81.572 E20.85833
G1 X94.785 Y81.285 E20.93012
G1 X95.333 Y81.136 E20.97112
G1 X96.525 Y80.881 E21.05916
G1 X97.396 Y80.743 E21.12276
G1 X98.609 Y80.618 E21.21087
G1 X100.171 Y80.569 E21.32364
G1 X101.391 Y80.618 E21.41180 F1200.000
G1 X102.604 Y80.743 E21.49987
G1 X103.474 Y80.881 E21.56348
G1 X104.998 Y81.221 E21.67622
G1 X105.842 Y81.467 E21.73972
G1 X106.994 Y81.870 E21.82784
G1 X108.428 Y82.491 E21.94062
G1 X109.606 Y83.111 E22.03673
G1 X110.556 Y83.685 E22.11686
G1 X111.284 Y84.180 E22.18043
G1 X112.517 Y85.136 E22.29315
G1 X113.426 Y85.952 E22.38130
G1 X114.048 Y86.574 E22.44481
G1 X114.864 Y87.483 E22.53295
G1 X115.820 Y88.715 E22.64562
G1 X116.315 Y89.444 E22.70924
G1 X116.946 Y90.489 E22.79736
G1 X117.655 Y91.881 E22.91013
G1 X118.167 Y93.110 E23.00627
G1 X118.533 Y94.157 E23.08635
G1 X118.779 Y95.002 E23.14991
G1 X119.119 Y96.525 E23.26259
G1 X119.257 Y97.396 E23.32620
G1 X119.361 Y98.384 E23.39796
G1 X119.404 Y98.950 E23.43897
G1 X119.431 Y99.829 E23.50247
G1 X119.382 Y101.391 E23.61525
G1 X119.257 Y102.604 E23.70332
G1 X119.119 Y103.474 E23.76691
G1 X118.779 Y104.998 E23.87966
G1 X118.533 Y105.842 E23.94316
G1 X118.130 Y106.994 E24.03128
G1 X117.655 Y108.119 E24.11944
G1 X116.946 Y109.510 E24.23215
G1 X116.253 Y110.648 E24.32834
G1 X115.620 Y111.559 E24.40842
G1 X115.081 Y112.255 E24.47197
G1 X114.048 Y113.426 E24.58474
G1 X113.177 Y114.282 E24.67290
G1 X112.254 Y115.081 E24.76104
G1 X111.285 Y115.820 E24.84907
G1 X110.556 Y116.315 E24.91269
G1 X109.212 Y117.110 E25.02543
G1 X108.428 Y117.509 E25.08894
G1 X107.312 Y118.004 E25.17708
G1 X105.843 Y118.533 E25.28980
G1 X104.667 Y118.864 E25.37802
G1 X103.474 Y119.119 E25.46606
G1 X102.604 Y119.257 E25.52966
G1 X101.050 Y119.404 E25.64242
G1 X100.171 Y119.431 E25.70592
G1 X98.950 Y119.404 E25.79404
G1 X97.396 Y119.257 E25.90677
G1 X96.526 Y119.119 E25.97036
G1 X95.333 Y118.864 E26.05844
G1 X94.158 Y118.533 E26.14662
G1 X92.688 Y118.004 E26.25936
G1 X91.572 Y117.509 E26.34752
G1 X90.490 Y116.946 E26.43561
G1 X89.732 Y116.498 E26.49918
G1 X88.441 Y115.620 E26.61188
G1 X87.482 Y114.864 E26.70006
G1 X86.823 Y114.282 E26.76356
G1 X85.952 Y113.426 E26.85171
G1 X84.919 Y112.254 E26.96450
G1 X84.180 Y111.285 E27.05253
G1 X83.685 Y110.556 E27.11615
G1 X82.890 Y109.212 E27.22888
G1 X82.491 Y108.428 E27.29240
G1 X81.996 Y107.312 E27.38054
G1 X81.467 Y105.843 E27.49327
G1 X81.136 Y104.667 E27.58148
G1 X80.881 Y103.475 E27.66952
G1 X80.743 Y102.604 E27.73312
G1 X80.596 Y101.050 E27.84587
G1 X80.569 Y100.170 E27.90938
G1 X80.596 Y98.950 E27.99750
G1 X80.700 Y97.734 E28.08566
G1 X80.881 Y96.526 E28.17383
G1 X81.221 Y95.002 E28.28657
G1 X81.467 Y94.158 E28.35007
G1 X81.870 Y93.006 E28.43819
G1 X82.491 Y91.572 E28.55098
G1 X82.890 Y90.788 E28.61448
G1 X83.387 Y89.927 E28.68628
G1 X83.685 Y89.444 E28.72724
G1 X84.180 Y88.716 E28.79080
G1 X85.136 Y87.482 E28.90352
G1 X85.718 Y86.823 E28.96702
G1 X86.220 Y86.305 E29.01910
G1 E27.01910 F1800.00000
G92 E0
G1 X103.294 Y87.744 F6000.000
G1 E2.00000 F1800.00000
G1 X103.294 Y87.108 E2.04592 F1200.000
G1 X104.112 Y87.346 E2.10738
G1 X104.898 Y87.629 E2.16773
G1 X105.665 Y87.961 E2.22808
G1 X106.410 Y88.340 E2.28843
G1 X107.129 Y88.766 E2.34878
G1 X107.821 Y89.236 E2.40914
G1 X108.481 Y89.748 E2.46949
G1 X109.108 Y90.301 E2.52984
G1 X109.699 Y90.892 E2.59019
G1 X110.252 Y91.519 E2.65054
G1 X110.764 Y92.179 E2.71089
G1 X111.234 Y92.871 E2.77124
G1 X111.660 Y93.590 E2.83159
G1 X111.938 Y94.137 E2.87592
G1 X112.373 Y95.106 E2.95259
G1 X112.654 Y95.888 E3.01262
G1 X112.888 Y96.691 E3.07297
G1 X113.070 Y97.507 E3.13332
G1 X113.201 Y98.332 E3.19367
G1 X113.279 Y99.165 E3.25402
G1 X113.305 Y100.000 E3.31437
G1 X113.279 Y100.835 E3.37472
G1 X113.201 Y101.668 E3.43507
G1 X113.070 Y102.493 E3.49543
G1 X112.888 Y103.309 E3.55577
G1 X112.654 Y104.112 E3.61612
G1 X112.371 Y104.898 E3.67648
G1 X112.039 Y105.665 E3.73683
G1 X111.660 Y106.410 E3.79718
G1 X111.234 Y107.129 E3.85753
G1 X110.764 Y107.821 E3.91788
G1 X110.388 Y108.306 E3.96221
G1 X109.696 Y109.111 E4.03888
G1 X109.108 Y109.699 E4.09891
G1 X108.481 Y110.252 E4.15926
G1 X107.821 Y110.764 E4.21961
G1 X107.313 Y111.110 E4.26394
G1 X106.406 Y111.662 E4.34061
G1 X105.665 Y112.039 E4.40063
G1 X104.898 Y112.371 E4.46098
G1 X104.112 Y112.654 E4.52134
G1 X103.309 Y112.888 E4.58169
G1 X102.493 Y113.070 E4.64203
G1 X101.668 Y113.201 E4.70239
G1 X100.835 Y113.279 E4.76274
G1 X100.000 Y113.305 E4.82309
G1 X99.165 Y113.279 E4.88344
G1 X98.332 Y113.201 E4.94379
G1 X97.507 Y113.070 E5.00414
G1 X96.691 Y112.888 E5.06449
G1 X95.888 Y112.654 E5.12484
G1 X95.102 Y112.371 E5.18519
G1 X94.335 Y112.039 E5.24554
G1 X93.590 Y111.660 E5.30589
G1 X92.871 Y111.234 E5.36624
G1 X92.179 Y110.764 E5.42660
G1 X91.694 Y110.388 E5.47093
G1 X90.889 Y109.696 E5.54759
G1 X90.301 Y109.108 E5.60762
G1 X89.748 Y108.481 E5.66797
G1 X89.236 Y107.821 E5.72832
G1 X88.890 Y107.313 E5.77266
G1 X88.338 Y106.406 E5.84932
G1 X87.961 Y105.665 E5.90935
G1 X87.629 Y104.898 E5.96970
G1 X87.346 Y104.112 E6.03005
G1 X87.112 Y103.309 E6.09040
G1 X86.930 Y102.493 E6.15075
G1 X86.799 Y101.668 E6.21111
G1 X86.721 Y100.835 E6.27146
G1 X86.694 Y100.000 E6.33181
G1 X86.721 Y99.165 E6.39216
G1 X86.799 Y98.332 E6.45251
G1 X86.930 Y97.507 E6.51286
G1 X87.112 Y96.691 E6.57321
G1 X87.345 Y95.891 E6.63338
G1 X87.672 Y95.002 E6.70175
G1 X87.961 Y94.335 E6.75425
G1 X88.340 Y93.590 E6.81460
G1 X88.766 Y92.871 E6.87495
G1 X89.236 Y92.179 E6.93530
G1 X89.748 Y91.519 E6.99565
G1 X90.301 Y90.892 E7.05600
G1 X90.892 Y90.301 E7.11635
G1 X91.519 Y89.748 E7.17670
G1 X92.179 Y89.236 E7.23705
G1 X92.871 Y88.766 E7.29741
G1 X93.590 Y88.340 E7.35776
G1 X94.137 Y88.062 E7.40209
G1 X95.106 Y87.627 E7.47875
G1 X95.888 Y87.346 E7.53878
G1 X96.706 Y87.108 E7.60025
G1 X96.706 Y87.744 E7.64616
G1 X96.077 Y87.927 E7.69343
G1 X95.327 Y88.197 E7.75101
G1 X94.595 Y88.514 E7.80859
G1 X93.884 Y88.876 E7.86617
G1 X93.198 Y89.282 E7.92375
G1 X92.538 Y89.730 E7.98133
G1 X91.908 Y90.219 E8.03891
G1 X91.310 Y90.746 E8.09649
G1 X90.746 Y91.310 E8.15407
G1 X90.217 Y91.910 E8.21182
G1 X89.675 Y92.620 E8.27632
G1 X89.282 Y93.198 E8.32679
G1 X88.876 Y93.884 E8.38437
G1 X88.514 Y94.595 E8.44195
G1 X88.197 Y95.327 E8.49953
G1 X87.927 Y96.077 E8.55711
G1 X87.704 Y96.843 E8.61469
G1 X87.530 Y97.621 E8.67227
G1 X87.406 Y98.409 E8.72985
G1 X87.331 Y99.203 E8.78743
G1 X87.305 Y100.000 E8.84501
G1 X87.331 Y100.797 E8.90258
G1 X87.406 Y101.591 E8.96017
G1 X87.530 Y102.379 E9.01775
G1 X87.704 Y103.157 E9.07532
G1 X87.927 Y103.923 E9.13290
G1 X88.197 Y104.673 E9.19048
G1 X88.514 Y105.405 E9.24806
G1 X88.876 Y106.116 E9.30564
G1 X89.282 Y106.802 E9.36322
G1 X89.730 Y107.462 E9.42080
G1 X90.219 Y108.092 E9.47838
G1 X90.746 Y108.690 E9.53596
G1 X91.310 Y109.254 E9.59354
G1 X91.908 Y109.781 E9.65112
G1 X92.538 Y110.270 E9.70870
G1 X93.198 Y110.718 E9.76627
G1 X93.884 Y111.124 E9.82386
G1 X94.595 Y111.486 E9.88143
G1 X95.327 Y111.803 E9.93901
G1 X96.077 Y112.073 E9.99659
G1 X96.843 Y112.296 E10.05417
G1 X97.621 Y112.470 E10.11175
G1 X98.409 Y112.594 E10.16933
G1 X99.203 Y112.669 E10.22691
G1 X99.802 Y112.688 E10.27021
G1 X100.793 Y112.670 E10.34173
G1 X101.591 Y112.594 E10.39963
G1 X102.379 Y112.470 E10.45721
G1 X103.157 Y112.296 E10.51478
G1 X103.923 Y112.073 E10.57236
G1 X104.673 Y111.803 E10.62995
G1 X105.405 Y111.486 E10.68752
G1 X106.116 Y111.124 E10.74510
G1 X106.802 Y110.718 E10.80268
G1 X107.462 Y110.270 E10.86026
G1 X108.092 Y109.781 E10.91784
G1 X108.690 Y109.254 E10.97542
G1 X109.254 Y108.690 E11.03300
G1 X109.781 Y108.092 E11.09058
G1 X110.270 Y107.462 E11.14816
G1 X110.718 Y106.802 E11.20574
G1 X111.124 Y106.116 E11.26332
G1 X111.486 Y105.405 E11.32090
G1 X111.803 Y104.673 E11.37847
G1 X112.073 Y103.923 E11.43606
G1 X112.296 Y103.157 E11.49364
G1 X112.470 Y102.379 E11.55121
G1 X112.594 Y101.591 E11.60879
G1 X112.669 Y100.797 E11.66637
G1 X112.695 Y100.000 E11.72395
G1 X112.669 Y99.203 E11.78153
G1 X112.594 Y98.409 E11.83911
G1 X112.470 Y97.621 E11.89669
G1 X112.296 Y96.843 E11.95427
G1 X112.073 Y96.077 E12.01185
G1 X111.803 Y95.327 E12.06943
G1 X111.486 Y94.595 E12.12701
G1 X111.124 Y93.884 E12.18459
G1 X110.718 Y93.198 E12.24217
G1 X110.270 Y92.538 E12.29974
G1 X109.781 Y91.908 E12.35733
G1 X109.254 Y91.310 E12.41490
G1 X108.690 Y90.746 E12.47248
G1 X108.092 Y90.219 E12.53006
G1 X107.462 Y89.730 E12.58764
G1 X106.802 Y89.282 E12.64522
G1 X106.116 Y88.876 E12.70280
G1 X105.405 Y88.514 E12.76038
G1 X104.673 Y88.197 E12.81796
G1 X103.923 Y87.927 E12.87554
G1 X103.352 Y87.761 E12.91847
G1 E10.91847 F1800.00000
G92 E0
G1 X97.140 Y86.840 F6000.000
G1 E2.00000 F1800.00000
G1 X97.140 Y88.083 E2.08973 F1200.000
G1 X96.211 Y88.340 E2.15930
G1 X95.487 Y88.601 E2.21491
G1 X94.780 Y88.907 E2.27052
G1 X94.094 Y89.256 E2.32613
G1 X93.431 Y89.648 E2.38174
G1 X92.794 Y90.081 E2.43734
G1 X92.185 Y90.553 E2.49295
G1 X91.607 Y91.063 E2.54856
G1 X91.063 Y91.607 E2.60417
G1 X90.553 Y92.186 E2.65985
