; generated by Slic3r 1.2.9 on 2018-10-27 at 21:55:00

; external perimeters extrusion width = 0.40mm
; perimeters extrusion width = 0.67mm
; infill extrusion width = 0.67mm
; solid infill extrusion width = 0.67mm
; top infill extrusion width = 0.26mm

M107
M190 S78 ; set bed temperature
M104 S245 ; set temperature
G28 ; home all axes
G1 Z5 F5000 ; lift nozzle

M109 S245 ; wait for temperature to be reached
G21 ; set units to millimeters
G90 ; use absolute coordinates
M82 ; use absolute distances for extrusion
G92 E0
G1 E-3.00000 F1800.00000
G92 E0
G1 Z0.400 F6000.000
G1 X74.275 Y74.185 F6000.000
G1 E3.00000 F1800.00000
M204 S2000
G1 X74.831 Y73.681 E3.05418 F1200.000
G1 X75.433 Y73.222 E3.10886
G1 X75.958 Y72.883 E3.15396
G1 X76.282 Y72.699 E3.18087
G1 X76.960 Y72.369 E3.23527
G1 X77.781 Y72.059 E3.29862
G1 X78.507 Y71.859 E3.35303
G1 X79.252 Y71.720 E3.40770
G1 X80.000 Y71.646 E3.46198
G1 X80.500 Y71.632 E3.49813
G1 X119.500 Y71.632 E6.31397
G1 X120.403 Y71.678 E6.37922
G1 X121.295 Y71.816 E6.44442
G1 X121.918 Y71.968 E6.49074
G1 X122.289 Y72.082 E6.51872
G1 X123.011 Y72.357 E6.57452
G1 X123.820 Y72.755 E6.63962
G1 X124.482 Y73.164 E6.69580
G1 X125.103 Y73.627 E6.75171
G1 X125.396 Y73.876 E6.77951
G1 X125.860 Y74.320 E6.82583
G1 X126.373 Y74.897 E6.88161
G1 X126.837 Y75.519 E6.93763
G1 X127.245 Y76.180 E6.99371
G1 X127.643 Y76.989 E7.05882
G1 X127.920 Y77.716 E7.11501
G1 X128.129 Y78.457 E7.17057
G1 X128.275 Y79.223 E7.22684
G1 X128.353 Y79.990 E7.28255
G1 X128.368 Y80.500 E7.31938
G1 X128.368 Y119.500 E10.13522
G1 X128.322 Y120.403 E10.20048
G1 X128.184 Y121.298 E10.26588
G1 X128.032 Y121.918 E10.31199
G1 X127.918 Y122.289 E10.33997
G1 X127.643 Y123.011 E10.39576
G1 X127.245 Y123.820 E10.46087
G1 X126.837 Y124.481 E10.51695
G1 X126.372 Y125.105 E10.57312
G1 X125.950 Y125.586 E10.61932
G1 X125.680 Y125.859 E10.64707
G1 X125.103 Y126.373 E10.70287
G1 X124.481 Y126.837 E10.75888
G1 X123.820 Y127.245 E10.81496
G1 X123.011 Y127.643 E10.88007
G1 X122.281 Y127.921 E10.93646
G1 X121.543 Y128.129 E10.99183
G1 X120.780 Y128.275 E11.04792
G1 X120.010 Y128.353 E11.10381
G1 X119.500 Y128.368 E11.14063
G1 X80.500 Y128.368 E13.95647
G1 X79.597 Y128.322 E14.02174
G1 X78.706 Y128.184 E14.08688
G1 X77.950 Y127.993 E14.14312
G1 X77.345 Y127.788 E14.18930
G1 X76.989 Y127.643 E14.21700
G1 X76.180 Y127.245 E14.28212
G1 X75.519 Y126.837 E14.33820
G1 X74.895 Y126.372 E14.39444
G1 X74.414 Y125.950 E14.44056
G1 X74.140 Y125.680 E14.46832
G1 X73.626 Y125.103 E14.52413
G1 X73.163 Y124.481 E14.58013
G1 X72.755 Y123.820 E14.63621
G1 X72.410 Y123.131 E14.69187
G1 X72.124 Y122.413 E14.74766
G1 X71.902 Y121.670 E14.80364
G1 X71.726 Y120.786 E14.86871
G1 X71.647 Y120.012 E14.92488
G1 X71.632 Y119.500 E14.96188
G1 X71.632 Y80.500 E17.77772
G1 X71.676 Y79.624 E17.84106
G1 X71.805 Y78.757 E17.90435
G1 X71.986 Y78.020 E17.95911
G1 X72.180 Y77.432 E18.00383
G1 X72.319 Y77.077 E18.03137
G1 X72.640 Y76.395 E18.08577
G1 X73.085 Y75.636 E18.14928
G1 X73.445 Y75.128 E18.19426
G1 X73.681 Y74.831 E18.22166
G1 X74.232 Y74.227 E18.28070
G1 X74.582 Y74.492 F6000.000
G1 X75.111 Y74.013 E18.33222 F1200.000
G1 X75.684 Y73.577 E18.38422
G1 X76.486 Y73.083 E18.45225
G1 X77.130 Y72.769 E18.50397
G1 X77.917 Y72.472 E18.56467
G1 X78.608 Y72.281 E18.61641
G1 X79.316 Y72.150 E18.66841
G1 X80.027 Y72.080 E18.72003
G1 X80.500 Y72.066 E18.75419
G1 X119.500 Y72.066 E21.57003
G1 X120.355 Y72.110 E21.63185
G1 X121.210 Y72.242 E21.69432
G1 X121.797 Y72.385 E21.73792
G1 X122.149 Y72.493 E21.76453
G1 X122.836 Y72.754 E21.81760
G1 X123.611 Y73.136 E21.87997
G1 X124.241 Y73.525 E21.93339
G1 X124.831 Y73.965 E21.98657
G1 X125.110 Y74.203 E22.01301
G1 X125.546 Y74.620 E22.05660
G1 X126.035 Y75.169 E22.10965
G1 X126.476 Y75.760 E22.16292
G1 X126.864 Y76.389 E22.21625
G1 X127.246 Y77.164 E22.27865
G1 X127.508 Y77.856 E22.33207
G1 X127.708 Y78.560 E22.38492
G1 X127.846 Y79.288 E22.43843
G1 X127.920 Y80.018 E22.49141
G1 X127.934 Y80.500 E22.52621
G1 X127.934 Y119.500 E25.34205
G1 X127.890 Y120.355 E25.40388
G1 X127.758 Y121.213 E25.46654
G1 X127.615 Y121.797 E25.50994
G1 X127.507 Y122.149 E25.53655
G1 X127.246 Y122.836 E25.58961
G1 X126.864 Y123.611 E25.65200
G1 X126.476 Y124.240 E25.70533
G1 X126.034 Y124.833 E25.75874
G1 X125.636 Y125.285 E25.80223
G1 X125.380 Y125.546 E25.82862
G1 X124.831 Y126.035 E25.88169
G1 X124.240 Y126.476 E25.93495
G1 X123.611 Y126.864 E25.98828
G1 X122.836 Y127.246 E26.05067
G1 X122.142 Y127.509 E26.10428
G1 X121.440 Y127.708 E26.15696
G1 X120.714 Y127.846 E26.21029
G1 X119.982 Y127.920 E26.26345
G1 X119.500 Y127.934 E26.29824
G1 X80.500 Y127.934 E29.11408
G1 X79.645 Y127.890 E29.17592
G1 X78.790 Y127.759 E29.23833
G1 X78.072 Y127.577 E29.29182
G1 X77.502 Y127.383 E29.33528
G1 X77.164 Y127.246 E29.36163
G1 X76.389 Y126.864 E29.42403
G1 X75.760 Y126.476 E29.47735
G1 X75.167 Y126.033 E29.53083
G1 X74.715 Y125.637 E29.57424
G1 X74.454 Y125.380 E29.60065
G1 X73.965 Y124.831 E29.65372
G1 X73.524 Y124.240 E29.70698
G1 X73.136 Y123.611 E29.76031
G1 X72.807 Y122.956 E29.81325
G1 X72.535 Y122.273 E29.86631
G1 X72.323 Y121.567 E29.91955
G1 X72.155 Y120.720 E29.98188
G1 X72.080 Y119.984 E30.03531
G1 X72.066 Y119.500 E30.07027
G1 X72.066 Y80.500 E32.88611
G1 X72.107 Y79.670 E32.94612
G1 X72.231 Y78.839 E33.00677
G1 X72.404 Y78.139 E33.05884
G1 X72.719 Y77.248 E33.12709
G1 X73.023 Y76.599 E33.17883
G1 X73.450 Y75.872 E33.23967
G1 X73.788 Y75.393 E33.28201
G1 X74.013 Y75.111 E33.30806
G1 X74.539 Y74.534 E33.36445
G1 E30.36445 F1800.00000
G92 E0
G1 X105.823 Y93.083 F6000.000
G1 E3.00000 F1800.00000
G1 X105.196 Y93.567 E3.05716 F1200.000
G1 X104.530 Y93.995 E3.11431
G1 X103.830 Y94.365 E3.17147
G1 X103.101 Y94.674 E3.22862
G1 X102.349 Y94.919 E3.28578
G1 X101.578 Y95.099 E3.34293
G1 X100.794 Y95.213 E3.40009
G1 X100.000 Y95.259 E3.45754
G1 X99.206 Y95.213 E3.51499
G1 X98.422 Y95.099 E3.57215
G1 X97.651 Y94.919 E3.62930
G1 X96.899 Y94.674 E3.68646
G1 X96.170 Y94.365 E3.74362
G1 X95.470 Y93.995 E3.80077
G1 X94.804 Y93.567 E3.85793
G1 X94.177 Y93.083 E3.91508
G1 X93.598 Y92.552 E3.97184
G1 X90.798 Y89.752 E4.25774
G1 X90.496 Y89.422 E4.29006
G1 X90.217 Y89.061 E4.32299
G1 X89.866 Y88.485 E4.37165
G1 X89.672 Y88.073 E4.40458
G1 X89.514 Y87.648 E4.43730
G1 X89.394 Y87.211 E4.47002
G1 X89.311 Y86.762 E4.50295
G1 X89.261 Y86.087 E4.55182
G1 X89.299 Y85.409 E4.60089
G1 X89.423 Y84.741 E4.64996
G1 X89.633 Y84.094 E4.69902
G1 X89.924 Y83.480 E4.74809
G1 X90.292 Y82.909 E4.79716
G1 X90.730 Y82.389 E4.84623
G1 X91.232 Y81.931 E4.89530
G1 X91.789 Y81.541 E4.94437
G1 X92.390 Y81.227 E4.99335
G1 X93.389 Y80.849 E5.07047
G1 X94.191 Y80.591 E5.13132
G1 X95.002 Y80.366 E5.19208
G1 X95.822 Y80.175 E5.25284
G1 X96.649 Y80.019 E5.31361
G1 X97.482 Y79.897 E5.37437
G1 X98.319 Y79.810 E5.43514
G1 X99.159 Y79.757 E5.49590
G1 X99.916 Y79.742 E5.55063
G1 X100.841 Y79.757 E5.61739
G1 X101.681 Y79.810 E5.67818
G1 X102.518 Y79.897 E5.73895
G1 X103.351 Y80.019 E5.79971
G1 X104.178 Y80.175 E5.86048
G1 X104.998 Y80.366 E5.92124
G1 X105.809 Y80.591 E5.98200
G1 X106.610 Y80.849 E6.04277
G1 X107.405 Y81.142 E6.10395
G1 X108.020 Y81.431 E6.15304
G1 X108.402 Y81.663 E6.18534
G1 X108.770 Y81.933 E6.21825
G1 X109.270 Y82.389 E6.26711
G1 X109.708 Y82.909 E6.31618
G1 X110.076 Y83.480 E6.36526
G1 X110.367 Y84.094 E6.41432
G1 X110.577 Y84.741 E6.46339
G1 X110.701 Y85.409 E6.51246
G1 X110.739 Y86.087 E6.56153
G1 X110.689 Y86.762 E6.61040
G1 X110.606 Y87.211 E6.64333
G1 X110.486 Y87.648 E6.67604
G1 X110.328 Y88.073 E6.70877
G1 X110.134 Y88.485 E6.74169
G1 X109.783 Y89.061 E6.79036
G1 X109.504 Y89.422 E6.82328
G1 X109.202 Y89.752 E6.85560
G1 X106.402 Y92.552 E7.14151
G1 X105.867 Y93.043 E7.19393
G1 X105.887 Y93.478 F6000.000
G1 X102.471 Y104.664 F6000.000
G1 X103.246 Y104.917 E7.25279 F1200.000
G1 X103.645 Y105.076 E7.28379
G1 X104.387 Y105.428 E7.34309
G1 X105.096 Y105.843 E7.40239
G1 X105.452 Y106.083 E7.43339
G1 X106.103 Y106.584 E7.49269
G1 X106.702 Y107.135 E7.55148
G1 X109.675 Y110.114 E7.85537
G1 X109.991 Y110.490 E7.89077
G1 X110.273 Y110.891 E7.92620
G1 X110.520 Y111.315 E7.96163
G1 X110.732 Y111.766 E7.99759
G1 X110.968 Y112.447 E8.04963
G1 X111.079 Y112.932 E8.08560
G1 X111.148 Y113.426 E8.12157
G1 X111.171 Y114.146 E8.17361
G1 X111.133 Y114.643 E8.20958
G1 X111.052 Y115.135 E8.24555
G1 X110.859 Y115.829 E8.29759
G1 X110.673 Y116.299 E8.33411
G1 X110.336 Y116.937 E8.38615
G1 X110.053 Y117.356 E8.42266
G1 X109.588 Y117.906 E8.47470
G1 X109.228 Y118.250 E8.51067
G1 X108.845 Y118.557 E8.54610
G1 X108.437 Y118.830 E8.58152
G1 X108.007 Y119.066 E8.61695
G1 X107.565 Y119.262 E8.65182
G1 X106.752 Y119.562 E8.71444
G1 X105.933 Y119.825 E8.77651
G1 X105.105 Y120.055 E8.83857
G1 X104.268 Y120.249 E8.90064
G1 X103.423 Y120.409 E8.96270
G1 X102.572 Y120.534 E9.02477
G1 X101.717 Y120.623 E9.08684
G1 X100.859 Y120.676 E9.14890
G1 X100.000 Y120.694 E9.21097
G1 X99.141 Y120.676 E9.27304
G1 X98.283 Y120.623 E9.33510
G1 X97.428 Y120.534 E9.39717
G1 X96.577 Y120.409 E9.45923
G1 X95.732 Y120.249 E9.52130
G1 X94.895 Y120.055 E9.58337
G1 X94.067 Y119.825 E9.64543
G1 X93.248 Y119.562 E9.70750
G1 X92.435 Y119.262 E9.77012
G1 X91.993 Y119.066 E9.80499
G1 X91.563 Y118.830 E9.84042
G1 X91.156 Y118.557 E9.87581
G1 X90.784 Y118.260 E9.91016
G1 X90.256 Y117.738 E9.96378
G1 X89.943 Y117.350 E9.99981
G1 X89.668 Y116.943 E10.03524
G1 X89.430 Y116.514 E10.07068
G1 X89.229 Y116.066 E10.10610
G1 X89.068 Y115.603 E10.14153
G1 X88.945 Y115.120 E10.17749
G1 X88.844 Y114.406 E10.22954
G1 X88.827 Y113.908 E10.26551
G1 X88.853 Y113.418 E10.30093
G1 X88.921 Y112.932 E10.33636
G1 X89.032 Y112.447 E10.37233
G1 X89.270 Y111.759 E10.42491
G1 X89.595 Y111.107 E10.47750
G1 X89.864 Y110.687 E10.51347
G1 X90.163 Y110.299 E10.54889
G1 X90.485 Y109.947 E10.58328
G1 X93.587 Y106.858 E10.89939
G1 X94.220 Y106.324 E10.95918
G1 X94.891 Y105.851 E11.01848
G1 X95.257 Y105.626 E11.04947
G1 X95.983 Y105.243 E11.10875
G1 X96.702 Y104.937 E11.16517
G1 X97.143 Y104.781 E11.19895
G1 X97.890 Y104.572 E11.25493
G1 X98.348 Y104.473 E11.28873
G1 X99.161 Y104.355 E11.34810
G1 X99.951 Y104.308 E11.40525
G1 X100.430 Y104.322 E11.43984
G1 X101.249 Y104.406 E11.49928
G1 X102.017 Y104.550 E11.55571
G1 X102.413 Y104.650 E11.58518
G1 X102.351 Y105.082 F6000.000
G1 X103.099 Y105.325 E11.64197 F1200.000
G1 X103.472 Y105.474 E11.67095
G1 X104.184 Y105.812 E11.72791
G1 X104.865 Y106.210 E11.78486
G1 X105.198 Y106.435 E11.81385
G1 X105.823 Y106.917 E11.87080
G1 X106.402 Y107.448 E11.92757
G1 X109.355 Y110.408 E12.22943
G1 X109.647 Y110.755 E12.26214
G1 X109.907 Y111.125 E12.29487
G1 X110.135 Y111.517 E12.32759
G1 X110.330 Y111.930 E12.36051
G1 X110.550 Y112.567 E12.40918
G1 X110.652 Y113.011 E12.44210
G1 X110.715 Y113.463 E12.47503
G1 X110.736 Y114.136 E12.52369
G1 X110.701 Y114.591 E12.55662
G1 X110.627 Y115.041 E12.58955
G1 X110.447 Y115.691 E12.63821
G1 X110.278 Y116.117 E12.67134
G1 X109.963 Y116.713 E12.72001
G1 X109.706 Y117.094 E12.75313
G1 X109.272 Y117.608 E12.80180
G1 X108.942 Y117.923 E12.83472
G1 X108.588 Y118.207 E12.86745
G1 X108.211 Y118.458 E12.90017
G1 X107.814 Y118.677 E12.93289
G1 X107.402 Y118.859 E12.96541
G1 X106.610 Y119.151 E13.02638
G1 X105.809 Y119.409 E13.08714
G1 X104.998 Y119.634 E13.14791
G1 X104.178 Y119.825 E13.20867
G1 X103.351 Y119.981 E13.26943
G1 X102.518 Y120.103 E13.33020
G1 X101.681 Y120.190 E13.39096
G1 X100.841 Y120.243 E13.45172
G1 X100.000 Y120.260 E13.51249
G1 X99.159 Y120.243 E13.57325
G1 X98.319 Y120.190 E13.63401
G1 X97.482 Y120.103 E13.69478
G1 X96.649 Y119.981 E13.75554
G1 X95.822 Y119.825 E13.81631
G1 X95.002 Y119.634 E13.87707
G1 X94.191 Y119.409 E13.93783
G1 X93.390 Y119.151 E13.99860
G1 X92.598 Y118.859 E14.05957
G1 X92.186 Y118.677 E14.09208
G1 X91.789 Y118.458 E14.12481
G1 X91.412 Y118.207 E14.15752
G1 X91.073 Y117.936 E14.18886
G1 X90.579 Y117.446 E14.23909
G1 X90.292 Y117.091 E14.27204
G1 X90.038 Y116.716 E14.30476
G1 X89.818 Y116.319 E14.33749
G1 X89.633 Y115.906 E14.37021
G1 X89.484 Y115.478 E14.40294
G1 X89.372 Y115.036 E14.43586
G1 X89.277 Y114.368 E14.48452
G1 X89.262 Y113.913 E14.51745
G1 X89.285 Y113.460 E14.55017
G1 X89.348 Y113.011 E14.58290
G1 X89.450 Y112.567 E14.61582
G1 X89.671 Y111.927 E14.66469
G1 X89.973 Y111.321 E14.71356
G1 X90.219 Y110.937 E14.74648
G1 X90.496 Y110.578 E14.77920
G1 X90.798 Y110.248 E14.81154
G1 X93.880 Y107.178 E15.12563
G1 X94.486 Y106.668 E15.18276
G1 X95.130 Y106.213 E15.23972
G1 X95.472 Y106.004 E15.26870
G1 X96.170 Y105.635 E15.32565
G1 X96.860 Y105.342 E15.37979
G1 X97.274 Y105.195 E15.41155
G1 X97.994 Y104.993 E15.46552
G1 X98.424 Y104.901 E15.49730
G1 X99.205 Y104.787 E15.55428
G1 X99.958 Y104.742 E15.60869
G1 X100.402 Y104.756 E15.64075
G1 X101.187 Y104.836 E15.69776
G1 X101.924 Y104.974 E15.75190
G1 X102.293 Y105.067 E15.77934
G1 X102.642 Y104.808 F6000.000
G1 E12.77934 F1800.00000
G92 E0
G1 X86.179 Y115.690 F6000.000
G1 E3.00000 F1800.00000
G1 X86.325 Y116.099 E3.03133 F1200.000
G1 X86.364 Y116.472 E3.05845
G1 X86.323 Y116.838 E3.08500
G1 X86.204 Y117.186 E3.11157
G1 X86.009 Y117.505 E3.13857
G1 X85.166 Y118.357 E3.22510
G1 X84.810 Y118.584 E3.25560
G1 X84.452 Y118.705 E3.28285
G1 X84.085 Y118.745 E3.30955
G1 X83.709 Y118.704 E3.33681
G1 X83.307 Y118.558 E3.36775
G1 X82.999 Y118.352 E3.39444
G1 X81.648 Y117.001 E3.53241
G1 X81.442 Y116.693 E3.55911
G1 X81.296 Y116.291 E3.59005
G1 X81.255 Y115.915 E3.61731
G1 X81.295 Y115.548 E3.64400
G1 X81.416 Y115.190 E3.67126
G1 X81.642 Y114.837 E3.70153
G1 X82.357 Y114.116 E3.77484
G1 X82.577 Y113.930 E3.79566
G1 X83.018 Y113.712 E3.83116
G1 X83.499 Y113.636 E3.86631
G1 X83.820 Y113.661 E3.88957
G1 X84.113 Y113.738 E3.91146
G1 X84.430 Y113.892 E3.93692
G1 X84.665 Y114.070 E3.95819
G1 X85.288 Y114.712 E4.02275
G1 X85.941 Y115.345 E4.08841
G1 X86.145 Y115.641 E4.11434
G1 X85.789 Y115.890 F6000.000
G1 X85.899 Y116.196 E4.13781 F1200.000
G1 X85.927 Y116.471 E4.15775
G1 X85.897 Y116.742 E4.17748
G1 X85.808 Y117.001 E4.19721
G1 X85.665 Y117.236 E4.21711
G1 X84.892 Y118.017 E4.29644
G1 X84.620 Y118.189 E4.31966
G1 X84.358 Y118.279 E4.33970
G1 X84.085 Y118.308 E4.35953
G1 X83.809 Y118.278 E4.37957
G1 X83.504 Y118.167 E4.40295
G1 X83.276 Y118.015 E4.42278
G1 X81.985 Y116.724 E4.55458
G1 X81.833 Y116.496 E4.57441
G1 X81.722 Y116.191 E4.59779
G1 X81.692 Y115.915 E4.61783
G1 X81.721 Y115.642 E4.63766
G1 X81.811 Y115.380 E4.65770
G1 X81.983 Y115.109 E4.68084
G1 X82.651 Y114.436 E4.74935
G1 X82.817 Y114.296 E4.76499
G1 X83.152 Y114.131 E4.79195
G1 X83.516 Y114.073 E4.81859
G1 X83.747 Y114.091 E4.83533
G1 X83.962 Y114.147 E4.85136
G1 X84.203 Y114.264 E4.87069
G1 X84.377 Y114.396 E4.88648
G1 X84.981 Y115.019 E4.94911
G1 X85.608 Y115.627 E5.01215
G1 X85.755 Y115.840 E5.03088
G1 X86.113 Y115.920 F6000.000
G1 X86.092 Y111.174 F6000.000
G1 X85.357 Y111.133 E5.08401 F1200.000
G1 X84.633 Y110.999 E5.13714
G1 X83.934 Y110.772 E5.19026
G1 X83.269 Y110.456 E5.24338
G1 X82.650 Y110.058 E5.29652
G1 X82.088 Y109.583 E5.34965
G1 X81.592 Y109.040 E5.40277
G1 X81.170 Y108.437 E5.45590
G1 X80.830 Y107.788 E5.50879
G1 X80.439 Y106.755 E5.58858
G1 X80.175 Y105.933 E5.65086
G1 X79.945 Y105.105 E5.71293
G1 X79.751 Y104.268 E5.77500
G1 X79.591 Y103.423 E5.83706
G1 X79.466 Y102.572 E5.89913
G1 X79.377 Y101.717 E5.96120
G1 X79.324 Y100.859 E6.02326
G1 X79.306 Y100.000 E6.08533
G1 X79.324 Y99.141 E6.14739
G1 X79.377 Y98.283 E6.20946
G1 X79.466 Y97.428 E6.27152
G1 X79.591 Y96.577 E6.33359
G1 X79.751 Y95.732 E6.39566
G1 X79.945 Y94.895 E6.45772
G1 X80.175 Y94.067 E6.51979
G1 X80.438 Y93.248 E6.58186
G1 X80.741 Y92.428 E6.64502
G1 X81.046 Y91.775 E6.69704
G1 X81.442 Y91.155 E6.75017
G1 X81.915 Y90.591 E6.80330
G1 X82.456 Y90.092 E6.85643
G1 X83.057 Y89.667 E6.90955
G1 X83.707 Y89.324 E6.96268
G1 X84.397 Y89.067 E7.01581
G1 X85.106 Y88.903 E7.06839
G1 X85.601 Y88.843 E7.10434
G1 X86.076 Y88.827 E7.13868
G1 X86.817 Y88.880 E7.19230
G1 X87.308 Y88.971 E7.22835
G1 X87.781 Y89.101 E7.26376
G1 X88.241 Y89.271 E7.29919
G1 X88.692 Y89.483 E7.33516
G1 X89.307 Y89.859 E7.38721
G1 X89.701 Y90.163 E7.42317
G1 X90.052 Y90.485 E7.45752
G1 X92.865 Y93.298 E7.74477
