; generated by Slic3r 1.2.9 on 2018-10-13 at 13:08:55

; external perimeters extrusion width = 0.40mm
; perimeters extrusion width = 0.67mm
; infill extrusion width = 0.67mm
; solid infill extrusion width = 0.67mm
; top infill extrusion width = 0.26mm

M107
M190 S78 ; set bed temperature
M104 S245 ; set temperature
G28 ; home all axes
G1 Z5 F5000 ; lift nozzle

M109 S245 ; wait for temperature to be reached
G21 ; set units to millimeters
G90 ; use absolute coordinates
M82 ; use absolute distances for extrusion
G92 E0
G1 E-3.00000 F1800.00000
G92 E0
G1 Z0.300 F6000.000
G1 X72.449 Y72.275 F6000.000
G1 E3.00000 F1800.00000
M204 S2000
G1 X72.633 Y72.103 E3.01024 F1200.000
G1 X73.412 Y71.478 E3.05077
G1 X74.268 Y70.953 E3.09156
G1 X74.953 Y70.631 E3.12231
G1 X75.187 Y70.539 E3.13253
G1 X76.136 Y70.247 E3.17286
G1 X76.874 Y70.106 E3.20338
G1 X77.874 Y70.027 E3.24411
G1 X122.126 Y70.027 E5.04130
G1 X122.878 Y70.075 E5.07193
G1 X123.862 Y70.247 E5.11249
G1 X124.815 Y70.539 E5.15297
G1 X125.050 Y70.632 E5.16324
G1 X125.732 Y70.954 E5.19387
G1 X126.586 Y71.477 E5.23456
G1 X126.790 Y71.625 E5.24478
G1 X127.549 Y72.273 E5.28531
G1 X128.222 Y73.013 E5.32594
G1 X128.664 Y73.622 E5.35650
G1 X129.160 Y74.491 E5.39713
G1 X129.268 Y74.720 E5.40743
G1 X129.621 Y75.655 E5.44802
G1 X129.808 Y76.384 E5.47858
G1 X129.949 Y77.373 E5.51916
G1 X129.977 Y78.000 E5.54463
G1 X129.965 Y122.376 E7.34687
G1 X129.855 Y123.369 E7.38746
G1 X129.808 Y123.617 E7.39769
G1 X129.621 Y124.345 E7.42821
G1 X129.267 Y125.282 E7.46890
G1 X128.799 Y126.166 E7.50954
G1 X128.663 Y126.380 E7.51983
G1 X128.063 Y127.179 E7.56043
G1 X127.549 Y127.727 E7.59092
G1 X126.791 Y128.374 E7.63142
G1 X126.587 Y128.523 E7.64165
G1 X125.951 Y128.926 E7.67224
G1 X125.050 Y129.368 E7.71299
G1 X124.816 Y129.460 E7.72320
G1 X123.862 Y129.753 E7.76373
G1 X123.124 Y129.894 E7.79424
G1 X122.126 Y129.973 E7.83493
G1 X77.874 Y129.973 E9.63213
G1 X77.121 Y129.925 E9.66278
G1 X76.137 Y129.753 E9.70332
G1 X75.893 Y129.691 E9.71356
G1 X74.953 Y129.369 E9.75393
G1 X74.268 Y129.047 E9.78467
G1 X73.412 Y128.522 E9.82546
G1 X72.633 Y127.898 E9.86598
G1 X72.450 Y127.725 E9.87620
G1 X71.936 Y127.178 E9.90670
G1 X71.340 Y126.385 E9.94698
G1 X71.205 Y126.173 E9.95719
G1 X70.732 Y125.282 E9.99815
G1 X70.452 Y124.570 E10.02921
G1 X70.192 Y123.616 E10.06939
G1 X70.051 Y122.631 E10.10978
G1 X70.023 Y122.000 E10.13545
G1 X70.035 Y77.619 E11.93788
G1 X70.051 Y77.369 E11.94808
G1 X70.192 Y76.384 E11.98848
G1 X70.452 Y75.429 E12.02869
G1 X70.732 Y74.718 E12.05971
G1 X71.205 Y73.827 E12.10067
G1 X71.341 Y73.614 E12.11095
G1 X71.776 Y73.016 E12.14098
G1 X72.408 Y72.319 E12.17919
G1 X72.672 Y72.513 F6000.000
G1 X73.400 Y71.890 E12.21809 F1200.000
G1 X73.603 Y71.742 E12.22831
G1 X74.425 Y71.239 E12.26743
G1 X75.072 Y70.934 E12.29650
G1 X75.306 Y70.842 E12.30672
G1 X76.217 Y70.562 E12.34542
G1 X76.918 Y70.429 E12.37440
G1 X77.874 Y70.353 E12.41333
G1 X122.126 Y70.353 E14.21053
G1 X122.837 Y70.398 E14.23949
G1 X123.781 Y70.562 E14.27839
G1 X124.695 Y70.842 E14.31722
G1 X124.930 Y70.935 E14.32749
G1 X125.576 Y71.239 E14.35646
G1 X126.395 Y71.740 E14.39547
G1 X126.599 Y71.889 E14.40570
G1 X127.326 Y72.511 E14.44458
G1 X127.970 Y73.219 E14.48346
G1 X128.390 Y73.796 E14.51244
G1 X128.866 Y74.630 E14.55141
G1 X128.974 Y74.859 E14.56170
G1 X129.312 Y75.756 E14.60064
G1 X129.489 Y76.445 E14.62953
G1 X129.624 Y77.394 E14.66846
G1 X129.651 Y78.000 E14.69310
G1 X129.640 Y122.355 E16.49451
G1 X129.536 Y123.308 E16.53344
G1 X129.488 Y123.556 E16.54367
G1 X129.312 Y124.244 E16.57253
G1 X128.973 Y125.143 E16.61155
G1 X128.524 Y125.992 E16.65053
G1 X128.388 Y126.205 E16.66082
G1 X127.812 Y126.972 E16.69976
G1 X127.326 Y127.489 E16.72859
G1 X126.599 Y128.111 E16.76744
G1 X126.395 Y128.259 E16.77767
G1 X125.794 Y128.641 E16.80659
G1 X124.930 Y129.065 E16.84568
G1 X124.697 Y129.157 E16.85588
G1 X123.781 Y129.438 E16.89476
G1 X123.084 Y129.571 E16.92361
G1 X122.126 Y129.647 E16.96264
G1 X77.874 Y129.647 E18.75984
G1 X77.164 Y129.603 E18.78871
G1 X76.218 Y129.438 E18.82771
G1 X75.974 Y129.375 E18.83794
G1 X75.072 Y129.066 E18.87667
G1 X74.425 Y128.761 E18.90574
G1 X73.603 Y128.258 E18.94486
G1 X72.856 Y127.660 E18.98373
G1 X72.673 Y127.488 E18.99394
G1 X72.187 Y126.970 E19.02278
G1 X71.615 Y126.210 E19.06143
G1 X71.480 Y125.998 E19.07164
G1 X71.027 Y125.143 E19.11092
G1 X70.761 Y124.471 E19.14029
G1 X70.512 Y123.555 E19.17883
G1 X70.376 Y122.611 E19.21758
G1 X70.349 Y122.000 E19.24240
G1 X70.360 Y77.640 E21.04399
G1 X70.376 Y77.389 E21.05419
G1 X70.512 Y76.445 E21.09294
G1 X70.762 Y75.529 E21.13152
G1 X71.027 Y74.857 E21.16085
G1 X71.480 Y74.002 E21.20013
G1 X71.615 Y73.789 E21.21041
G1 X72.027 Y73.223 E21.23881
G1 X72.631 Y72.556 E21.27536
G1 X72.895 Y72.750 F6000.000
G1 X73.591 Y72.153 E21.31260 F1200.000
G1 X73.795 Y72.005 E21.32282
G1 X74.582 Y71.524 E21.36027
G1 X75.192 Y71.237 E21.38767
G1 X75.426 Y71.144 E21.39789
G1 X76.298 Y70.878 E21.43494
G1 X76.956 Y70.752 E21.46213
G1 X77.874 Y70.678 E21.49953
G1 X122.126 Y70.678 E23.29672
G1 X122.797 Y70.721 E23.32403
G1 X123.700 Y70.877 E23.36126
G1 X124.575 Y71.145 E23.39844
G1 X124.810 Y71.238 E23.40871
G1 X125.420 Y71.525 E23.43607
G1 X126.203 Y72.004 E23.47336
G1 X126.407 Y72.152 E23.48359
G1 X127.103 Y72.748 E23.52081
G1 X127.719 Y73.427 E23.55803
G1 X128.115 Y73.971 E23.58535
G1 X128.571 Y74.768 E23.62266
G1 X128.679 Y74.997 E23.63295
G1 X129.002 Y75.857 E23.67023
G1 X129.169 Y76.506 E23.69746
G1 X129.299 Y77.414 E23.73473
G1 X129.326 Y78.000 E23.75854
G1 X129.315 Y122.335 E25.55912
G1 X129.216 Y123.247 E25.59639
G1 X129.169 Y123.495 E25.60662
G1 X129.002 Y124.143 E25.63381
G1 X128.678 Y125.004 E25.67118
G1 X128.249 Y125.817 E25.70850
G1 X128.114 Y126.031 E25.71878
G1 X127.561 Y126.764 E25.75607
G1 X127.103 Y127.252 E25.78323
G1 X126.408 Y127.848 E25.82043
G1 X126.204 Y127.996 E25.83066
G1 X125.637 Y128.356 E25.85792
G1 X124.810 Y128.762 E25.89534
G1 X124.577 Y128.854 E25.90554
G1 X123.700 Y129.123 E25.94277
G1 X123.043 Y129.248 E25.96996
G1 X122.126 Y129.322 E26.00732
G1 X77.874 Y129.322 E27.80452
G1 X77.202 Y129.279 E27.83185
G1 X76.299 Y129.123 E27.86907
G1 X76.055 Y129.060 E27.87930
G1 X75.192 Y128.763 E27.91638
G1 X74.582 Y128.476 E27.94377
G1 X73.795 Y127.995 E27.98123
G1 X73.079 Y127.423 E28.01845
G1 X72.896 Y127.251 E28.02866
G1 X72.438 Y126.763 E28.05583
G1 X71.889 Y126.035 E28.09284
G1 X71.754 Y125.823 E28.10305
G1 X71.322 Y125.004 E28.14066
G1 X71.071 Y124.371 E28.16833
G1 X70.831 Y123.494 E28.20524
G1 X70.701 Y122.590 E28.24234
G1 X70.674 Y122.000 E28.26632
G1 X70.685 Y77.661 E30.06707
G1 X70.701 Y77.410 E30.07727
G1 X70.831 Y76.506 E30.11438
G1 X71.072 Y75.629 E30.15131
G1 X71.322 Y74.996 E30.17896
G1 X71.754 Y74.177 E30.21656
G1 X71.890 Y73.964 E30.22684
G1 X72.278 Y73.431 E30.25360
G1 X72.854 Y72.794 E30.28849
G1 E27.28849 F1800.00000
G92 E0
G1 X120.838 Y120.726 F6000.000
G1 E3.00000 F1800.00000
G1 X120.607 Y120.943 E3.01286 F1200.000
G1 X120.351 Y121.129 E3.02571
G1 X120.074 Y121.282 E3.03858
G1 X119.779 Y121.398 E3.05144
G1 X119.473 Y121.477 E3.06430
G1 X119.158 Y121.517 E3.07716
G1 X80.842 Y121.517 E4.63332
G1 X80.527 Y121.477 E4.64619
G1 X80.221 Y121.398 E4.65904
G1 X79.926 Y121.282 E4.67190
G1 X79.649 Y121.129 E4.68477
G1 X79.393 Y120.943 E4.69763
G1 X79.162 Y120.726 E4.71048
G1 X78.960 Y120.482 E4.72335
G1 X78.790 Y120.215 E4.73621
G1 X78.655 Y119.928 E4.74907
G1 X78.558 Y119.627 E4.76193
G1 X78.498 Y119.316 E4.77479
G1 X78.479 Y119.016 E4.78699
G1 X78.479 Y80.984 E6.33161
G1 X78.498 Y80.684 E6.34381
G1 X78.558 Y80.373 E6.35667
G1 X78.655 Y80.072 E6.36953
G1 X78.790 Y79.785 E6.38239
G1 X78.960 Y79.518 E6.39525
G1 X79.162 Y79.274 E6.40812
G1 X79.393 Y79.057 E6.42097
G1 X79.649 Y78.871 E6.43383
G1 X79.926 Y78.718 E6.44670
G1 X80.221 Y78.602 E6.45956
G1 X80.527 Y78.523 E6.47241
G1 X80.842 Y78.483 E6.48528
G1 X119.158 Y78.483 E8.04144
G1 X119.473 Y78.523 E8.05430
G1 X119.779 Y78.602 E8.06716
G1 X120.074 Y78.718 E8.08002
G1 X120.351 Y78.871 E8.09289
G1 X120.607 Y79.057 E8.10574
G1 X120.838 Y79.274 E8.11860
G1 X121.040 Y79.518 E8.13146
G1 X121.210 Y79.785 E8.14432
G1 X121.345 Y80.072 E8.15719
G1 X121.442 Y80.373 E8.17005
G1 X121.502 Y80.684 E8.18291
G1 X121.521 Y80.984 E8.19510
G1 X121.521 Y119.016 E9.73973
G1 X121.502 Y119.316 E9.75192
G1 X121.442 Y119.627 E9.76478
G1 X121.345 Y119.928 E9.77764
G1 X121.210 Y120.215 E9.79051
G1 X121.040 Y120.482 E9.80337
G1 X120.876 Y120.680 E9.81379
G1 X120.600 Y120.503 F6000.000
G1 X120.399 Y120.692 E9.82499 F1200.000
G1 X120.176 Y120.854 E9.83618
G1 X119.935 Y120.987 E9.84738
G1 X119.678 Y121.088 E9.85858
G1 X119.411 Y121.157 E9.86977
G1 X119.138 Y121.191 E9.88097
G1 X80.862 Y121.191 E11.43547
G1 X80.589 Y121.157 E11.44667
G1 X80.322 Y121.088 E11.45786
G1 X80.065 Y120.987 E11.46906
G1 X79.824 Y120.854 E11.48026
G1 X79.601 Y120.692 E11.49145
G1 X79.400 Y120.503 E11.50265
G1 X79.224 Y120.290 E11.51384
G1 X79.076 Y120.058 E11.52504
G1 X78.959 Y119.808 E11.53624
G1 X78.874 Y119.546 E11.54744
G1 X78.822 Y119.275 E11.55863
G1 X78.805 Y119.006 E11.56958
G1 X78.805 Y80.994 E13.11338
G1 X78.822 Y80.725 E13.12432
G1 X78.874 Y80.454 E13.13552
G1 X78.959 Y80.192 E13.14672
G1 X79.076 Y79.942 E13.15792
G1 X79.224 Y79.710 E13.16911
G1 X79.400 Y79.497 E13.18031
G1 X79.601 Y79.308 E13.19150
G1 X79.824 Y79.146 E13.20270
G1 X80.065 Y79.013 E13.21390
G1 X80.322 Y78.912 E13.22510
G1 X80.589 Y78.843 E13.23629
G1 X80.862 Y78.809 E13.24749
G1 X119.138 Y78.809 E14.80198
G1 X119.411 Y78.843 E14.81318
G1 X119.678 Y78.912 E14.82438
G1 X119.935 Y79.013 E14.83557
G1 X120.176 Y79.146 E14.84678
G1 X120.399 Y79.308 E14.85797
G1 X120.600 Y79.497 E14.86916
G1 X120.776 Y79.710 E14.88036
G1 X120.924 Y79.942 E14.89156
G1 X121.041 Y80.192 E14.90276
G1 X121.126 Y80.454 E14.91395
G1 X121.178 Y80.725 E14.92515
G1 X121.195 Y80.994 E14.93610
G1 X121.195 Y119.006 E16.47989
G1 X121.178 Y119.275 E16.49084
G1 X121.126 Y119.546 E16.50204
G1 X121.041 Y119.808 E16.51323
G1 X120.924 Y120.058 E16.52443
G1 X120.776 Y120.290 E16.53563
G1 X120.639 Y120.457 E16.54439
G1 X120.674 Y120.768 F6000.000
G1 X123.479 Y121.984 F6000.000
G1 X123.467 Y122.185 E16.55260 F1200.000
G1 X123.374 Y122.544 E16.56766
G1 X123.197 Y122.867 E16.58259
G1 X123.077 Y123.012 E16.59025
G1 X122.792 Y123.248 E16.60529
G1 X122.630 Y123.338 E16.61282
G1 X122.277 Y123.452 E16.62788
G1 X122.093 Y123.475 E16.63542
G1 X77.907 Y123.475 E18.42995
G1 X77.723 Y123.452 E18.43747
G1 X77.370 Y123.338 E18.45255
G1 X77.208 Y123.248 E18.46007
G1 X76.922 Y123.012 E18.47511
G1 X76.704 Y122.712 E18.49019
G1 X76.625 Y122.545 E18.49770
G1 X76.533 Y122.185 E18.51276
G1 X76.521 Y121.983 E18.52097
G1 X76.521 Y78.017 E20.30660
G1 X76.533 Y77.815 E20.31481
G1 X76.625 Y77.455 E20.32988
G1 X76.704 Y77.288 E20.33738
G1 X76.922 Y76.988 E20.35246
G1 X77.208 Y76.752 E20.36751
G1 X77.370 Y76.662 E20.37503
G1 X77.723 Y76.548 E20.39010
G1 X77.907 Y76.525 E20.39763
G1 X122.096 Y76.525 E22.19228
G1 X122.457 Y76.594 E22.20721
G1 X122.630 Y76.662 E22.21475
G1 X122.792 Y76.752 E22.22228
G1 X123.078 Y76.988 E22.23734
G1 X123.196 Y77.131 E22.24488
G1 X123.375 Y77.456 E22.25993
G1 X123.467 Y77.815 E22.27498
G1 X123.479 Y78.016 E22.28319
G1 X123.479 Y121.924 E24.06639
G1 X123.805 Y121.994 F6000.000
G1 X123.790 Y122.226 E24.07585 F1200.000
G1 X123.749 Y122.446 E24.08493
G1 X123.678 Y122.664 E24.09426
G1 X123.581 Y122.869 E24.10346
G1 X123.462 Y123.058 E24.11254
G1 X123.315 Y123.235 E24.12187
G1 X123.150 Y123.390 E24.13107
G1 X122.967 Y123.524 E24.14027
G1 X122.768 Y123.633 E24.14947
G1 X122.558 Y123.716 E24.15868
G1 X122.338 Y123.773 E24.16788
G1 X122.113 Y123.801 E24.17709
G1 X77.886 Y123.801 E25.97328
G1 X77.662 Y123.773 E25.98248
G1 X77.442 Y123.716 E25.99168
G1 X77.231 Y123.633 E26.00090
G1 X77.033 Y123.524 E26.01009
G1 X76.850 Y123.391 E26.01929
G1 X76.684 Y123.235 E26.02849
G1 X76.540 Y123.061 E26.03770
G1 X76.418 Y122.869 E26.04692
G1 X76.322 Y122.664 E26.05611
G1 X76.252 Y122.449 E26.06530
G1 X76.210 Y122.226 E26.07452
G1 X76.195 Y121.994 E26.08397
G1 X76.195 Y78.006 E27.87044
G1 X76.210 Y77.774 E27.87990
G1 X76.252 Y77.551 E27.88911
G1 X76.322 Y77.336 E27.89830
G1 X76.418 Y77.131 E27.90750
G1 X76.540 Y76.939 E27.91671
G1 X76.684 Y76.765 E27.92592
G1 X76.850 Y76.609 E27.93512
G1 X77.033 Y76.476 E27.94432
G1 X77.231 Y76.367 E27.95352
G1 X77.442 Y76.284 E27.96274
G1 X77.662 Y76.227 E27.97194
G1 X77.886 Y76.199 E27.98113
G1 X122.116 Y76.199 E29.77745
G1 X122.338 Y76.227 E29.78653
G1 X122.558 Y76.284 E29.79573
G1 X122.768 Y76.367 E29.80494
G1 X122.967 Y76.476 E29.81414
G1 X123.150 Y76.610 E29.82334
G1 X123.315 Y76.765 E29.83255
G1 X123.460 Y76.939 E29.84175
G1 X123.581 Y77.131 E29.85096
G1 X123.678 Y77.336 E29.86016
G1 X123.748 Y77.551 E29.86936
G1 X123.790 Y77.774 E29.87857
G1 X123.805 Y78.006 E29.88802
G1 X123.805 Y121.934 E31.67206
G1 X123.599 Y122.102 F6000.000
G1 X121.546 Y80.003 F6000.000
M204 S750
G1 X123.292 Y81.749 E31.77258 F1200.000
G1 X123.292 Y82.211 E31.79137
G1 X121.690 Y80.609 E31.88360
G1 X121.708 Y81.089 E31.90317
G1 X123.292 Y82.673 E31.99433
G1 X123.292 Y83.134 E32.01312
G1 X121.708 Y81.551 E32.10427
G1 X121.708 Y82.012 E32.12306
G1 X123.292 Y83.596 E32.21422
G1 X123.292 Y84.057 E32.23301
G1 X121.708 Y82.474 E32.32417
G1 X121.708 Y82.935 E32.34296
G1 X123.292 Y84.519 E32.43411
G1 X123.292 Y84.980 E32.45290
G1 X121.708 Y83.397 E32.54406
G1 X121.708 Y83.859 E32.56285
G1 X123.292 Y85.442 E32.65401
G1 X123.292 Y85.904 E32.67280
G1 X121.708 Y84.320 E32.76395
G1 X121.708 Y84.782 E32.78274
G1 X123.292 Y86.365 E32.87390
G1 X123.292 Y86.827 E32.89269
G1 X121.708 Y85.243 E32.98384
G1 X121.708 Y85.705 E33.00263
G1 X123.292 Y87.288 E33.09379
G1 X123.292 Y87.750 E33.11258
G1 X121.708 Y86.166 E33.20374
G1 X121.708 Y86.628 E33.22253
G1 X123.292 Y88.211 E33.31368
G1 X123.292 Y88.673 E33.33247
G1 X121.708 Y87.090 E33.42363
G1 X121.708 Y87.551 E33.44242
G1 X123.292 Y89.135 E33.53358
G1 X123.292 Y89.596 E33.55237
G1 X121.708 Y88.013 E33.64352
G1 X121.708 Y88.474 E33.66231
G1 X123.292 Y90.058 E33.75347
G1 X123.292 Y90.519 E33.77226
G1 X121.708 Y88.936 E33.86342
G1 X121.708 Y89.398 E33.88221
G1 X123.292 Y90.981 E33.97336
G1 X123.292 Y91.442 E33.99215
G1 X121.708 Y89.859 E34.08331
G1 X121.708 Y90.321 E34.10210
G1 X123.292 Y91.904 E34.19325
G1 X123.292 Y92.366 E34.21204
G1 X121.708 Y90.782 E34.30320
G1 X121.708 Y91.244 E34.32199
G1 X123.292 Y92.827 E34.41315
G1 X123.292 Y93.289 E34.43194
G1 X121.708 Y91.705 E34.52309
G1 X121.708 Y92.167 E34.54188
G1 X123.292 Y93.750 E34.63304
G1 X123.292 Y94.212 E34.65183
G1 X121.708 Y92.629 E34.74299
G1 X121.708 Y93.090 E34.76178
G1 X123.292 Y94.674 E34.85293
G1 X123.292 Y95.135 E34.87172
G1 X121.708 Y93.552 E34.96288
G1 X121.708 Y94.013 E34.98167
G1 X123.292 Y95.597 E35.07283
G1 X123.292 Y96.058 E35.09162
G1 X121.708 Y94.475 E35.18277
G1 X121.708 Y94.936 E35.20156
G1 X123.292 Y96.520 E35.29272
G1 X123.292 Y96.981 E35.31151
G1 X121.708 Y95.398 E35.40267
G1 X121.708 Y95.860 E35.42146
G1 X123.292 Y97.443 E35.51261
G1 X123.292 Y97.905 E35.53140
G1 X121.708 Y96.321 E35.62256
G1 X121.708 Y96.783 E35.64135
G1 X123.292 Y98.366 E35.73250
G1 X123.292 Y98.828 E35.75129
G1 X121.708 Y97.244 E35.84245
G1 X121.708 Y97.706 E35.86124
G1 X123.292 Y99.289 E35.95240
G1 X123.292 Y99.751 E35.97119
G1 X121.708 Y98.167 E36.06234
G1 X121.708 Y98.629 E36.08113
G1 X123.292 Y100.212 E36.17229
G1 X123.292 Y100.674 E36.19108
G1 X121.708 Y99.091 E36.28224
G1 X121.708 Y99.552 E36.30103
G1 X123.292 Y101.136 E36.39218
G1 X123.292 Y101.597 E36.41097
G1 X121.708 Y100.014 E36.50213
G1 X121.708 Y100.475 E36.52092
G1 X123.292 Y102.059 E36.61208
G1 X123.292 Y102.520 E36.63087
G1 X121.708 Y100.937 E36.72202
G1 X121.708 Y101.398 E36.74081
G1 X123.292 Y102.982 E36.83197
G1 X123.292 Y103.443 E36.85076
G1 X121.708 Y101.860 E36.94192
G1 X121.708 Y102.322 E36.96071
G1 X123.292 Y103.905 E37.05186
G1 X123.292 Y104.367 E37.07065
G1 X121.708 Y102.783 E37.16181
G1 X121.708 Y103.245 E37.18060
G1 X123.292 Y104.828 E37.27175
G1 X123.292 Y105.290 E37.29054
G1 X121.708 Y103.706 E37.38170
G1 X121.708 Y104.168 E37.40049
G1 X123.292 Y105.751 E37.49165
