; generated by Slic3r 1.2.9 on 2018-10-07 at 19:43:22

; external perimeters extrusion width = 0.50mm
; perimeters extrusion width = 0.85mm
; infill extrusion width = 1.02mm
; solid infill extrusion width = 0.85mm
; top infill extrusion width = 0.26mm

M107
M190 S78 ; set bed temperature
M104 S245 ; set temperature
G28 ; home all axes
G1 Z5 F5000 ; lift nozzle

M109 S245 ; wait for temperature to be reached
G21 ; set units to millimeters
G90 ; use absolute coordinates
M82 ; use absolute distances for extrusion
G92 E0
G1 Z0.300 F6000.000
G1 E-2.00000 F2400.00000
G92 E0
G1 X76.707 Y88.382 F6000.000
G1 E2.00000 F2400.00000
M204 S2000
G1 X77.200 Y87.963 E2.02628 F1200.000
G1 X78.024 Y87.337 E2.06828
G1 X78.559 Y86.974 E2.09456
G1 X79.445 Y86.441 E2.13656
G1 X80.017 Y86.138 E2.16284
G1 X80.956 Y85.704 E2.20484
G1 X81.557 Y85.464 E2.23112
G1 X82.280 Y85.221 E2.26212
G1 X83.160 Y84.961 E2.29939
G1 X84.170 Y84.739 E2.34139
G1 X84.809 Y84.634 E2.36767
G1 X85.837 Y84.522 E2.40966
G1 X86.483 Y84.487 E2.43595
G1 X113.517 Y84.487 E3.53388
G1 X114.163 Y84.522 E3.56017
G1 X115.191 Y84.634 E3.60216
G1 X115.830 Y84.739 E3.62845
G1 X116.636 Y84.916 E3.66197
G1 X117.463 Y85.134 E3.69672
G1 X118.443 Y85.464 E3.73871
G1 X119.044 Y85.704 E3.76499
G1 X119.983 Y86.138 E3.80699
G1 X120.555 Y86.441 E3.83327
G1 X121.441 Y86.974 E3.87527
G1 X121.976 Y87.337 E3.90155
G1 X122.800 Y87.963 E3.94355
G1 X123.293 Y88.382 E3.96983
G1 X123.847 Y88.907 E4.00083
G1 X124.489 Y89.563 E4.03810
G1 X125.158 Y90.351 E4.08010
G1 X125.550 Y90.866 E4.10638
G1 X126.130 Y91.722 E4.14838
G1 X126.464 Y92.277 E4.17466
G1 X126.948 Y93.190 E4.21665
G1 X127.220 Y93.778 E4.24294
G1 X127.602 Y94.738 E4.28493
G1 X127.809 Y95.352 E4.31122
G1 X128.086 Y96.348 E4.35321
G1 X128.225 Y96.980 E4.37950
G1 X128.392 Y98.001 E4.42149
G1 X128.462 Y98.644 E4.44778
G1 X128.518 Y99.676 E4.48977
G1 X128.518 Y100.324 E4.51605
G1 X128.462 Y101.356 E4.55805
G1 X128.392 Y101.999 E4.58433
G1 X128.225 Y103.020 E4.62633
G1 X128.086 Y103.652 E4.65261
G1 X127.809 Y104.648 E4.69461
G1 X127.602 Y105.262 E4.72089
G1 X127.220 Y106.222 E4.76289
G1 X126.948 Y106.810 E4.78917
G1 X126.464 Y107.723 E4.83117
G1 X126.130 Y108.278 E4.85745
G1 X125.550 Y109.134 E4.89945
G1 X125.158 Y109.649 E4.92573
G1 X124.489 Y110.437 E4.96773
G1 X124.044 Y110.907 E4.99401
G1 X123.293 Y111.618 E5.03601
G1 X122.800 Y112.037 E5.06229
G1 X121.976 Y112.663 E5.10428
G1 X121.441 Y113.026 E5.13057
G1 X120.555 Y113.559 E5.17256
G1 X119.983 Y113.862 E5.19885
G1 X119.044 Y114.296 E5.24084
G1 X118.443 Y114.536 E5.26713
G1 X117.463 Y114.866 E5.30912
G1 X116.840 Y115.039 E5.33541
G1 X115.830 Y115.261 E5.37740
G1 X115.191 Y115.366 E5.40369
G1 X114.163 Y115.478 E5.44568
G1 X113.517 Y115.513 E5.47196
G1 X86.483 Y115.513 E6.56990
G1 X85.837 Y115.478 E6.59618
G1 X84.809 Y115.366 E6.63818
G1 X84.170 Y115.261 E6.66446
G1 X83.160 Y115.039 E6.70646
G1 X82.537 Y114.866 E6.73274
G1 X81.557 Y114.536 E6.77474
G1 X80.956 Y114.296 E6.80102
G1 X80.017 Y113.862 E6.84302
G1 X79.445 Y113.559 E6.86930
G1 X78.559 Y113.026 E6.91130
G1 X78.024 Y112.663 E6.93758
G1 X77.416 Y112.201 E6.96858
G1 X76.707 Y111.618 E7.00585
G1 X75.956 Y110.907 E7.04784
G1 X75.511 Y110.437 E7.07413
G1 X75.017 Y109.855 E7.10513
G1 X74.450 Y109.134 E7.14239
G1 X73.870 Y108.278 E7.18439
G1 X73.536 Y107.723 E7.21067
G1 X73.052 Y106.810 E7.25267
G1 X72.780 Y106.222 E7.27895
G1 X72.398 Y105.262 E7.32095
G1 X72.191 Y104.648 E7.34723
G1 X71.914 Y103.652 E7.38923
G1 X71.775 Y103.020 E7.41551
G1 X71.645 Y102.225 E7.44823
G1 X71.538 Y101.356 E7.48378
G1 X71.482 Y100.324 E7.52578
G1 X71.482 Y99.676 E7.55206
G1 X71.538 Y98.644 E7.59406
G1 X71.608 Y98.001 E7.62034
G1 X71.775 Y96.980 E7.66234
G1 X71.914 Y96.348 E7.68862
G1 X72.191 Y95.352 E7.73061
G1 X72.398 Y94.738 E7.75690
G1 X72.780 Y93.778 E7.79889
G1 X73.052 Y93.190 E7.82518
G1 X73.410 Y92.516 E7.85618
G1 X73.870 Y91.722 E7.89344
G1 X74.450 Y90.866 E7.93544
G1 X74.842 Y90.351 E7.96172
G1 X75.511 Y89.563 E8.00372
G1 X75.956 Y89.093 E8.03000
G1 X76.653 Y88.434 E8.06895
G1 X76.931 Y88.619 F6000.000
G1 X77.397 Y88.222 E8.09380 F1200.000
G1 X78.221 Y87.597 E8.13580
G1 X78.727 Y87.253 E8.16065
G1 X79.613 Y86.720 E8.20265
G1 X80.154 Y86.434 E8.22750
G1 X81.092 Y85.999 E8.26950
G1 X81.661 Y85.773 E8.29435
G1 X82.384 Y85.529 E8.32535
G1 X83.230 Y85.279 E8.36118
G1 X84.240 Y85.057 E8.40318
G1 X84.844 Y84.958 E8.42803
G1 X85.872 Y84.846 E8.47003
G1 X86.483 Y84.813 E8.49488
G1 X113.517 Y84.813 E9.59281
G1 X114.128 Y84.846 E9.61766
G1 X115.156 Y84.958 E9.65966
G1 X115.760 Y85.057 E9.68451
G1 X116.566 Y85.234 E9.71803
G1 X117.359 Y85.443 E9.75135
G1 X118.339 Y85.773 E9.79335
G1 X118.908 Y85.999 E9.81820
G1 X119.846 Y86.434 E9.86019
G1 X120.387 Y86.720 E9.88504
G1 X121.273 Y87.253 E9.92704
G1 X121.779 Y87.597 E9.95189
G1 X122.603 Y88.222 E9.99389
G1 X123.069 Y88.619 E10.01874
G1 X123.623 Y89.144 E10.04974
G1 X124.240 Y89.774 E10.08557
G1 X124.910 Y90.562 E10.12757
G1 X125.280 Y91.049 E10.15242
G1 X125.860 Y91.905 E10.19442
G1 X126.176 Y92.429 E10.21927
G1 X126.660 Y93.343 E10.26127
G1 X126.917 Y93.898 E10.28612
G1 X127.300 Y94.859 E10.32811
G1 X127.495 Y95.439 E10.35296
G1 X127.772 Y96.435 E10.39496
G1 X127.904 Y97.033 E10.41981
G1 X128.071 Y98.053 E10.46181
G1 X128.137 Y98.662 E10.48666
G1 X128.193 Y99.694 E10.52866
G1 X128.193 Y100.306 E10.55351
G1 X128.137 Y101.339 E10.59550
G1 X128.071 Y101.947 E10.62035
G1 X127.904 Y102.967 E10.66235
G1 X127.772 Y103.565 E10.68720
G1 X127.495 Y104.561 E10.72920
G1 X127.300 Y105.141 E10.75405
G1 X126.917 Y106.102 E10.79605
G1 X126.660 Y106.657 E10.82090
G1 X126.176 Y107.571 E10.86289
G1 X125.860 Y108.095 E10.88774
G1 X125.280 Y108.951 E10.92974
G1 X124.910 Y109.438 E10.95459
G1 X124.416 Y110.020 E10.98559
G1 X123.820 Y110.670 E11.02143
G1 X123.069 Y111.381 E11.06342
G1 X122.603 Y111.778 E11.08827
G1 X121.779 Y112.403 E11.13027
G1 X121.273 Y112.747 E11.15512
G1 X120.387 Y113.280 E11.19712
G1 X119.846 Y113.566 E11.22197
G1 X118.908 Y114.001 E11.26396
G1 X118.339 Y114.227 E11.28882
G1 X117.359 Y114.557 E11.33081
G1 X116.770 Y114.721 E11.35566
G1 X115.760 Y114.943 E11.39766
G1 X115.156 Y115.042 E11.42251
G1 X114.128 Y115.154 E11.46451
G1 X113.517 Y115.187 E11.48936
G1 X86.483 Y115.187 E12.58729
G1 X85.872 Y115.154 E12.61214
G1 X84.844 Y115.042 E12.65414
G1 X84.240 Y114.943 E12.67899
G1 X83.230 Y114.721 E12.72099
G1 X82.641 Y114.557 E12.74584
G1 X81.661 Y114.227 E12.78784
G1 X81.092 Y114.001 E12.81269
G1 X80.154 Y113.566 E12.85468
G1 X79.613 Y113.280 E12.87953
G1 X78.727 Y112.747 E12.92153
G1 X78.221 Y112.403 E12.94638
G1 X77.397 Y111.778 E12.98838
G1 X76.931 Y111.381 E13.01323
G1 X76.180 Y110.670 E13.05523
G1 X75.760 Y110.226 E13.08008
G1 X75.090 Y109.438 E13.12207
G1 X74.720 Y108.951 E13.14692
G1 X74.140 Y108.095 E13.18892
G1 X73.824 Y107.571 E13.21377
G1 X73.340 Y106.657 E13.25577
G1 X73.083 Y106.102 E13.28062
G1 X72.700 Y105.141 E13.32261
G1 X72.505 Y104.561 E13.34747
G1 X72.228 Y103.565 E13.38946
G1 X72.096 Y102.967 E13.41431
G1 X71.929 Y101.947 E13.45631
G1 X71.863 Y101.338 E13.48116
G1 X71.825 Y100.629 E13.51002
G1 X71.807 Y99.694 E13.54799
G1 X71.863 Y98.662 E13.58999
G1 X71.929 Y98.053 E13.61484
G1 X72.096 Y97.033 E13.65684
G1 X72.228 Y96.435 E13.68169
G1 X72.505 Y95.439 E13.72369
G1 X72.700 Y94.859 E13.74854
G1 X73.083 Y93.898 E13.79053
G1 X73.340 Y93.343 E13.81538
G1 X73.697 Y92.669 E13.84639
G1 X74.140 Y91.905 E13.88222
G1 X74.720 Y91.049 E13.92422
G1 X75.090 Y90.562 E13.94907
G1 X75.760 Y89.774 E13.99106
G1 X76.180 Y89.330 E14.01591
G1 X76.877 Y88.670 E14.05487
G1 X77.155 Y88.855 F6000.000
G1 X77.595 Y88.482 E14.07828 F1200.000
G1 X78.418 Y87.856 E14.12028
G1 X78.895 Y87.532 E14.14370
G1 X79.781 Y86.999 E14.18570
G1 X80.291 Y86.729 E14.20912
G1 X81.229 Y86.295 E14.25111
G1 X81.765 Y86.081 E14.27453
G1 X82.488 Y85.838 E14.30553
G1 X83.300 Y85.597 E14.33994
G1 X84.310 Y85.375 E14.38193
G1 X84.879 Y85.281 E14.40535
G1 X85.907 Y85.170 E14.44735
G1 X86.483 Y85.138 E14.47077
G1 X113.517 Y85.138 E15.56870
G1 X114.093 Y85.170 E15.59212
G1 X115.121 Y85.281 E15.63412
G1 X115.690 Y85.375 E15.65754
G1 X116.496 Y85.552 E15.69106
G1 X117.255 Y85.751 E15.72294
G1 X118.235 Y86.081 E15.76494
G1 X118.771 Y86.295 E15.78836
G1 X119.709 Y86.729 E15.83036
G1 X120.219 Y86.999 E15.85377
G1 X121.105 Y87.532 E15.89577
G1 X121.582 Y87.856 E15.91919
G1 X122.405 Y88.482 E15.96119
G1 X122.845 Y88.855 E15.98460
G1 X123.399 Y89.380 E16.01561
G1 X123.992 Y89.985 E16.05001
G1 X124.662 Y90.773 E16.09200
G1 X125.011 Y91.232 E16.11542
G1 X125.591 Y92.088 E16.15742
G1 X125.888 Y92.582 E16.18084
G1 X126.373 Y93.495 E16.22284
G1 X126.615 Y94.019 E16.24625
G1 X126.997 Y94.979 E16.28825
G1 X127.182 Y95.526 E16.31167
G1 X127.458 Y96.522 E16.35367
G1 X127.582 Y97.085 E16.37709
G1 X127.749 Y98.106 E16.41908
G1 X127.812 Y98.679 E16.44250
G1 X127.868 Y99.712 E16.48450
G1 X127.868 Y100.288 E16.50792
G1 X127.812 Y101.321 E16.54991
G1 X127.749 Y101.894 E16.57333
G1 X127.582 Y102.915 E16.61533
G1 X127.458 Y103.478 E16.63875
G1 X127.182 Y104.474 E16.68074
G1 X126.997 Y105.021 E16.70416
G1 X126.615 Y105.981 E16.74616
G1 X126.373 Y106.505 E16.76958
G1 X126.015 Y107.179 E16.80058
G1 X125.591 Y107.912 E16.83498
G1 X125.011 Y108.768 E16.87698
G1 X124.662 Y109.227 E16.90040
G1 X123.992 Y110.015 E16.94239
G1 X123.596 Y110.434 E16.96581
G1 X122.845 Y111.145 E17.00781
G1 X122.405 Y111.518 E17.03123
G1 X121.582 Y112.144 E17.07323
G1 X121.105 Y112.468 E17.09664
G1 X120.219 Y113.001 E17.13864
G1 X119.709 Y113.271 E17.16206
G1 X118.771 Y113.705 E17.20406
G1 X118.235 Y113.919 E17.22748
G1 X117.255 Y114.249 E17.26947
G1 X116.700 Y114.403 E17.29289
G1 X115.690 Y114.625 E17.33489
G1 X115.121 Y114.719 E17.35831
G1 X114.093 Y114.830 E17.40030
G1 X113.517 Y114.862 E17.42372
G1 X86.483 Y114.862 E18.52166
G1 X85.907 Y114.830 E18.54508
G1 X84.879 Y114.719 E18.58707
G1 X84.310 Y114.625 E18.61049
G1 X83.300 Y114.403 E18.65249
G1 X82.745 Y114.249 E18.67591
G1 X81.765 Y113.919 E18.71790
G1 X81.229 Y113.705 E18.74132
G1 X80.291 Y113.271 E18.78332
G1 X79.781 Y113.001 E18.80674
G1 X78.895 Y112.468 E18.84873
G1 X78.418 Y112.144 E18.87215
G1 X77.595 Y111.518 E18.91415
G1 X77.155 Y111.145 E18.93757
G1 X76.404 Y110.434 E18.97957
G1 X76.008 Y110.015 E19.00298
G1 X75.338 Y109.227 E19.04498
G1 X74.989 Y108.768 E19.06840
G1 X74.409 Y107.912 E19.11040
G1 X74.112 Y107.418 E19.13382
G1 X73.627 Y106.504 E19.17581
G1 X73.385 Y105.981 E19.19923
G1 X73.003 Y105.021 E19.24123
G1 X72.818 Y104.474 E19.26465
G1 X72.542 Y103.478 E19.30664
G1 X72.418 Y102.915 E19.33006
G1 X72.251 Y101.894 E19.37206
G1 X72.188 Y101.321 E19.39548
G1 X72.150 Y100.611 E19.42434
G1 X72.132 Y99.712 E19.46088
G1 X72.188 Y98.679 E19.50288
G1 X72.251 Y98.106 E19.52630
G1 X72.418 Y97.085 E19.56829
G1 X72.542 Y96.522 E19.59171
G1 X72.818 Y95.526 E19.63371
G1 X73.003 Y94.979 E19.65713
G1 X73.385 Y94.019 E19.69912
G1 X73.627 Y93.495 E19.72254
G1 X73.985 Y92.821 E19.75354
G1 X74.409 Y92.088 E19.78795
G1 X74.989 Y91.232 E19.82994
G1 X75.338 Y90.773 E19.85336
G1 X76.008 Y89.985 E19.89536
G1 X76.404 Y89.566 E19.91878
G1 X77.101 Y88.907 E19.95773
G1 E17.95773 F2400.00000
G92 E0
G1 X114.499 Y101.606 F6000.000
G1 E2.00000 F2400.00000
G1 X114.267 Y101.795 E2.01218 F1200.000
G1 X114.011 Y101.951 E2.02435
G1 X113.736 Y102.070 E2.03653
G1 X113.447 Y102.151 E2.04871
G1 X113.150 Y102.192 E2.06089
G1 X112.850 Y102.192 E2.07306
G1 X112.600 Y102.157 E2.08332
G1 X112.269 Y102.072 E2.09718
G1 X111.989 Y101.951 E2.10958
G1 X111.733 Y101.795 E2.12176
G1 X111.501 Y101.606 E2.13394
G1 X111.296 Y101.386 E2.14611
G1 X111.123 Y101.141 E2.15829
G1 X110.979 Y100.863 E2.17104
G1 X110.845 Y100.411 E2.19019
G1 X110.803 Y100.009 E2.20657
G1 X110.824 Y99.701 E2.21913
G1 X110.875 Y99.454 E2.22939
G1 X110.983 Y99.130 E2.24325
G1 X111.123 Y98.859 E2.25565
G1 X111.296 Y98.614 E2.26783
G1 X111.501 Y98.394 E2.28001
G1 X111.733 Y98.205 E2.29219
G1 X111.949 Y98.074 E2.30244
G1 X112.259 Y97.931 E2.31630
G1 X112.553 Y97.849 E2.32870
G1 X112.850 Y97.808 E2.34088
G1 X113.150 Y97.808 E2.35306
G1 X113.400 Y97.843 E2.36331
G1 X113.731 Y97.928 E2.37718
G1 X114.011 Y98.049 E2.38958
G1 X114.267 Y98.205 E2.40175
G1 X114.499 Y98.394 E2.41393
G1 X114.704 Y98.614 E2.42611
G1 X114.877 Y98.859 E2.43829
G1 X115.015 Y99.125 E2.45046
G1 X115.115 Y99.407 E2.46264
G1 X115.176 Y99.701 E2.47482
G1 X115.197 Y100.000 E2.48699
G1 X115.176 Y100.299 E2.49917
G1 X115.115 Y100.593 E2.51135
G1 X115.015 Y100.875 E2.52353
G1 X114.877 Y101.141 E2.53570
G1 X114.704 Y101.386 E2.54788
G1 X114.551 Y101.551 E2.55701
G1 X114.277 Y101.367 F6000.000
G1 X114.079 Y101.528 E2.56738 F1200.000
G1 X113.861 Y101.661 E2.57775
G1 X113.626 Y101.762 E2.58812
G1 X113.381 Y101.831 E2.59848
G1 X113.128 Y101.866 E2.60885
G1 X112.872 Y101.866 E2.61922
G1 X112.663 Y101.837 E2.62781
G1 X112.376 Y101.763 E2.63986
G1 X112.139 Y101.661 E2.65031
G1 X111.921 Y101.528 E2.66068
G1 X111.723 Y101.367 E2.67105
G1 X111.549 Y101.180 E2.68142
G1 X111.402 Y100.972 E2.69178
G1 X111.282 Y100.741 E2.70236
G1 X111.165 Y100.347 E2.71904
G1 X111.129 Y100.004 E2.73306
G1 X111.147 Y99.745 E2.74357
G1 X111.190 Y99.538 E2.75216
G1 X111.283 Y99.257 E2.76421
G1 X111.402 Y99.028 E2.77466
G1 X111.549 Y98.820 E2.78503
G1 X111.723 Y98.633 E2.79540
G1 X111.921 Y98.472 E2.80577
G1 X112.102 Y98.362 E2.81435
G1 X112.372 Y98.238 E2.82641
G1 X112.619 Y98.169 E2.83686
G1 X112.872 Y98.134 E2.84723
G1 X113.128 Y98.134 E2.85760
G1 X113.337 Y98.163 E2.86618
G1 X113.624 Y98.237 E2.87823
G1 X113.861 Y98.339 E2.88869
G1 X114.079 Y98.472 E2.89905
G1 X114.277 Y98.633 E2.90942
G1 X114.451 Y98.820 E2.91979
G1 X114.598 Y99.028 E2.93016
G1 X114.716 Y99.255 E2.94053
G1 X114.801 Y99.495 E2.95089
G1 X114.853 Y99.745 E2.96126
G1 X114.870 Y100.000 E2.97163
G1 X114.853 Y100.255 E2.98200
G1 X114.801 Y100.505 E2.99237
G1 X114.716 Y100.745 E3.00273
G1 X114.598 Y100.972 E3.01310
G1 X114.451 Y101.180 E3.02347
G1 X114.328 Y101.312 E3.03079
G1 X114.329 Y101.617 F6000.000
G1 X118.845 Y106.881 F6000.000
G1 X118.067 Y107.473 E3.07050 F1200.000
G1 X117.229 Y107.977 E3.11020
G1 X116.342 Y108.387 E3.14990
G1 X115.415 Y108.700 E3.18961
G1 X114.461 Y108.910 E3.22931
G1 X113.489 Y109.015 E3.26901
G1 X112.511 Y109.015 E3.30872
G1 X111.539 Y108.910 E3.34842
G1 X110.585 Y108.700 E3.38812
G1 X109.658 Y108.387 E3.42783
G1 X108.771 Y107.977 E3.46753
G1 X107.933 Y107.473 E3.50723
G1 X107.155 Y106.881 E3.54694
G1 X106.445 Y106.209 E3.58664
G1 X105.812 Y105.464 E3.62634
G1 X105.264 Y104.655 E3.66605
G1 X104.806 Y103.791 E3.70575
G1 X104.444 Y102.883 E3.74545
G1 X104.182 Y101.941 E3.78516
G1 X104.024 Y100.976 E3.82486
G1 X103.971 Y100.000 E3.86456
G1 X104.024 Y99.024 E3.90426
G1 X104.182 Y98.059 E3.94397
G1 X104.379 Y97.351 E3.97382
G1 X104.444 Y97.117 E3.98367
G1 X104.806 Y96.209 E4.02337
G1 X105.264 Y95.345 E4.06308
G1 X105.812 Y94.536 E4.10278
G1 X106.445 Y93.791 E4.14248
G1 X107.155 Y93.119 E4.18219
G1 X107.933 Y92.527 E4.22189
G1 X108.771 Y92.023 E4.26159
G1 X109.658 Y91.613 E4.30130
G1 X110.585 Y91.300 E4.34100
G1 X111.539 Y91.090 E4.38070
G1 X112.511 Y90.985 E4.42041
G1 X113.489 Y90.985 E4.46011
G1 X114.461 Y91.090 E4.49981
G1 X115.415 Y91.300 E4.53952
G1 X116.342 Y91.613 E4.57922
G1 X117.229 Y92.023 E4.61892
G1 X118.067 Y92.527 E4.65863
G1 X118.845 Y93.119 E4.69833
G1 X119.555 Y93.791 E4.73803
G1 X120.188 Y94.536 E4.77774
G1 X120.736 Y95.345 E4.81744
G1 X121.194 Y96.209 E4.85714
G1 X121.556 Y97.117 E4.89685
G1 X121.818 Y98.059 E4.93655
G1 X121.976 Y99.024 E4.97625
G1 X122.029 Y100.000 E5.01596
G1 X121.976 Y100.976 E5.05566
G1 X121.818 Y101.941 E5.09536
G1 X121.556 Y102.883 E5.13507
G1 X121.194 Y103.791 E5.17477
G1 X120.736 Y104.655 E5.21447
G1 X120.188 Y105.464 E5.25418
G1 X119.555 Y106.209 E5.29388
G1 X118.899 Y106.830 E5.33054
G1 X119.056 Y107.130 F6000.000
G1 X118.250 Y107.743 E5.37167 F1200.000
G1 X117.382 Y108.265 E5.41281
G1 X116.463 Y108.690 E5.45395
G1 X115.503 Y109.014 E5.49509
G1 X114.513 Y109.231 E5.53622
G1 X113.506 Y109.341 E5.57736
G1 X112.494 Y109.341 E5.61850
G1 X111.487 Y109.231 E5.65964
G1 X110.497 Y109.014 E5.70077
G1 X109.537 Y108.690 E5.74191
