; generated by Slic3r 1.2.9 on 2018-09-30 at 13:34:53

; external perimeters extrusion width = 0.40mm
; perimeters extrusion width = 0.67mm
; infill extrusion width = 0.67mm
; solid infill extrusion width = 0.67mm
; top infill extrusion width = 0.26mm

M107
M190 S78 ; set bed temperature
M104 S245 ; set temperature
G28 ; home all axes
G1 Z5 F5000 ; lift nozzle

M109 S245 ; wait for temperature to be reached
G21 ; set units to millimeters
G90 ; use absolute coordinates
M82 ; use absolute distances for extrusion
G92 E0
G1 E-2.00000 F1800.00000
G92 E0
G1 Z0.300 F6000.000
G1 X64.556 Y97.115 F6000.000
G1 E2.00000 F1800.00000
M204 S2000
G1 X64.925 Y96.875 E2.01786 F1200.000
G1 X74.925 Y90.875 E2.49149
G1 X75.701 Y90.483 E2.52681
G1 X80.701 Y88.400 E2.74679
G1 X81.928 Y88.037 E2.79876
G1 X97.928 Y85.120 E3.45927
G1 X99.000 Y85.023 E3.50298
G1 X125.000 Y85.023 E4.55892
G1 X127.299 Y85.483 E4.65413
G1 X135.997 Y89.107 E5.03685
G1 X137.821 Y90.297 E5.12528
G1 X139.098 Y92.061 E5.21372
G1 X139.675 Y94.624 E5.32044
G1 X139.675 Y105.021 E5.74267
G1 X139.279 Y107.162 E5.83111
G1 X138.141 Y109.019 E5.91954
G1 X136.414 Y110.345 E6.00798
G1 X134.117 Y110.983 E6.10482
G1 X77.418 Y114.962 E8.41318
G1 X77.000 Y114.977 E8.43019
G1 X71.000 Y114.977 E8.67386
G1 X70.126 Y114.913 E8.70947
G1 X69.495 Y114.819 E8.73535
G1 X68.982 Y114.720 E8.75658
G1 X68.362 Y114.572 E8.78246
G1 X67.860 Y114.429 E8.80369
G1 X67.255 Y114.227 E8.82957
G1 X66.767 Y114.041 E8.85080
G1 X66.182 Y113.787 E8.87668
G1 X65.712 Y113.558 E8.89790
G1 X65.152 Y113.255 E8.92379
G1 X64.557 Y112.885 E8.95224
G1 X64.136 Y112.589 E8.97315
G1 X63.457 Y112.031 E9.00884
G1 X63.084 Y111.676 E9.02974
G1 X62.494 Y111.025 E9.06543
G1 X62.178 Y110.619 E9.08634
G1 X61.689 Y109.888 E9.12204
G1 X61.436 Y109.440 E9.14293
G1 X61.060 Y108.646 E9.17862
G1 X60.875 Y108.165 E9.19952
G1 X60.620 Y107.324 E9.23521
G1 X60.507 Y106.822 E9.25612
G1 X60.379 Y105.953 E9.29180
G1 X60.341 Y105.439 E9.31271
G1 X60.341 Y104.561 E9.34839
G1 X60.379 Y104.047 E9.36931
G1 X60.507 Y103.178 E9.40500
G1 X60.620 Y102.676 E9.42590
G1 X60.875 Y101.835 E9.46160
G1 X61.060 Y101.355 E9.48250
G1 X61.436 Y100.560 E9.51818
G1 X61.689 Y100.112 E9.53909
G1 X62.178 Y99.381 E9.57479
G1 X62.494 Y98.976 E9.59568
G1 X63.084 Y98.324 E9.63137
G1 X63.457 Y97.969 E9.65228
G1 X64.136 Y97.411 E9.68797
G1 X64.507 Y97.149 E9.70643
G1 X64.744 Y97.381 F6000.000
G1 X65.092 Y97.154 E9.72332 F1200.000
G1 X75.092 Y91.154 E10.19695
G1 X75.826 Y90.783 E10.23034
G1 X80.826 Y88.700 E10.45033
G1 X81.987 Y88.357 E10.49946
G1 X97.987 Y85.440 E11.15998
G1 X99.000 Y85.349 E11.20131
G1 X125.000 Y85.349 E12.25724
G1 X127.174 Y85.783 E12.34727
G1 X135.872 Y89.408 E12.72998
G1 X137.639 Y90.574 E12.81595
G1 X138.853 Y92.308 E12.90193
G1 X139.350 Y94.624 E12.99815
G1 X139.350 Y105.021 E13.42039
G1 X138.953 Y107.100 E13.50636
G1 X137.820 Y108.888 E13.59233
G1 X136.108 Y110.133 E13.67830
G1 X134.094 Y110.658 E13.76281
G1 X77.396 Y114.637 E16.07118
G1 X77.000 Y114.651 E16.08725
G1 X71.000 Y114.651 E16.33093
G1 X70.173 Y114.590 E16.36460
G1 X69.543 Y114.497 E16.39048
G1 X68.438 Y114.256 E16.43642
G1 X67.358 Y113.919 E16.48236
G1 X66.896 Y113.742 E16.50243
G1 X66.312 Y113.488 E16.52832
G1 X65.307 Y112.968 E16.57426
G1 X64.744 Y112.619 E16.60116
G1 X64.323 Y112.323 E16.62207
G1 X63.681 Y111.795 E16.65582
G1 X63.309 Y111.440 E16.67672
G1 X62.751 Y110.824 E16.71047
G1 X62.434 Y110.418 E16.73137
G1 X61.973 Y109.727 E16.76512
G1 X61.719 Y109.279 E16.78602
G1 X61.364 Y108.528 E16.81976
G1 X61.179 Y108.048 E16.84066
G1 X60.938 Y107.253 E16.87441
G1 X60.825 Y106.751 E16.89532
G1 X60.702 Y105.910 E16.92983
G1 X60.665 Y105.416 E16.94996
G1 X60.665 Y104.585 E16.98370
G1 X60.703 Y104.071 E17.00461
G1 X60.825 Y103.249 E17.03836
G1 X60.938 Y102.747 E17.05926
G1 X61.179 Y101.952 E17.09301
G1 X61.364 Y101.472 E17.11391
G1 X61.719 Y100.721 E17.14765
G1 X61.973 Y100.273 E17.16856
G1 X62.434 Y99.582 E17.20231
G1 X62.751 Y99.176 E17.22321
G1 X63.309 Y98.560 E17.25695
G1 X63.681 Y98.205 E17.27786
G1 X64.323 Y97.677 E17.31161
G1 X64.695 Y97.416 E17.33007
G1 X64.932 Y97.647 F6000.000
G1 X65.260 Y97.433 E17.34598 F1200.000
G1 X75.260 Y91.433 E17.81961
G1 X75.952 Y91.084 E17.85108
G1 X80.952 Y89.001 E18.07107
G1 X82.045 Y88.677 E18.11737
G1 X98.045 Y85.761 E18.77789
G1 X99.000 Y85.674 E18.81683
G1 X125.000 Y85.674 E19.87277
G1 X127.048 Y86.084 E19.95761
G1 X135.747 Y89.708 E20.34032
G1 X137.455 Y90.850 E20.42376
G1 X138.605 Y92.552 E20.50719
G1 X139.024 Y94.624 E20.59305
G1 X139.024 Y105.021 E21.01529
G1 X138.628 Y107.037 E21.09873
G1 X137.498 Y108.753 E21.18216
G1 X135.803 Y109.913 E21.26560
G1 X134.071 Y110.334 E21.33796
G1 X77.373 Y114.313 E23.64633
G1 X71.000 Y114.326 E23.90515
G1 X70.221 Y114.268 E23.93688
G1 X69.590 Y114.175 E23.96276
G1 X68.513 Y113.939 E24.00755
G1 X67.461 Y113.610 E24.05233
G1 X67.026 Y113.443 E24.07124
G1 X66.441 Y113.190 E24.09713
G1 X65.462 Y112.682 E24.14191
G1 X64.932 Y112.353 E24.16727
G1 X64.511 Y112.056 E24.18817
G1 X63.906 Y111.559 E24.21998
G1 X63.533 Y111.204 E24.24087
G1 X63.008 Y110.624 E24.27268
G1 X62.691 Y110.218 E24.29358
G1 X62.256 Y109.567 E24.32539
G1 X62.003 Y109.119 E24.34629
G1 X61.668 Y108.411 E24.37808
G1 X61.483 Y107.931 E24.39899
G1 X61.256 Y107.182 E24.43079
G1 X61.143 Y106.679 E24.45170
G1 X61.027 Y105.886 E24.48427
G1 X60.990 Y105.392 E24.50439
G1 X60.990 Y104.609 E24.53618
G1 X61.028 Y104.095 E24.55710
G1 X61.143 Y103.321 E24.58891
G1 X61.256 Y102.819 E24.60980
G1 X61.483 Y102.069 E24.64161
G1 X61.668 Y101.589 E24.66251
G1 X62.003 Y100.881 E24.69431
G1 X62.256 Y100.433 E24.71521
G1 X62.691 Y99.782 E24.74702
G1 X63.008 Y99.376 E24.76792
G1 X63.533 Y98.796 E24.79972
G1 X63.906 Y98.441 E24.82062
G1 X64.511 Y97.944 E24.85243
G1 X64.883 Y97.682 E24.87089
G1 E22.87089 F1800.00000
G92 E0
G1 X79.150 Y101.833 F6000.000
G1 E2.00000 F1800.00000
G1 X70.903 Y106.861 E2.39227 F1200.000
G1 X70.519 Y107.044 E2.40955
G1 X70.078 Y107.149 E2.42794
G1 X69.625 Y107.159 E2.44634
G1 X69.180 Y107.076 E2.46473
G1 X68.762 Y106.902 E2.48313
G1 X68.389 Y106.644 E2.50152
G1 X68.078 Y106.315 E2.51991
G1 X67.843 Y105.928 E2.53831
G1 X67.692 Y105.501 E2.55670
G1 X67.634 Y105.052 E2.57509
G1 X67.671 Y104.600 E2.59349
G1 X67.800 Y104.167 E2.61188
G1 X68.013 Y103.776 E2.62995
G1 X68.271 Y103.457 E2.64660
G1 X68.650 Y103.167 E2.66600
G1 X76.897 Y98.139 E3.05827
G1 X77.283 Y97.955 E3.07563
G1 X77.737 Y97.851 E3.09453
G1 X78.175 Y97.841 E3.11232
G1 X78.620 Y97.924 E3.13072
G1 X79.038 Y98.098 E3.14911
G1 X79.411 Y98.356 E3.16750
G1 X79.722 Y98.685 E3.18590
G1 X79.957 Y99.072 E3.20429
G1 X80.108 Y99.499 E3.22269
G1 X80.166 Y99.948 E3.24108
G1 X80.129 Y100.401 E3.25955
G1 X79.993 Y100.847 E3.27846
G1 X79.783 Y101.231 E3.29625
G1 X79.488 Y101.575 E3.31464
G1 X79.197 Y101.797 E3.32949
G1 X78.966 Y101.564 F6000.000
G1 X70.748 Y106.575 E3.72037 F1200.000
G1 X70.410 Y106.735 E3.73557
G1 X70.036 Y106.824 E3.75118
G1 X69.652 Y106.833 E3.76680
G1 X69.274 Y106.762 E3.78241
G1 X68.919 Y106.614 E3.79802
G1 X68.603 Y106.396 E3.81364
G1 X68.339 Y106.116 E3.82925
G1 X68.138 Y105.788 E3.84486
G1 X68.011 Y105.425 E3.86048
G1 X67.962 Y105.044 E3.87609
G1 X67.993 Y104.661 E3.89171
G1 X68.103 Y104.292 E3.90732
G1 X68.285 Y103.958 E3.92281
G1 X68.500 Y103.692 E3.93668
G1 X68.834 Y103.436 E3.95379
G1 X77.052 Y98.425 E4.34467
G1 X77.391 Y98.265 E4.35990
G1 X77.778 Y98.176 E4.37603
G1 X78.148 Y98.167 E4.39109
G1 X78.526 Y98.238 E4.40670
G1 X78.881 Y98.386 E4.42232
G1 X79.197 Y98.604 E4.43793
G1 X79.461 Y98.884 E4.45354
G1 X79.662 Y99.212 E4.46916
G1 X79.789 Y99.575 E4.48477
G1 X79.838 Y99.956 E4.50039
G1 X79.807 Y100.340 E4.51603
G1 X79.691 Y100.719 E4.53216
G1 X79.513 Y101.045 E4.54722
G1 X79.263 Y101.337 E4.56283
G1 X79.013 Y101.527 E4.57559
G1 X78.989 Y101.963 F6000.000
G1 X93.827 Y100.000 F6000.000
G1 X93.874 Y99.548 E4.59404 F1200.000
G1 X94.014 Y99.116 E4.61250
G1 X94.242 Y98.722 E4.63095
G1 X94.546 Y98.385 E4.64940
G1 X94.913 Y98.118 E4.66786
G1 X95.328 Y97.933 E4.68631
G1 X95.773 Y97.838 E4.70477
G1 X96.227 Y97.838 E4.72322
G1 X96.672 Y97.933 E4.74167
G1 X97.087 Y98.118 E4.76013
G1 X97.454 Y98.385 E4.77858
G1 X97.758 Y98.722 E4.79703
G1 X97.986 Y99.117 E4.81556
G1 X98.127 Y99.561 E4.83447
G1 X98.173 Y100.000 E4.85239
G1 X98.126 Y100.452 E4.87084
G1 X97.986 Y100.884 E4.88929
G1 X97.758 Y101.278 E4.90775
G1 X97.454 Y101.615 E4.92620
G1 X97.087 Y101.882 E4.94465
G1 X96.672 Y102.067 E4.96311
G1 X96.227 Y102.162 E4.98156
G1 X95.773 Y102.162 E5.00001
G1 X95.328 Y102.067 E5.01847
G1 X94.913 Y101.882 E5.03692
G1 X94.546 Y101.615 E5.05538
G1 X94.242 Y101.278 E5.07383
G1 X94.014 Y100.882 E5.09236
G1 X93.873 Y100.439 E5.11127
G1 X93.833 Y100.060 E5.12674
G1 X94.154 Y100.000 F6000.000
G1 X94.194 Y99.616 E5.14242 F1200.000
G1 X94.314 Y99.249 E5.15809
G1 X94.507 Y98.915 E5.17377
G1 X94.765 Y98.628 E5.18944
G1 X95.077 Y98.401 E5.20511
G1 X95.430 Y98.244 E5.22079
G1 X95.807 Y98.164 E5.23646
G1 X96.193 Y98.164 E5.25213
G1 X96.570 Y98.244 E5.26781
G1 X96.923 Y98.401 E5.28348
G1 X97.235 Y98.628 E5.29916
G1 X97.493 Y98.915 E5.31483
G1 X97.687 Y99.250 E5.33053
G1 X97.807 Y99.628 E5.34666
G1 X97.846 Y100.000 E5.36184
G1 X97.806 Y100.384 E5.37752
G1 X97.686 Y100.751 E5.39319
G1 X97.493 Y101.085 E5.40886
G1 X97.235 Y101.372 E5.42454
G1 X96.923 Y101.599 E5.44021
G1 X96.570 Y101.756 E5.45588
G1 X96.193 Y101.836 E5.47156
G1 X95.807 Y101.836 E5.48723
G1 X95.430 Y101.756 E5.50291
G1 X95.077 Y101.599 E5.51858
G1 X94.765 Y101.372 E5.53425
G1 X94.507 Y101.085 E5.54993
G1 X94.313 Y100.750 E5.56563
G1 X94.193 Y100.372 E5.58176
G1 X94.160 Y100.060 E5.59450
G1 X93.827 Y99.795 F6000.000
G1 E3.59450 F1800.00000
G92 E0
G1 X125.828 Y100.013 F6000.000
G1 E2.00000 F1800.00000
G1 X125.873 Y99.550 E2.01891 F1200.000
G1 X126.014 Y99.116 E2.03744
G1 X126.242 Y98.722 E2.05589
G1 X126.546 Y98.385 E2.07434
G1 X126.913 Y98.118 E2.09280
G1 X127.328 Y97.933 E2.11125
G1 X127.773 Y97.838 E2.12970
G1 X128.227 Y97.838 E2.14816
G1 X128.672 Y97.933 E2.16661
G1 X129.087 Y98.118 E2.18507
G1 X129.454 Y98.385 E2.20352
G1 X129.758 Y98.722 E2.22197
G1 X129.979 Y99.104 E2.23989
G1 X130.126 Y99.546 E2.25880
G1 X130.173 Y100.000 E2.27732
G1 X130.126 Y100.452 E2.29578
G1 X129.986 Y100.884 E2.31423
G1 X129.758 Y101.278 E2.33269
G1 X129.454 Y101.615 E2.35114
G1 X129.087 Y101.882 E2.36959
G1 X128.672 Y102.067 E2.38805
G1 X128.227 Y102.162 E2.40650
G1 X127.773 Y102.162 E2.42495
G1 X127.328 Y102.067 E2.44341
G1 X126.913 Y101.882 E2.46186
G1 X126.546 Y101.615 E2.48032
G1 X126.242 Y101.278 E2.49877
G1 X126.014 Y100.884 E2.51722
G1 X125.874 Y100.452 E2.53568
G1 X125.834 Y100.073 E2.55115
G1 X126.155 Y100.012 F6000.000
G1 X126.194 Y99.617 E2.56729 F1200.000
G1 X126.314 Y99.249 E2.58299
G1 X126.507 Y98.915 E2.59866
G1 X126.765 Y98.628 E2.61433
G1 X127.077 Y98.401 E2.63001
G1 X127.430 Y98.244 E2.64568
G1 X127.807 Y98.164 E2.66136
G1 X128.193 Y98.164 E2.67703
G1 X128.570 Y98.244 E2.69270
G1 X128.923 Y98.401 E2.70838
G1 X129.235 Y98.628 E2.72405
G1 X129.493 Y98.915 E2.73972
G1 X129.680 Y99.239 E2.75490
G1 X129.806 Y99.616 E2.77104
G1 X129.846 Y100.000 E2.78674
G1 X129.806 Y100.384 E2.80241
G1 X129.686 Y100.751 E2.81808
G1 X129.493 Y101.085 E2.83376
G1 X129.235 Y101.372 E2.84943
G1 X128.923 Y101.599 E2.86511
G1 X128.570 Y101.756 E2.88078
G1 X128.193 Y101.836 E2.89645
G1 X127.807 Y101.836 E2.91213
G1 X127.430 Y101.756 E2.92780
G1 X127.077 Y101.599 E2.94347
G1 X126.765 Y101.372 E2.95915
G1 X126.507 Y101.085 E2.97482
G1 X126.314 Y100.751 E2.99050
G1 X126.194 Y100.384 E3.00617
G1 X126.161 Y100.072 E3.01891
G1 X125.817 Y99.803 F6000.000
G1 X124.521 Y94.479 F6000.000
G1 X99.479 Y94.479 E4.03591 F1200.000
G1 X99.479 Y104.479 E4.44204
G1 X81.895 Y104.479 E5.15620
G1 X81.536 Y104.464 E5.17080
G1 X81.122 Y104.520 E5.18774
G1 X80.725 Y104.647 E5.20468
G1 X80.357 Y104.843 E5.22161
G1 X80.018 Y105.109 E5.23911
G1 X79.750 Y105.413 E5.25556
G1 X79.545 Y105.747 E5.27149
G1 X78.564 Y107.707 E5.36050
G1 X78.381 Y107.916 E5.37181
G1 X78.147 Y108.111 E5.38415
G1 X77.872 Y108.274 E5.39713
G1 X77.602 Y108.384 E5.40901
G1 X77.304 Y108.454 E5.42141
G1 X76.980 Y108.479 E5.43463
G1 X71.038 Y108.479 E5.67594
G1 X70.468 Y108.395 E5.69934
G1 X69.893 Y108.258 E5.72337
G1 X69.331 Y108.071 E5.74741
G1 X68.788 Y107.835 E5.77144
G1 X68.275 Y107.557 E5.79516
G1 X67.911 Y107.300 E5.81325
G1 X67.594 Y106.998 E5.83103
G1 X67.325 Y106.653 E5.84881
G1 X67.109 Y106.272 E5.86658
G1 X66.951 Y105.864 E5.88436
G1 X66.856 Y105.437 E5.90214
G1 X66.823 Y105.000 E5.91992
G1 X66.856 Y104.563 E5.93770
G1 X66.951 Y104.136 E5.95548
G1 X67.109 Y103.728 E5.97325
G1 X67.325 Y103.347 E5.99103
G1 X67.594 Y103.002 E6.00881
G1 X67.911 Y102.700 E6.02659
G1 X68.284 Y102.437 E6.04515
G1 X78.235 Y96.466 E6.51645
G1 X83.104 Y94.437 E6.73067
G1 X92.104 Y94.437 E7.09619
G1 X99.104 Y91.521 E7.40417
G1 X124.896 Y91.521 E8.45165
G1 X133.178 Y94.971 E8.81604
G1 X133.178 Y104.479 E9.20219
G1 X124.521 Y104.479 E9.55379
G1 X124.521 Y94.539 E9.95748
G1 X124.195 Y94.805 F6000.000
G1 X99.805 Y94.805 E10.94803 F1200.000
G1 X99.805 Y104.805 E11.35416
G1 X81.888 Y104.805 E12.08182
G1 X81.551 Y104.791 E12.09554
G1 X81.195 Y104.839 E12.11013
G1 X80.853 Y104.949 E12.12472
G1 X80.535 Y105.117 E12.13931
G1 X80.243 Y105.347 E12.15442
G1 X80.013 Y105.607 E12.16853
G1 X79.829 Y105.905 E12.18274
G1 X78.837 Y107.890 E12.27288
G1 X78.609 Y108.150 E12.28692
G1 X78.336 Y108.378 E12.30134
G1 X78.018 Y108.566 E12.31638
G1 X77.701 Y108.695 E12.33026
G1 X77.355 Y108.777 E12.34471
G1 X76.992 Y108.805 E12.35947
G1 X71.014 Y108.805 E12.60226
G1 X70.406 Y108.715 E12.62721
G1 X69.803 Y108.571 E12.65240
G1 X69.215 Y108.375 E12.67759
G1 X68.646 Y108.128 E12.70278
G1 X68.103 Y107.834 E12.72785
G1 X67.704 Y107.552 E12.74770
G1 X67.352 Y107.217 E12.76743
G1 X67.053 Y106.834 E12.78716
G1 X66.814 Y106.412 E12.80689
G1 X66.639 Y105.958 E12.82661
G1 X66.533 Y105.484 E12.84634
G1 X66.497 Y105.000 E12.86607
G1 X66.533 Y104.516 E12.88580
G1 X66.639 Y104.042 E12.90553
G1 X66.814 Y103.588 E12.92526
G1 X67.053 Y103.166 E12.94498
G1 X67.352 Y102.783 E12.96471
G1 X67.704 Y102.448 E12.98444
G1 X68.106 Y102.164 E13.00446
G1 X78.088 Y96.175 E13.47722
G1 X83.039 Y94.112 E13.69504
G1 X92.039 Y94.112 E14.06056
G1 X99.039 Y91.195 E14.36854
G1 X124.961 Y91.195 E15.42132
G1 X133.504 Y94.754 E15.79717
G1 X133.504 Y104.788 E16.20467
G1 X133.112 Y104.805 E16.22060
G1 X124.195 Y104.805 E16.58274
G1 X124.195 Y94.865 E16.98643
G1 X124.195 Y94.405 F6000.000
G1 X124.161 Y94.292 F6000.000
M204 S750
G1 X121.578 Y91.708 E17.13572 F1200.000
G1 X121.114 Y91.708 E17.15464
G1 X123.698 Y94.292 E17.30393
G1 X123.235 Y94.292 E17.32286
G1 X120.651 Y91.708 E17.47214
G1 X120.188 Y91.708 E17.49107
G1 X122.771 Y94.292 E17.64035
G1 X122.308 Y94.292 E17.65928
G1 X119.725 Y91.708 E17.80856
G1 X119.261 Y91.708 E17.82749
G1 X121.845 Y94.292 E17.97677
G1 X121.381 Y94.292 E17.99570
G1 X118.798 Y91.708 E18.14498
G1 X118.335 Y91.708 E18.16391
G1 X120.918 Y94.292 E18.31319
G1 X120.455 Y94.292 E18.33212
G1 X117.871 Y91.708 E18.48140
G1 X117.408 Y91.708 E18.50033
G1 X119.992 Y94.292 E18.64961
G1 X119.528 Y94.292 E18.66854
G1 X116.945 Y91.708 E18.81782
G1 X116.482 Y91.708 E18.83675
G1 X119.065 Y94.292 E18.98604
G1 X118.602 Y94.292 E19.00496
G1 X116.018 Y91.708 E19.15425
G1 X115.555 Y91.708 E19.17318
G1 X118.138 Y94.292 E19.32246
G1 X117.675 Y94.292 E19.34139
G1 X115.092 Y91.708 E19.49067
G1 X114.628 Y91.708 E19.50960
G1 X117.212 Y94.292 E19.65888
G1 X116.749 Y94.292 E19.67781
G1 X114.165 Y91.708 E19.82709
G1 X113.702 Y91.708 E19.84602
G1 X116.285 Y94.292 E19.99530
G1 X115.822 Y94.292 E20.01423
G1 X113.239 Y91.708 E20.16351
G1 X112.775 Y91.708 E20.18244
G1 X115.359 Y94.292 E20.33172
G1 X114.895 Y94.292 E20.35065
G1 X112.312 Y91.708 E20.49993
G1 X111.849 Y91.708 E20.51886
G1 X114.432 Y94.292 E20.66814
G1 X113.969 Y94.292 E20.68707
G1 X111.385 Y91.708 E20.83636
G1 X110.922 Y91.708 E20.85528
G1 X113.506 Y94.292 E21.00457
G1 X113.042 Y94.292 E21.02350
G1 X110.459 Y91.708 E21.17278
G1 X109.996 Y91.708 E21.19171
G1 X112.579 Y94.292 E21.34099
G1 X112.116 Y94.292 E21.35992
G1 X109.532 Y91.708 E21.50920
