; generated by Slic3r 1.2.9 on 2018-10-13 at 15:10:21

; external perimeters extrusion width = 0.40mm
; perimeters extrusion width = 0.67mm
; infill extrusion width = 0.67mm
; solid infill extrusion width = 0.67mm
; top infill extrusion width = 0.26mm
; support material extrusion width = 0.40mm

M107
M190 S78 ; set bed temperature
M104 S245 ; set temperature
G28 ; home all axes
G1 Z5 F5000 ; lift nozzle

M109 S245 ; wait for temperature to be reached
G21 ; set units to millimeters
G90 ; use absolute coordinates
M82 ; use absolute distances for extrusion
G92 E0
G1 E-3.00000 F1800.00000
G92 E0
G1 Z0.300 F6000.000
G1 X72.450 Y70.295 F6000.000
G1 E3.00000 F1800.00000
M204 S2000
G1 X72.633 Y70.123 E3.01020 F1200.000
G1 X73.412 Y69.498 E3.05074
G1 X74.268 Y68.973 E3.09152
G1 X74.953 Y68.651 E3.12227
G1 X75.187 Y68.559 E3.13249
G1 X76.136 Y68.267 E3.17282
G1 X76.876 Y68.126 E3.20343
G1 X77.874 Y68.047 E3.24407
G1 X122.126 Y68.047 E5.04126
G1 X123.124 Y68.126 E5.08195
G1 X123.862 Y68.267 E5.11247
G1 X124.816 Y68.560 E5.15296
G1 X125.050 Y68.653 E5.16321
G1 X125.951 Y69.094 E5.20395
G1 X126.587 Y69.498 E5.23455
G1 X127.366 Y70.122 E5.27507
G1 X127.549 Y70.293 E5.28527
G1 X128.223 Y71.034 E5.32595
G1 X128.664 Y71.642 E5.35646
G1 X129.160 Y72.511 E5.39709
G1 X129.267 Y72.738 E5.40729
G1 X129.621 Y73.675 E5.44798
G1 X129.808 Y74.404 E5.47854
G1 X129.949 Y75.393 E5.51912
G1 X129.977 Y76.020 E5.54459
G1 X129.965 Y120.396 E7.34684
G1 X129.855 Y121.389 E7.38742
G1 X129.808 Y121.638 E7.39772
G1 X129.544 Y122.604 E7.43836
G1 X129.267 Y123.302 E7.46886
G1 X128.799 Y124.186 E7.50949
G1 X128.663 Y124.401 E7.51984
G1 X128.062 Y125.200 E7.56043
G1 X127.549 Y125.747 E7.59089
G1 X126.792 Y126.393 E7.63130
G1 X126.587 Y126.543 E7.64162
G1 X125.951 Y126.946 E7.67221
G1 X125.054 Y127.386 E7.71277
G1 X124.816 Y127.480 E7.72316
G1 X123.862 Y127.773 E7.76369
G1 X123.124 Y127.914 E7.79421
G1 X122.126 Y127.993 E7.83490
G1 X77.874 Y127.993 E9.63209
G1 X77.121 Y127.945 E9.66273
G1 X76.138 Y127.774 E9.70325
G1 X75.893 Y127.711 E9.71352
G1 X74.953 Y127.389 E9.75389
G1 X74.268 Y127.067 E9.78461
G1 X73.412 Y126.542 E9.82542
G1 X72.635 Y125.920 E9.86583
G1 X72.450 Y125.745 E9.87616
G1 X71.936 Y125.198 E9.90666
G1 X71.340 Y124.405 E9.94695
G1 X70.839 Y123.529 E9.98791
G1 X70.731 Y123.300 E9.99821
G1 X70.451 Y122.590 E10.02919
G1 X70.192 Y121.636 E10.06935
G1 X70.051 Y120.651 E10.10975
G1 X70.023 Y120.020 E10.13541
G1 X70.035 Y75.639 E11.93784
G1 X70.051 Y75.389 E11.94805
G1 X70.192 Y74.404 E11.98844
G1 X70.452 Y73.449 E12.02863
G1 X70.732 Y72.738 E12.05967
G1 X71.205 Y71.847 E12.10064
G1 X71.340 Y71.635 E12.11085
G1 X71.776 Y71.036 E12.14095
G1 X72.409 Y70.338 E12.17919
G1 X72.673 Y70.532 F6000.000
G1 X72.856 Y70.360 E12.18939 F1200.000
G1 X73.603 Y69.762 E12.22828
G1 X74.425 Y69.259 E12.26739
G1 X75.072 Y68.954 E12.29647
G1 X75.306 Y68.862 E12.30669
G1 X76.217 Y68.582 E12.34538
G1 X76.915 Y68.449 E12.37422
G1 X77.874 Y68.373 E12.41330
G1 X122.126 Y68.373 E14.21049
G1 X123.083 Y68.449 E14.24952
G1 X123.781 Y68.582 E14.27837
G1 X124.696 Y68.863 E14.31722
G1 X124.930 Y68.955 E14.32746
G1 X125.794 Y69.379 E14.36654
G1 X126.395 Y69.761 E14.39547
G1 X126.599 Y69.909 E14.40567
G1 X127.326 Y70.531 E14.44454
G1 X127.972 Y71.242 E14.48356
G1 X128.390 Y71.816 E14.51240
G1 X128.866 Y72.650 E14.55138
G1 X128.973 Y72.877 E14.56158
G1 X129.312 Y73.776 E14.60061
G1 X129.489 Y74.465 E14.62950
G1 X129.624 Y75.414 E14.66842
G1 X129.651 Y76.020 E14.69307
G1 X129.640 Y120.376 E16.49448
G1 X129.536 Y121.328 E16.53340
G1 X129.488 Y121.577 E16.54370
G1 X129.235 Y122.500 E16.58257
G1 X128.973 Y123.163 E16.61152
G1 X128.524 Y124.012 E16.65049
G1 X128.388 Y124.226 E16.66083
G1 X127.814 Y124.990 E16.69962
G1 X127.326 Y125.509 E16.72856
G1 X126.601 Y126.130 E16.76733
G1 X126.395 Y126.279 E16.77764
G1 X125.794 Y126.661 E16.80656
G1 X124.934 Y127.083 E16.84548
G1 X124.697 Y127.177 E16.85585
G1 X123.781 Y127.458 E16.89473
G1 X123.084 Y127.591 E16.92358
G1 X122.126 Y127.667 E16.96261
G1 X77.874 Y127.667 E18.75980
G1 X77.165 Y127.623 E18.78866
G1 X76.219 Y127.458 E18.82764
G1 X75.974 Y127.395 E18.83791
G1 X75.072 Y127.086 E18.87663
G1 X74.425 Y126.782 E18.90568
G1 X73.603 Y126.278 E18.94483
G1 X72.858 Y125.682 E18.98358
G1 X72.673 Y125.508 E18.99391
G1 X72.187 Y124.990 E19.02275
G1 X71.615 Y124.230 E19.06140
G1 X71.134 Y123.391 E19.10068
G1 X71.026 Y123.161 E19.11098
G1 X70.761 Y122.490 E19.14026
G1 X70.512 Y121.575 E19.17879
G1 X70.376 Y120.631 E19.21754
G1 X70.349 Y120.020 E19.24237
G1 X70.360 Y75.660 E21.04396
G1 X70.376 Y75.409 E21.05416
G1 X70.512 Y74.465 E21.09291
G1 X70.762 Y73.549 E21.13146
G1 X71.027 Y72.877 E21.16082
G1 X71.480 Y72.022 E21.20010
G1 X71.615 Y71.810 E21.21031
G1 X72.027 Y71.243 E21.23877
G1 X72.632 Y70.576 E21.27536
G1 X72.896 Y70.769 F6000.000
G1 X73.079 Y70.597 E21.28556 F1200.000
G1 X73.795 Y70.025 E21.32279
G1 X74.581 Y69.544 E21.36024
G1 X75.192 Y69.257 E21.38764
G1 X75.426 Y69.165 E21.39786
G1 X76.298 Y68.898 E21.43491
G1 X76.958 Y68.772 E21.46219
G1 X77.874 Y68.698 E21.49950
G1 X122.126 Y68.698 E23.29669
G1 X123.043 Y68.772 E23.33405
G1 X123.700 Y68.897 E23.36125
G1 X124.576 Y69.165 E23.39844
G1 X124.810 Y69.258 E23.40868
G1 X125.637 Y69.664 E23.44610
G1 X126.204 Y70.024 E23.47336
G1 X126.920 Y70.596 E23.51058
G1 X127.103 Y70.768 E23.52078
G1 X127.721 Y71.449 E23.55813
G1 X128.115 Y71.991 E23.58532
G1 X128.249 Y72.203 E23.59552
G1 X128.678 Y73.016 E23.63284
G1 X129.002 Y73.877 E23.67020
G1 X129.169 Y74.526 E23.69743
G1 X129.299 Y75.434 E23.73469
G1 X129.326 Y76.020 E23.75851
G1 X129.315 Y120.355 E25.55908
G1 X129.216 Y121.267 E25.59636
G1 X129.168 Y121.516 E25.60665
G1 X128.925 Y122.400 E25.64386
G1 X128.678 Y123.024 E25.67115
G1 X128.249 Y123.837 E25.70846
G1 X128.113 Y124.052 E25.71879
G1 X127.563 Y124.782 E25.75592
G1 X127.103 Y125.272 E25.78321
G1 X126.409 Y125.867 E25.82033
G1 X126.204 Y126.016 E25.83063
G1 X125.637 Y126.376 E25.85789
G1 X124.814 Y126.781 E25.89515
G1 X124.577 Y126.874 E25.90551
G1 X123.700 Y127.143 E25.94274
G1 X123.043 Y127.268 E25.96993
G1 X122.126 Y127.342 E26.00729
G1 X77.874 Y127.342 E27.80449
G1 X77.203 Y127.299 E27.83180
G1 X76.300 Y127.143 E27.86900
G1 X76.055 Y127.080 E27.87927
G1 X75.192 Y126.783 E27.91635
G1 X74.582 Y126.496 E27.94372
G1 X73.795 Y126.015 E27.98120
G1 X73.081 Y125.445 E28.01831
G1 X72.896 Y125.271 E28.02863
G1 X72.438 Y124.783 E28.05580
G1 X71.889 Y124.055 E28.09281
G1 X71.429 Y123.252 E28.13042
G1 X71.321 Y123.023 E28.14071
G1 X71.071 Y122.390 E28.16831
G1 X70.832 Y121.514 E28.20520
G1 X70.701 Y120.610 E28.24231
G1 X70.674 Y120.020 E28.26629
G1 X70.685 Y75.681 E30.06704
G1 X70.701 Y75.430 E30.07724
G1 X70.831 Y74.526 E30.11435
G1 X71.071 Y73.649 E30.15127
G1 X71.322 Y73.016 E30.17893
G1 X71.754 Y72.197 E30.21654
G1 X71.889 Y71.985 E30.22675
G1 X72.278 Y71.451 E30.25357
G1 X72.855 Y70.813 E30.28849
G1 E27.28849 F1800.00000
G92 E0
G1 X120.838 Y118.746 F6000.000
G1 E3.00000 F1800.00000
G1 X120.607 Y118.963 E3.01285 F1200.000
G1 X120.351 Y119.149 E3.02571
G1 X120.074 Y119.302 E3.03858
G1 X119.779 Y119.418 E3.05144
G1 X119.477 Y119.496 E3.06412
G1 X119.159 Y119.537 E3.07714
G1 X80.842 Y119.537 E4.63332
G1 X80.527 Y119.497 E4.64619
G1 X80.221 Y119.418 E4.65904
G1 X79.926 Y119.302 E4.67190
G1 X79.649 Y119.149 E4.68477
G1 X79.393 Y118.963 E4.69763
G1 X79.162 Y118.746 E4.71050
G1 X78.958 Y118.499 E4.72352
G1 X78.790 Y118.235 E4.73620
G1 X78.655 Y117.948 E4.74907
G1 X78.558 Y117.647 E4.76193
G1 X78.498 Y117.336 E4.77479
G1 X78.479 Y117.036 E4.78698
G1 X78.479 Y79.004 E6.33161
G1 X78.498 Y78.704 E6.34380
G1 X78.558 Y78.393 E6.35666
G1 X78.655 Y78.092 E6.36953
G1 X78.790 Y77.805 E6.38239
G1 X78.960 Y77.538 E6.39525
G1 X79.162 Y77.294 E6.40811
G1 X79.393 Y77.077 E6.42097
G1 X79.649 Y76.891 E6.43383
G1 X79.926 Y76.738 E6.44670
G1 X80.221 Y76.622 E6.45956
G1 X80.527 Y76.543 E6.47241
G1 X80.842 Y76.503 E6.48527
G1 X119.158 Y76.503 E8.04143
G1 X119.473 Y76.543 E8.05430
G1 X119.779 Y76.622 E8.06715
G1 X120.074 Y76.738 E8.08001
G1 X120.351 Y76.891 E8.09288
G1 X120.607 Y77.077 E8.10574
G1 X120.838 Y77.294 E8.11862
G1 X121.042 Y77.541 E8.13163
G1 X121.210 Y77.805 E8.14432
G1 X121.345 Y78.092 E8.15718
G1 X121.442 Y78.393 E8.17004
G1 X121.502 Y78.704 E8.18290
G1 X121.521 Y79.004 E8.19510
G1 X121.521 Y117.036 E9.73972
G1 X121.502 Y117.336 E9.75192
G1 X121.442 Y117.647 E9.76478
G1 X121.345 Y117.948 E9.77764
G1 X121.210 Y118.235 E9.79050
G1 X121.040 Y118.502 E9.80337
G1 X120.876 Y118.700 E9.81379
G1 X120.600 Y118.523 F6000.000
G1 X120.399 Y118.712 E9.82498 F1200.000
G1 X120.176 Y118.874 E9.83618
G1 X119.935 Y119.007 E9.84738
G1 X119.678 Y119.108 E9.85858
G1 X119.415 Y119.176 E9.86961
G1 X119.138 Y119.211 E9.88096
G1 X80.862 Y119.211 E11.43546
G1 X80.589 Y119.177 E11.44666
G1 X80.322 Y119.108 E11.45786
G1 X80.065 Y119.007 E11.46905
G1 X79.824 Y118.874 E11.48025
G1 X79.601 Y118.712 E11.49145
G1 X79.400 Y118.523 E11.50265
G1 X79.222 Y118.307 E11.51400
G1 X79.076 Y118.078 E11.52504
G1 X78.959 Y117.828 E11.53624
G1 X78.874 Y117.566 E11.54743
G1 X78.822 Y117.295 E11.55863
G1 X78.805 Y117.026 E11.56958
G1 X78.805 Y79.014 E13.11337
G1 X78.822 Y78.745 E13.12432
G1 X78.874 Y78.474 E13.13551
G1 X78.959 Y78.212 E13.14671
G1 X79.076 Y77.962 E13.15791
G1 X79.224 Y77.730 E13.16911
G1 X79.400 Y77.517 E13.18030
G1 X79.601 Y77.329 E13.19150
G1 X79.824 Y77.166 E13.20269
G1 X80.065 Y77.034 E13.21389
G1 X80.322 Y76.932 E13.22509
G1 X80.589 Y76.864 E13.23628
G1 X80.862 Y76.829 E13.24748
G1 X119.138 Y76.829 E14.80198
G1 X119.411 Y76.864 E14.81318
G1 X119.678 Y76.932 E14.82437
G1 X119.935 Y77.034 E14.83557
G1 X120.176 Y77.166 E14.84677
G1 X120.399 Y77.329 E14.85796
G1 X120.600 Y77.517 E14.86917
G1 X120.778 Y77.733 E14.88051
G1 X120.924 Y77.962 E14.89155
G1 X121.041 Y78.212 E14.90275
G1 X121.126 Y78.474 E14.91395
G1 X121.178 Y78.745 E14.92514
G1 X121.195 Y79.014 E14.93609
G1 X121.195 Y117.026 E16.47989
G1 X121.178 Y117.295 E16.49083
G1 X121.126 Y117.566 E16.50203
G1 X121.041 Y117.828 E16.51323
G1 X120.924 Y118.078 E16.52442
G1 X120.776 Y118.311 E16.53562
G1 X120.639 Y118.477 E16.54438
G1 X120.674 Y118.788 F6000.000
G1 X123.479 Y120.004 F6000.000
G1 X123.467 Y120.205 E16.55259 F1200.000
G1 X123.374 Y120.564 E16.56765
G1 X123.197 Y120.887 E16.58260
G1 X123.077 Y121.032 E16.59024
G1 X122.792 Y121.268 E16.60528
G1 X122.630 Y121.358 E16.61282
G1 X122.277 Y121.472 E16.62787
G1 X122.093 Y121.496 E16.63541
G1 X77.907 Y121.496 E18.42994
G1 X77.723 Y121.472 E18.43747
G1 X77.370 Y121.358 E18.45254
G1 X77.208 Y121.268 E18.46006
G1 X76.922 Y121.032 E18.47511
G1 X76.704 Y120.732 E18.49018
G1 X76.625 Y120.565 E18.49769
G1 X76.533 Y120.205 E18.51276
G1 X76.521 Y120.003 E18.52097
G1 X76.521 Y76.497 E20.28789
G1 X76.536 Y75.824 E20.31523
G1 X76.568 Y75.652 E20.32236
G1 X76.704 Y75.308 E20.33736
G1 X76.922 Y75.008 E20.35244
G1 X77.208 Y74.772 E20.36748
G1 X77.370 Y74.682 E20.37500
G1 X77.723 Y74.568 E20.39007
G1 X77.907 Y74.545 E20.39760
G1 X122.095 Y74.545 E22.19224
G1 X122.457 Y74.614 E22.20718
G1 X122.630 Y74.682 E22.21473
G1 X122.792 Y74.772 E22.22226
G1 X123.078 Y75.008 E22.23731
G1 X123.196 Y75.151 E22.24485
G1 X123.375 Y75.476 E22.25991
G1 X123.467 Y75.835 E22.27495
G1 X123.479 Y76.036 E22.28316
G1 X123.479 Y119.944 E24.06637
G1 X123.805 Y120.014 F6000.000
G1 X123.790 Y120.246 E24.07582 F1200.000
G1 X123.748 Y120.466 E24.08492
G1 X123.678 Y120.684 E24.09423
G1 X123.581 Y120.889 E24.10343
G1 X123.461 Y121.079 E24.11253
G1 X123.315 Y121.255 E24.12184
G1 X123.150 Y121.411 E24.13104
G1 X122.967 Y121.544 E24.14025
G1 X122.768 Y121.653 E24.14945
G1 X122.558 Y121.736 E24.15865
G1 X122.338 Y121.793 E24.16786
G1 X122.113 Y121.821 E24.17706
G1 X77.886 Y121.821 E25.97326
G1 X77.662 Y121.793 E25.98245
G1 X77.442 Y121.736 E25.99165
G1 X77.231 Y121.653 E26.00087
G1 X77.033 Y121.544 E26.01007
G1 X76.850 Y121.411 E26.01926
G1 X76.684 Y121.255 E26.02847
G1 X76.540 Y121.081 E26.03767
G1 X76.418 Y120.889 E26.04689
G1 X76.322 Y120.685 E26.05608
G1 X76.252 Y120.469 E26.06527
G1 X76.210 Y120.246 E26.07449
G1 X76.195 Y120.014 E26.08395
G1 X76.195 Y76.494 E27.85143
G1 X76.211 Y75.790 E27.88002
G1 X76.252 Y75.571 E27.88907
G1 X76.322 Y75.356 E27.89826
G1 X76.418 Y75.151 E27.90746
G1 X76.540 Y74.959 E27.91667
G1 X76.684 Y74.785 E27.92588
G1 X76.850 Y74.630 E27.93508
G1 X77.033 Y74.496 E27.94428
G1 X77.231 Y74.387 E27.95347
G1 X77.442 Y74.304 E27.96270
G1 X77.662 Y74.247 E27.97189
G1 X77.886 Y74.219 E27.98109
G1 X122.116 Y74.219 E29.77739
G1 X122.338 Y74.247 E29.78649
G1 X122.558 Y74.304 E29.79569
G1 X122.768 Y74.387 E29.80490
G1 X122.967 Y74.496 E29.81410
G1 X123.150 Y74.630 E29.82330
G1 X123.315 Y74.785 E29.83251
G1 X123.460 Y74.959 E29.84171
G1 X123.581 Y75.151 E29.85092
G1 X123.678 Y75.356 E29.86012
G1 X123.748 Y75.571 E29.86932
G1 X123.790 Y75.794 E29.87853
G1 X123.805 Y76.026 E29.88798
G1 X123.805 Y119.954 E31.67202
G1 X123.599 Y120.122 F6000.000
G1 X123.292 Y79.769 F6000.000
M204 S750
G1 X121.546 Y78.023 E31.77253 F1200.000
G1 X121.690 Y78.629 E31.79786
G1 X123.292 Y80.231 E31.89010
G1 X123.292 Y80.693 E31.90889
G1 X121.708 Y79.109 E32.00005
G1 X121.708 Y79.571 E32.01884
G1 X123.292 Y81.154 E32.10999
G1 X123.292 Y81.616 E32.12878
G1 X121.708 Y80.032 E32.21994
G1 X121.708 Y80.494 E32.23873
G1 X123.292 Y82.077 E32.32989
G1 X123.292 Y82.539 E32.34868
G1 X121.708 Y80.955 E32.43983
G1 X121.708 Y81.417 E32.45862
G1 X123.292 Y83.000 E32.54978
G1 X123.292 Y83.462 E32.56857
G1 X121.708 Y81.879 E32.65973
G1 X121.708 Y82.340 E32.67852
G1 X123.292 Y83.924 E32.76967
G1 X123.292 Y84.385 E32.78846
G1 X121.708 Y82.802 E32.87962
G1 X121.708 Y83.263 E32.89841
G1 X123.292 Y84.847 E32.98957
G1 X123.292 Y85.308 E33.00836
G1 X121.708 Y83.725 E33.09951
G1 X121.708 Y84.187 E33.11830
G1 X123.292 Y85.770 E33.20946
G1 X123.292 Y86.231 E33.22825
G1 X121.708 Y84.648 E33.31941
G1 X121.708 Y85.110 E33.33820
G1 X123.292 Y86.693 E33.42935
G1 X123.292 Y87.155 E33.44814
G1 X121.708 Y85.571 E33.53930
G1 X121.708 Y86.033 E33.55809
G1 X123.292 Y87.616 E33.64925
G1 X123.292 Y88.078 E33.66804
G1 X121.708 Y86.494 E33.75919
G1 X121.708 Y86.956 E33.77798
G1 X123.292 Y88.539 E33.86914
G1 X123.292 Y89.001 E33.88793
G1 X121.708 Y87.418 E33.97909
G1 X121.708 Y87.879 E33.99788
G1 X123.292 Y89.463 E34.08903
G1 X123.292 Y89.924 E34.10782
G1 X121.708 Y88.341 E34.19898
G1 X121.708 Y88.802 E34.21777
G1 X123.292 Y90.386 E34.30893
G1 X123.292 Y90.847 E34.32772
G1 X121.708 Y89.264 E34.41887
G1 X121.708 Y89.725 E34.43766
G1 X123.292 Y91.309 E34.52882
G1 X123.292 Y91.770 E34.54761
G1 X121.708 Y90.187 E34.63877
G1 X121.708 Y90.649 E34.65756
G1 X123.292 Y92.232 E34.74871
G1 X123.292 Y92.694 E34.76750
G1 X121.708 Y91.110 E34.85866
G1 X121.708 Y91.572 E34.87745
G1 X123.292 Y93.155 E34.96861
G1 X123.292 Y93.617 E34.98740
G1 X121.708 Y92.033 E35.07855
G1 X121.708 Y92.495 E35.09734
G1 X123.292 Y94.078 E35.18850
G1 X123.292 Y94.540 E35.20729
G1 X121.708 Y92.956 E35.29845
G1 X121.708 Y93.418 E35.31724
G1 X123.292 Y95.001 E35.40839
G1 X123.292 Y95.463 E35.42718
G1 X121.708 Y93.880 E35.51834
G1 X121.708 Y94.341 E35.53713
G1 X123.292 Y95.925 E35.62829
G1 X123.292 Y96.386 E35.64708
G1 X121.708 Y94.803 E35.73823
G1 X121.708 Y95.264 E35.75702
G1 X123.292 Y96.848 E35.84818
G1 X123.292 Y97.309 E35.86697
G1 X121.708 Y95.726 E35.95813
G1 X121.708 Y96.188 E35.97692
G1 X123.292 Y97.771 E36.06807
G1 X123.292 Y98.232 E36.08686
G1 X121.708 Y96.649 E36.17802
G1 X121.708 Y97.111 E36.19681
G1 X123.292 Y98.694 E36.28797
G1 X123.292 Y99.156 E36.30675
G1 X121.708 Y97.572 E36.39791
G1 X121.708 Y98.034 E36.41670
G1 X123.292 Y99.617 E36.50786
G1 X123.292 Y100.079 E36.52665
G1 X121.708 Y98.495 E36.61780
G1 X121.708 Y98.957 E36.63659
G1 X123.292 Y100.540 E36.72775
G1 X123.292 Y101.002 E36.74654
G1 X121.708 Y99.419 E36.83770
G1 X121.708 Y99.880 E36.85649
G1 X123.292 Y101.464 E36.94764
G1 X123.292 Y101.925 E36.96643
G1 X121.708 Y100.342 E37.05759
G1 X121.708 Y100.803 E37.07638
G1 X123.292 Y102.387 E37.16754
G1 X123.292 Y102.848 E37.18633
G1 X121.708 Y101.265 E37.27748
G1 X121.708 Y101.726 E37.29627
G1 X123.292 Y103.310 E37.38743
