; generated by Slic3r 1.2.9 on 2018-09-30 at 14:22:10

; external perimeters extrusion width = 0.40mm
; perimeters extrusion width = 0.67mm
; infill extrusion width = 0.67mm
; solid infill extrusion width = 0.67mm
; top infill extrusion width = 0.26mm

M107
M190 S78 ; set bed temperature
M104 S245 ; set temperature
G28 ; home all axes
G1 Z5 F5000 ; lift nozzle

M109 S245 ; wait for temperature to be reached
G21 ; set units to millimeters
G90 ; use absolute coordinates
M82 ; use absolute distances for extrusion
G92 E0
G1 E-2.00000 F1800.00000
G92 E0
G1 Z0.300 F6000.000
G1 X75.543 Y72.005 F6000.000
G1 E2.00000 F1800.00000
M204 S2000
G1 X77.269 Y70.677 E2.08843 F1200.000
G1 X79.984 Y70.023 E2.20188
G1 X119.984 Y69.999 E3.82640
G1 X122.126 Y70.395 E3.91483
G1 X123.983 Y71.531 E4.00327
G1 X125.311 Y73.257 E4.09170
G1 X125.965 Y75.972 E4.20514
G1 X125.989 Y115.972 E5.82966
G1 X125.593 Y118.114 E5.91810
G1 X124.457 Y119.971 E6.00653
G1 X122.731 Y121.299 E6.09497
G1 X120.016 Y121.953 E6.20841
G1 X80.016 Y121.977 E7.83293
G1 X77.874 Y121.581 E7.92137
G1 X76.017 Y120.445 E8.00980
G1 X74.689 Y118.719 E8.09824
G1 X74.035 Y116.004 E8.21168
G1 X74.011 Y76.004 E9.83620
G1 X74.407 Y73.862 E9.92463
G1 X75.511 Y72.056 E10.01063
G1 X75.865 Y72.135 F6000.000
G1 X77.576 Y70.889 E10.09660 F1200.000
G1 X79.985 Y70.349 E10.19686
G1 X119.985 Y70.325 E11.82138
G1 X122.064 Y70.720 E11.90736
G1 X123.853 Y71.853 E11.99333
G1 X125.099 Y73.564 E12.07930
G1 X125.639 Y75.973 E12.17956
G1 X125.663 Y115.973 E13.80408
G1 X125.268 Y118.052 E13.89005
G1 X124.135 Y119.841 E13.97602
G1 X122.424 Y121.087 E14.06199
G1 X120.015 Y121.627 E14.16225
G1 X80.015 Y121.651 E15.78678
G1 X77.936 Y121.256 E15.87275
G1 X76.147 Y120.123 E15.95872
G1 X74.901 Y118.412 E16.04469
G1 X74.361 Y116.003 E16.14495
G1 X74.337 Y76.003 E17.76947
G1 X74.732 Y73.924 E17.85544
G1 X75.833 Y72.186 E17.93898
G1 X76.186 Y72.271 F6000.000
G1 X77.881 Y71.109 E18.02241 F1200.000
G1 X79.985 Y70.674 E18.10967
G1 X119.985 Y70.650 E19.73420
G1 X122.001 Y71.045 E19.81763
G1 X123.717 Y72.174 E19.90107
G1 X124.879 Y73.869 E19.98450
G1 X125.314 Y75.973 E20.07176
G1 X125.338 Y115.973 E21.69628
G1 X124.943 Y117.989 E21.77972
G1 X123.814 Y119.705 E21.86315
G1 X122.119 Y120.867 E21.94659
G1 X120.015 Y121.302 E22.03385
G1 X80.015 Y121.326 E23.65837
G1 X77.999 Y120.931 E23.74181
G1 X76.283 Y119.802 E23.82524
G1 X75.121 Y118.107 E23.90868
G1 X74.686 Y116.003 E23.99594
G1 X74.662 Y76.003 E25.62046
G1 X75.057 Y73.987 E25.70389
G1 X76.153 Y72.321 E25.78489
G1 E23.78489 F1800.00000
G92 E0
G1 X113.490 Y108.679 F6000.000
G1 E2.00000 F1800.00000
G1 X112.438 Y109.710 E2.05982 F1200.000
G1 X111.308 Y110.654 E2.11961
G1 X110.109 Y111.508 E2.17942
G1 X108.842 Y112.262 E2.23926
G1 X107.522 Y112.912 E2.29905
G1 X106.153 Y113.457 E2.35888
G1 X104.745 Y113.890 E2.41868
G1 X103.309 Y114.211 E2.47845
G1 X101.850 Y114.416 E2.53829
G1 X100.381 Y114.505 E2.59808
G1 X98.907 Y114.476 E2.65793
G1 X97.442 Y114.332 E2.71772
G1 X95.993 Y114.071 E2.77752
G1 X94.569 Y113.694 E2.83735
G1 X93.180 Y113.207 E2.89712
G1 X91.832 Y112.612 E2.95695
G1 X90.538 Y111.910 E3.01677
G1 X89.303 Y111.107 E3.07658
G1 X88.136 Y110.210 E3.13635
G1 X87.043 Y109.222 E3.19619
G1 X86.017 Y108.131 E3.25704
G1 X85.111 Y107.002 E3.31581
G1 X84.282 Y105.786 E3.37559
G1 X83.553 Y104.506 E3.43541
G1 X82.928 Y103.172 E3.49523
G1 X82.411 Y101.793 E3.55503
G1 X82.006 Y100.377 E3.61484
G1 X81.714 Y98.933 E3.67471
G1 X81.539 Y97.472 E3.73447
G1 X81.479 Y96.000 E3.79427
G1 X81.537 Y94.529 E3.85408
G1 X81.712 Y93.066 E3.91393
G1 X82.002 Y91.621 E3.97376
G1 X82.405 Y90.205 E4.03355
G1 X82.919 Y88.827 E4.09332
G1 X83.543 Y87.491 E4.15318
G1 X84.270 Y86.211 E4.21296
G1 X85.097 Y84.993 E4.27276
G1 X86.016 Y83.843 E4.33257
G1 X87.025 Y82.770 E4.39236
G1 X88.118 Y81.780 E4.45225
G1 X89.283 Y80.883 E4.51196
G1 X90.517 Y80.079 E4.57180
G1 X91.812 Y79.375 E4.63165
G1 X93.158 Y78.778 E4.69145
G1 X94.547 Y78.288 E4.75126
G1 X95.971 Y77.911 E4.81109
G1 X97.420 Y77.648 E4.87091
G1 X98.939 Y77.499 E4.93290
G1 X100.356 Y77.471 E4.99047
G1 X101.825 Y77.558 E5.05024
G1 X103.284 Y77.761 E5.11006
G1 X104.723 Y78.078 E5.16988
G1 X106.131 Y78.510 E5.22970
G1 X107.499 Y79.054 E5.28948
G1 X108.822 Y79.702 E5.34932
G1 X110.088 Y80.455 E5.40915
G1 X111.290 Y81.305 E5.46892
G1 X112.421 Y82.249 E5.52879
G1 X113.473 Y83.278 E5.58855
G1 X114.440 Y84.390 E5.64839
G1 X115.315 Y85.573 E5.70814
G1 X116.095 Y86.824 E5.76802
G1 X116.772 Y88.131 E5.82779
G1 X117.344 Y89.489 E5.88764
G1 X117.805 Y90.887 E5.94742
G1 X118.153 Y92.319 E6.00727
G1 X118.387 Y93.771 E6.06702
G1 X118.507 Y95.239 E6.12682
G1 X118.507 Y96.712 E6.18666
G1 X118.391 Y98.180 E6.24643
G1 X118.159 Y99.635 E6.30628
G1 X117.811 Y101.065 E6.36604
G1 X117.361 Y102.444 E6.42496
G1 X116.782 Y103.823 E6.48570
G1 X116.097 Y105.148 E6.54629
G1 X115.329 Y106.382 E6.60533
G1 X114.467 Y107.551 E6.66431
G1 X113.529 Y108.634 E6.72250
G1 X113.252 Y108.456 F6000.000
G1 X112.219 Y109.469 E6.78126 F1200.000
G1 X111.109 Y110.396 E6.84000
G1 X109.931 Y111.235 E6.89876
G1 X108.687 Y111.976 E6.95753
G1 X107.389 Y112.614 E7.01628
G1 X106.045 Y113.150 E7.07506
G1 X104.662 Y113.575 E7.13381
G1 X103.251 Y113.890 E7.19253
G1 X101.818 Y114.092 E7.25132
G1 X100.374 Y114.179 E7.31005
G1 X98.927 Y114.151 E7.36885
G1 X97.487 Y114.009 E7.42759
G1 X96.064 Y113.753 E7.48633
G1 X94.665 Y113.383 E7.54510
G1 X93.300 Y112.903 E7.60383
G1 X91.976 Y112.319 E7.66262
G1 X90.704 Y111.630 E7.72137
G1 X89.491 Y110.841 E7.78012
G1 X88.345 Y109.960 E7.83885
G1 X87.271 Y108.989 E7.89763
G1 X86.263 Y107.917 E7.95742
G1 X85.373 Y106.808 E8.01515
G1 X84.558 Y105.613 E8.07388
G1 X83.843 Y104.356 E8.13265
G1 X83.228 Y103.046 E8.19142
G1 X82.721 Y101.691 E8.25017
G1 X82.322 Y100.300 E8.30892
G1 X82.035 Y98.881 E8.36773
G1 X81.863 Y97.446 E8.42645
G1 X81.805 Y96.000 E8.48520
G1 X81.861 Y94.555 E8.54395
G1 X82.033 Y93.117 E8.60274
G1 X82.318 Y91.698 E8.66153
G1 X82.715 Y90.307 E8.72027
G1 X83.220 Y88.953 E8.77899
G1 X83.833 Y87.640 E8.83779
G1 X84.546 Y86.383 E8.89652
G1 X85.359 Y85.186 E8.95527
G1 X86.263 Y84.056 E9.01403
G1 X87.253 Y83.003 E9.07276
G1 X88.327 Y82.030 E9.13159
G1 X89.471 Y81.149 E9.19025
G1 X90.684 Y80.358 E9.24905
G1 X91.956 Y79.667 E9.30784
G1 X93.278 Y79.081 E9.36658
G1 X94.643 Y78.599 E9.42535
G1 X96.042 Y78.230 E9.48412
G1 X97.465 Y77.971 E9.54287
G1 X98.958 Y77.824 E9.60381
G1 X100.350 Y77.797 E9.66034
G1 X101.793 Y77.882 E9.71906
G1 X103.227 Y78.082 E9.77784
G1 X104.640 Y78.393 E9.83660
G1 X106.023 Y78.818 E9.89536
G1 X107.367 Y79.352 E9.95410
G1 X108.667 Y79.988 E10.01289
G1 X109.910 Y80.728 E10.07165
G1 X111.091 Y81.563 E10.13038
G1 X112.203 Y82.491 E10.18920
G1 X113.236 Y83.502 E10.24790
G1 X114.186 Y84.594 E10.30668
G1 X115.045 Y85.756 E10.36539
G1 X115.812 Y86.985 E10.42421
G1 X116.477 Y88.269 E10.48293
G1 X117.039 Y89.604 E10.54173
G1 X117.492 Y90.976 E10.60045
G1 X117.833 Y92.383 E10.65925
G1 X118.064 Y93.811 E10.71796
G1 X118.181 Y95.252 E10.77670
G1 X118.181 Y96.700 E10.83549
G1 X118.068 Y98.141 E10.89421
G1 X117.839 Y99.570 E10.95300
G1 X117.498 Y100.975 E11.01172
G1 X117.055 Y102.330 E11.06959
G1 X116.487 Y103.685 E11.12926
G1 X115.814 Y104.987 E11.18880
G1 X115.060 Y106.200 E11.24679
G1 X114.213 Y107.348 E11.30473
G1 X113.291 Y108.410 E11.36186
G1 X113.362 Y108.840 F6000.000
G1 E9.36186 F1800.00000
G92 E0
G1 X85.315 Y81.323 F6000.000
G1 E2.00000 F1800.00000
G1 X84.929 Y81.620 E2.01976 F1200.000
G1 X84.477 Y81.809 E2.03969
G1 X83.990 Y81.873 E2.05963
G1 X83.507 Y81.809 E2.07942
G1 X83.054 Y81.623 E2.09928
G1 X82.666 Y81.326 E2.11916
G1 X82.365 Y80.937 E2.13914
G1 X82.179 Y80.483 E2.15905
G1 X82.115 Y79.998 E2.17893
G1 X82.179 Y79.515 E2.19872
G1 X82.365 Y79.062 E2.21858
G1 X82.663 Y78.673 E2.23851
G1 X83.053 Y78.374 E2.25848
G1 X83.519 Y78.185 E2.27889
G1 X83.988 Y78.123 E2.29810
G1 X84.473 Y78.187 E2.31798
G1 X84.926 Y78.373 E2.33784
G1 X85.315 Y78.671 E2.35777
G1 X85.613 Y79.059 E2.37765
G1 X85.801 Y79.511 E2.39754
G1 X85.865 Y79.998 E2.41748
G1 X85.801 Y80.481 E2.43727
G1 X85.615 Y80.935 E2.45717
G1 X85.352 Y81.276 E2.47468
G1 X85.083 Y81.091 F6000.000
G1 X84.765 Y81.336 E2.49099 F1200.000
G1 X84.391 Y81.492 E2.50743
G1 X83.990 Y81.545 E2.52387
G1 X83.591 Y81.492 E2.54020
G1 X83.218 Y81.339 E2.55659
G1 X82.897 Y81.093 E2.57298
G1 X82.650 Y80.772 E2.58945
G1 X82.496 Y80.399 E2.60586
G1 X82.443 Y79.998 E2.62227
G1 X82.496 Y79.599 E2.63860
G1 X82.649 Y79.226 E2.65499
G1 X82.895 Y78.905 E2.67141
G1 X83.216 Y78.659 E2.68784
G1 X83.603 Y78.502 E2.70478
G1 X83.988 Y78.451 E2.72056
G1 X84.389 Y78.504 E2.73697
G1 X84.762 Y78.657 E2.75337
G1 X85.083 Y78.903 E2.76978
G1 X85.328 Y79.224 E2.78618
G1 X85.484 Y79.597 E2.80260
G1 X85.537 Y79.998 E2.81904
G1 X85.484 Y80.397 E2.83537
G1 X85.330 Y80.770 E2.85178
G1 X85.120 Y81.044 E2.86579
G1 X85.170 Y81.482 F6000.000
G1 E0.86579 F1800.00000
G92 E0
G1 X84.010 Y110.123 F6000.000
G1 E2.00000 F1800.00000
G1 X84.493 Y110.187 E2.01979 F1200.000
G1 X84.946 Y110.373 E2.03965
G1 X85.335 Y110.671 E2.05958
G1 X85.633 Y111.059 E2.07945
G1 X85.821 Y111.511 E2.09935
G1 X85.885 Y111.998 E2.11928
G1 X85.821 Y112.481 E2.13907
G1 X85.635 Y112.934 E2.15893
G1 X85.337 Y113.323 E2.17886
G1 X84.949 Y113.621 E2.19873
G1 X84.497 Y113.809 E2.21862
G1 X84.012 Y113.873 E2.23847
G1 X83.527 Y113.809 E2.25835
G1 X83.074 Y113.623 E2.27821
G1 X82.685 Y113.325 E2.29814
G1 X82.387 Y112.937 E2.31802
G1 X82.199 Y112.485 E2.33791
G1 X82.135 Y111.998 E2.35785
G1 X82.199 Y111.515 E2.37764
G1 X82.385 Y111.062 E2.39750
G1 X82.683 Y110.673 E2.41743
G1 X83.073 Y110.374 E2.43740
G1 X83.539 Y110.185 E2.45782
G1 X83.951 Y110.131 E2.47468
G1 X84.010 Y110.451 F6000.000
G1 X84.409 Y110.504 E2.49101 F1200.000
G1 X84.782 Y110.657 E2.50740
G1 X85.103 Y110.903 E2.52381
G1 X85.348 Y111.224 E2.54021
G1 X85.504 Y111.597 E2.55663
G1 X85.557 Y111.998 E2.57307
G1 X85.504 Y112.397 E2.58940
G1 X85.351 Y112.770 E2.60579
G1 X85.105 Y113.091 E2.62220
G1 X84.784 Y113.336 E2.63860
G1 X84.411 Y113.492 E2.65502
G1 X84.012 Y113.545 E2.67137
G1 X83.611 Y113.492 E2.68778
G1 X83.238 Y113.339 E2.70418
G1 X82.917 Y113.093 E2.72059
G1 X82.672 Y112.772 E2.73699
G1 X82.516 Y112.399 E2.75341
G1 X82.463 Y111.998 E2.76985
G1 X82.516 Y111.599 E2.78618
G1 X82.669 Y111.226 E2.80257
G1 X82.915 Y110.905 E2.81898
G1 X83.236 Y110.659 E2.83542
G1 X83.623 Y110.502 E2.85236
G1 X83.951 Y110.459 E2.86578
G1 X84.225 Y110.114 F6000.000
G1 E0.86578 F1800.00000
G92 E0
G1 X114.135 Y111.978 F6000.000
G1 E2.00000 F1800.00000
G1 X114.199 Y111.495 E2.01979 F1200.000
G1 X114.385 Y111.042 E2.03965
G1 X114.682 Y110.654 E2.05953
G1 X115.073 Y110.352 E2.07961
G1 X115.540 Y110.165 E2.10003
G1 X116.010 Y110.103 E2.11928
G1 X116.493 Y110.167 E2.13908
G1 X116.946 Y110.353 E2.15893
G1 X117.335 Y110.651 E2.17886
G1 X117.633 Y111.039 E2.19874
G1 X117.821 Y111.491 E2.21862
G1 X117.885 Y111.976 E2.23847
G1 X117.821 Y112.461 E2.25835
G1 X117.635 Y112.914 E2.27822
G1 X117.337 Y113.303 E2.29814
G1 X116.949 Y113.601 E2.31802
G1 X116.497 Y113.789 E2.33791
G1 X116.010 Y113.853 E2.35785
G1 X115.527 Y113.789 E2.37764
G1 X115.073 Y113.603 E2.39755
G1 X114.685 Y113.303 E2.41749
G1 X114.388 Y112.917 E2.43725
G1 X114.199 Y112.465 E2.45718
G1 X114.143 Y112.037 E2.47468
G1 X114.463 Y111.978 F6000.000
G1 X114.516 Y111.579 E2.49101 F1200.000
G1 X114.669 Y111.206 E2.50740
G1 X114.915 Y110.885 E2.52380
G1 X115.236 Y110.637 E2.54030
G1 X115.623 Y110.482 E2.55723
G1 X116.010 Y110.431 E2.57307
G1 X116.409 Y110.484 E2.58940
G1 X116.782 Y110.637 E2.60579
G1 X117.103 Y110.883 E2.62221
G1 X117.348 Y111.204 E2.63860
G1 X117.504 Y111.577 E2.65503
G1 X117.557 Y111.976 E2.67138
G1 X117.504 Y112.377 E2.68779
G1 X117.351 Y112.750 E2.70418
G1 X117.105 Y113.071 E2.72060
G1 X116.784 Y113.316 E2.73700
G1 X116.411 Y113.472 E2.75342
G1 X116.010 Y113.525 E2.76985
G1 X115.611 Y113.472 E2.78618
G1 X115.238 Y113.318 E2.80259
G1 X114.917 Y113.071 E2.81904
G1 X114.672 Y112.753 E2.83536
G1 X114.516 Y112.379 E2.85179
G1 X114.471 Y112.037 E2.86579
G1 X114.126 Y111.763 F6000.000
G1 E0.86579 F1800.00000
G92 E0
G1 X115.990 Y81.853 F6000.000
G1 E2.00000 F1800.00000
G1 X115.507 Y81.789 E2.01979 F1200.000
G1 X115.053 Y81.603 E2.03970
G1 X114.666 Y81.304 E2.05959
G1 X114.365 Y80.917 E2.07946
G1 X114.179 Y80.463 E2.09941
G1 X114.115 Y79.978 E2.11929
G1 X114.179 Y79.495 E2.13908
G1 X114.365 Y79.042 E2.15893
G1 X114.662 Y78.654 E2.17882
G1 X115.053 Y78.352 E2.19889
G1 X115.520 Y78.165 E2.21932
G1 X115.988 Y78.103 E2.23847
G1 X116.473 Y78.167 E2.25836
G1 X116.926 Y78.353 E2.27822
G1 X117.315 Y78.651 E2.29815
G1 X117.613 Y79.039 E2.31802
G1 X117.801 Y79.491 E2.33791
G1 X117.865 Y79.976 E2.35776
G1 X117.801 Y80.461 E2.37764
G1 X117.615 Y80.915 E2.39755
G1 X117.315 Y81.303 E2.41749
G1 X116.929 Y81.600 E2.43725
G1 X116.477 Y81.789 E2.45718
G1 X116.049 Y81.845 E2.47468
G1 X115.990 Y81.525 F6000.000
G1 X115.591 Y81.472 E2.49101 F1200.000
G1 X115.218 Y81.318 E2.50742
G1 X114.897 Y81.071 E2.52386
G1 X114.650 Y80.753 E2.54024
G1 X114.496 Y80.379 E2.55667
G1 X114.443 Y79.978 E2.57308
G1 X114.496 Y79.579 E2.58941
G1 X114.649 Y79.206 E2.60580
G1 X114.895 Y78.885 E2.62220
G1 X115.216 Y78.637 E2.63870
G1 X115.603 Y78.482 E2.65563
G1 X115.988 Y78.431 E2.67138
G1 X116.389 Y78.484 E2.68780
G1 X116.762 Y78.637 E2.70419
G1 X117.083 Y78.883 E2.72061
G1 X117.328 Y79.204 E2.73700
G1 X117.484 Y79.577 E2.75342
G1 X117.537 Y79.976 E2.76977
G1 X117.484 Y80.377 E2.78619
G1 X117.330 Y80.750 E2.80260
G1 X117.083 Y81.071 E2.81905
G1 X116.765 Y81.316 E2.83536
G1 X116.391 Y81.472 E2.85180
G1 X116.049 Y81.517 E2.86580
G1 X115.775 Y81.862 F6000.000
G1 E0.86580 F1800.00000
G92 E0
G1 X119.468 Y76.497 F6000.000
G1 E2.00000 F1800.00000
G1 X119.491 Y115.456 E3.58223 F1200.000
G1 X80.532 Y115.479 E5.16447
G1 X80.509 Y76.520 E6.74670
G1 X119.408 Y76.497 E8.32650
G1 X119.793 Y76.171 F6000.000
G1 X119.817 Y115.781 E9.93519 F1200.000
G1 X80.207 Y115.805 E11.54387
G1 X80.183 Y76.195 E13.15255
G1 X119.733 Y76.171 E14.75880
G1 X119.593 Y76.518 F6000.000
G1 X119.280 Y76.863 F6000.000
M204 S750
G1 X119.102 Y76.685 E14.76908 F1200.000
G1 X118.640 Y76.685 E14.78795
G1 X119.280 Y77.326 E14.82494
G1 X119.281 Y77.789 E14.84383
G1 X118.177 Y76.685 E14.90752
G1 X117.715 Y76.686 E14.92639
G1 X119.281 Y78.252 E15.01679
G1 X119.281 Y78.715 E15.03568
G1 X117.252 Y76.686 E15.15278
G1 X116.790 Y76.686 E15.17165
G1 X119.282 Y79.178 E15.31546
G1 X119.282 Y79.641 E15.33435
G1 X116.327 Y76.686 E15.50486
G1 X115.865 Y76.687 E15.52373
G1 X119.282 Y80.104 E15.72094
G1 X119.282 Y80.567 E15.73983
G1 X117.919 Y79.203 E15.81853
G1 X118.039 Y79.786 E15.84281
G1 X119.283 Y81.030 E15.91458
G1 X119.283 Y81.493 E15.93348
G1 X118.013 Y80.223 E16.00675
G1 X117.925 Y80.598 E16.02245
G1 X119.283 Y81.956 E16.10082
G1 X119.284 Y82.419 E16.11972
G1 X117.790 Y80.926 E16.20588
G1 X117.599 Y81.197 E16.21943
G1 X119.284 Y82.882 E16.31667
G1 X119.284 Y83.345 E16.33556
G1 X117.388 Y81.449 E16.44498
G1 X117.127 Y81.650 E16.45845
G1 X119.284 Y83.808 E16.58297
G1 X119.285 Y84.271 E16.60186
G1 X116.834 Y81.820 E16.74329
G1 X116.508 Y81.957 E16.75773
G1 X119.285 Y84.734 E16.91801
G1 X119.285 Y85.197 E16.93691
G1 X116.107 Y82.019 E17.12033
G1 X115.630 Y82.005 E17.13979
G1 X119.285 Y85.660 E17.35074
G1 X119.286 Y86.123 E17.36963
G1 X114.968 Y81.805 E17.61885
M204 S2000
G1 X114.162 Y80.999 F6000.000
M204 S750
G1 X109.853 Y76.690 E17.86751 F1200.000
G1 X110.316 Y76.690 E17.88638
G1 X113.963 Y80.338 E18.09689
G1 X113.950 Y79.861 E18.11633
G1 X110.778 Y76.690 E18.29936
G1 X111.241 Y76.690 E18.31823
G1 X114.012 Y79.461 E18.47819
G1 X114.147 Y79.133 E18.49266
G1 X111.703 Y76.689 E18.63372
G1 X112.165 Y76.689 E18.65259
G1 X114.317 Y78.841 E18.77678
G1 X114.518 Y78.579 E18.79025
G1 X112.628 Y76.689 E18.89932
G1 X113.090 Y76.688 E18.91820
G1 X114.770 Y78.368 E19.01514
G1 X115.041 Y78.177 E19.02869
G1 X113.553 Y76.688 E19.11459
G1 X114.015 Y76.688 E19.13346
G1 X115.372 Y78.044 E19.21174
G1 X115.744 Y77.954 E19.22739
G1 X114.478 Y76.688 E19.30049
G1 X114.940 Y76.687 E19.31936
G1 X116.182 Y77.929 E19.39105
G1 X116.765 Y78.050 E19.41535
G1 X115.403 Y76.687 E19.49401
