; generated by Slic3r 1.2.9 on 2018-10-07 at 09:52:43

; external perimeters extrusion width = 0.40mm
; perimeters extrusion width = 0.67mm
; infill extrusion width = 0.67mm
; solid infill extrusion width = 0.67mm
; top infill extrusion width = 0.26mm

M107
M190 S78 ; set bed temperature
M104 S245 ; set temperature
G28 ; home all axes
G1 Z5 F5000 ; lift nozzle

M109 S245 ; wait for temperature to be reached
G21 ; set units to millimeters
G90 ; use absolute coordinates
M82 ; use absolute distances for extrusion
G92 E0
G1 E-2.00000 F1800.00000
G92 E0
G1 Z0.300 F6000.000
G1 X68.033 Y59.672 F6000.000
G1 E2.00000 F1800.00000
M204 S2000
G1 X68.497 Y59.186 E2.02728 F1200.000
G1 X69.486 Y58.264 E2.08217
G1 X70.002 Y57.838 E2.10933
G1 X71.092 Y57.041 E2.16417
G1 X71.652 Y56.680 E2.19124
G1 X72.828 Y56.017 E2.24607
G1 X73.432 Y55.723 E2.27336
G1 X74.679 Y55.204 E2.32821
G1 X75.310 Y54.984 E2.35536
G1 X76.609 Y54.616 E2.41019
G1 X77.258 Y54.473 E2.43719
G1 X78.592 Y54.260 E2.49207
G1 X79.261 Y54.193 E2.51937
G1 X80.832 Y54.136 E2.58321
G1 X117.864 Y54.136 E4.08718
G1 X118.312 Y54.154 E4.10539
G1 X119.658 Y54.261 E4.16024
G1 X120.318 Y54.353 E4.18731
G1 X121.643 Y54.618 E4.24218
G1 X122.293 Y54.788 E4.26947
G1 X123.576 Y55.208 E4.32430
G1 X124.195 Y55.452 E4.35132
G1 X125.420 Y56.020 E4.40617
G1 X126.009 Y56.337 E4.43330
G1 X127.159 Y57.046 E4.48817
G1 X127.709 Y57.432 E4.51547
G1 X128.766 Y58.272 E4.57030
G1 X129.263 Y58.717 E4.59739
G1 X137.762 Y67.324 E5.08867
G1 X138.219 Y67.848 E5.11691
G1 X138.379 Y68.056 E5.12756
G1 X139.132 Y69.366 E5.18890
G1 X139.230 Y69.606 E5.19943
G1 X139.601 Y71.009 E5.25839
G1 X139.635 Y71.269 E5.26904
G1 X139.683 Y72.002 E5.29886
G1 X139.683 Y139.213 E8.02850
G1 X139.635 Y139.945 E8.05830
G1 X139.601 Y140.206 E8.06897
G1 X139.230 Y141.609 E8.12794
G1 X139.132 Y141.849 E8.13847
G1 X138.379 Y143.158 E8.19980
G1 X138.219 Y143.366 E8.21046
G1 X137.185 Y144.400 E8.26983
G1 X136.977 Y144.560 E8.28049
G1 X135.670 Y145.312 E8.34175
G1 X135.428 Y145.411 E8.35235
G1 X134.025 Y145.782 E8.41132
G1 X133.765 Y145.816 E8.42197
G1 X133.032 Y145.864 E8.45179
G1 X82.002 Y145.864 E10.52427
G1 X81.266 Y145.816 E10.55420
G1 X80.748 Y145.748 E10.57542
G1 X79.337 Y145.372 E10.63475
G1 X78.855 Y145.174 E10.65592
G1 X77.571 Y144.437 E10.71605
G1 X77.154 Y144.119 E10.73735
G1 X76.238 Y143.239 E10.78890
G1 X61.621 Y125.636 E11.71817
G1 X60.597 Y123.783 E11.80414
G1 X60.317 Y122.026 E11.87642
G1 X60.317 Y78.813 E13.63142
G1 X60.646 Y76.912 E13.70977
G1 X65.409 Y63.577 E14.28486
G1 X66.018 Y62.360 E14.34014
G1 X66.763 Y61.234 E14.39497
G1 X67.161 Y60.703 E14.42193
G1 X67.995 Y59.717 E14.47434
G1 X68.282 Y59.882 F6000.000
G1 X68.719 Y59.424 E14.50005 F1200.000
G1 X69.708 Y58.503 E14.55494
G1 X70.194 Y58.101 E14.58054
G1 X71.284 Y57.304 E14.63538
G1 X71.812 Y56.964 E14.66089
G1 X72.988 Y56.301 E14.71571
G1 X73.557 Y56.023 E14.74143
G1 X74.804 Y55.504 E14.79629
G1 X75.399 Y55.297 E14.82186
G1 X76.698 Y54.929 E14.87670
G1 X77.309 Y54.794 E14.90214
G1 X78.644 Y54.581 E14.95702
G1 X79.274 Y54.519 E14.98275
G1 X80.832 Y54.462 E15.04607
G1 X117.864 Y54.462 E16.55004
G1 X118.286 Y54.478 E16.56720
G1 X119.632 Y54.585 E16.62205
G1 X120.254 Y54.672 E16.64756
G1 X121.579 Y54.937 E16.70243
G1 X122.192 Y55.098 E16.72815
G1 X123.475 Y55.518 E16.78298
G1 X124.058 Y55.748 E16.80844
G1 X125.283 Y56.316 E16.86329
G1 X125.838 Y56.614 E16.88886
G1 X126.988 Y57.323 E16.94372
G1 X127.506 Y57.687 E16.96945
G1 X128.563 Y58.527 E17.02429
G1 X129.032 Y58.946 E17.04981
G1 X137.530 Y67.553 E17.54106
G1 X137.961 Y68.047 E17.56767
G1 X138.121 Y68.255 E17.57833
G1 X138.830 Y69.489 E17.63613
G1 X138.928 Y69.729 E17.64666
G1 X139.279 Y71.051 E17.70223
G1 X139.357 Y72.002 E17.74096
G1 X139.357 Y139.213 E20.47060
G1 X139.279 Y140.163 E20.50934
G1 X138.928 Y141.486 E20.56491
G1 X138.830 Y141.726 E20.57544
G1 X138.121 Y142.960 E20.63323
G1 X137.961 Y143.168 E20.64389
G1 X136.987 Y144.142 E20.69984
G1 X136.779 Y144.302 E20.71050
G1 X135.546 Y145.011 E20.76824
G1 X135.305 Y145.109 E20.77882
G1 X133.982 Y145.459 E20.83440
G1 X133.032 Y145.538 E20.87313
G1 X82.002 Y145.538 E22.94561
G1 X81.309 Y145.493 E22.97382
G1 X80.791 Y145.425 E22.99504
G1 X79.460 Y145.071 E23.05096
G1 X78.978 Y144.873 E23.07212
G1 X77.768 Y144.178 E23.12878
G1 X77.352 Y143.860 E23.15008
G1 X76.489 Y143.031 E23.19867
G1 X61.871 Y125.428 E24.12794
G1 X60.888 Y123.624 E24.21137
G1 X60.643 Y122.026 E24.27705
G1 X60.643 Y78.813 E26.03205
G1 X60.953 Y77.022 E26.10589
G1 X65.716 Y63.687 E26.68097
G1 X66.290 Y62.540 E26.73307
G1 X67.035 Y61.414 E26.78790
G1 X67.410 Y60.913 E26.81331
G1 X68.243 Y59.928 E26.86572
G1 E24.86572 F1800.00000
G92 E0
G1 X91.324 Y71.197 F6000.000
G1 E2.00000 F1800.00000
G1 X82.284 Y71.197 E2.36712 F1200.000
G1 X82.545 Y70.060 E2.41448
G1 X82.615 Y69.093 E2.45387
G1 X82.538 Y68.127 E2.49321
G1 X82.317 Y67.183 E2.53258
G1 X81.949 Y66.274 E2.57242
G1 X81.461 Y65.449 E2.61134
G1 X80.847 Y64.699 E2.65071
G1 X80.126 Y64.051 E2.69008
G1 X79.315 Y63.519 E2.72947
G1 X78.434 Y63.117 E2.76882
G1 X77.501 Y62.851 E2.80820
G1 X76.540 Y62.731 E2.84755
G1 X75.570 Y62.756 E2.88694
G1 X74.659 Y62.921 E2.92454
G1 X74.513 Y62.543 E2.94098
G1 X75.544 Y61.900 E2.99031
G1 X76.708 Y61.358 E3.04248
G1 X77.929 Y60.957 E3.09464
G1 X79.203 Y60.707 E3.14740
G1 X80.470 Y60.611 E3.19900
G1 X81.754 Y60.668 E3.25117
G1 X83.021 Y60.880 E3.30335
G1 X84.253 Y61.241 E3.35552
G1 X85.433 Y61.749 E3.40767
G1 X86.544 Y62.393 E3.45985
G1 X87.570 Y63.168 E3.51204
G1 X88.495 Y64.059 E3.56421
G1 X89.306 Y65.055 E3.61638
G1 X89.991 Y66.141 E3.66853
G1 X90.542 Y67.302 E3.72073
G1 X90.949 Y68.521 E3.77289
G1 X91.207 Y69.778 E3.82504
G1 X91.319 Y71.137 E3.88041
G1 X91.335 Y71.597 F6000.000
G1 X91.523 Y73.481 F6000.000
G1 X82.494 Y73.481 E4.24711 F1200.000
G1 X82.494 Y74.423 E4.28534
G1 X82.479 Y74.423 E4.28592
G1 X82.479 Y94.523 E5.10223
G1 X91.523 Y94.523 E5.46951
G1 X91.523 Y92.843 E5.53774
G1 X96.183 Y95.174 E5.74938
G1 X96.321 Y95.268 E5.75615
G1 X96.404 Y95.369 E5.76146
G1 X96.456 Y95.489 E5.76677
G1 X96.479 Y95.656 E5.77363
G1 X96.479 Y95.966 E5.78623
G1 X96.459 Y96.126 E5.79276
G1 X96.413 Y96.238 E5.79770
G1 X96.337 Y96.337 E5.80275
G1 X96.238 Y96.413 E5.80780
G1 X96.126 Y96.459 E5.81274
G1 X95.966 Y96.479 E5.81927
G1 X82.036 Y96.479 E6.38501
G1 X81.619 Y96.425 E6.40209
G1 X81.263 Y96.279 E6.41770
G1 X80.957 Y96.045 E6.43335
G1 X80.723 Y95.739 E6.44900
G1 X80.577 Y95.383 E6.46461
G1 X80.523 Y94.966 E6.48169
G1 X80.534 Y71.162 E7.44844
G1 X80.794 Y70.469 E7.47850
G1 X80.944 Y69.601 E7.51425
G1 X80.929 Y68.721 E7.55003
G1 X80.750 Y67.857 E7.58584
G1 X80.413 Y67.044 E7.62159
G1 X79.931 Y66.306 E7.65738
G1 X79.319 Y65.673 E7.69316
G1 X78.600 Y65.163 E7.72894
G1 X77.799 Y64.797 E7.76471
G1 X76.944 Y64.587 E7.80047
G1 X76.064 Y64.540 E7.83626
G1 X75.191 Y64.658 E7.87203
G1 X74.355 Y64.936 E7.90781
G1 X73.585 Y65.366 E7.94362
G1 X72.910 Y65.931 E7.97939
G1 X72.326 Y66.644 E8.01682
G1 X67.935 Y78.961 E8.54789
G1 X66.634 Y78.498 E8.60398
G1 X71.200 Y65.713 E9.15534
G1 X71.893 Y64.665 E9.20636
G1 X72.726 Y63.681 E9.25870
G1 X73.669 Y62.802 E9.31107
G1 X74.133 Y62.463 E9.33442
G1 X74.452 Y63.289 E9.37039
G1 X75.604 Y63.081 E9.41791
G1 X76.523 Y63.057 E9.45528
G1 X77.436 Y63.171 E9.49262
G1 X78.321 Y63.423 E9.52998
G1 X79.157 Y63.805 E9.56732
G1 X79.927 Y64.310 E9.60470
G1 X80.611 Y64.925 E9.64206
G1 X81.193 Y65.636 E9.67941
G1 X81.656 Y66.419 E9.71633
G1 X82.005 Y67.282 E9.75416
G1 X82.215 Y68.178 E9.79151
G1 X82.288 Y69.094 E9.82885
G1 X82.222 Y70.012 E9.86622
G1 X81.876 Y71.523 E9.92916
G1 X95.966 Y71.523 E10.50141
G1 X96.126 Y71.543 E10.50794
G1 X96.238 Y71.589 E10.51288
G1 X96.337 Y71.665 E10.51793
G1 X96.413 Y71.764 E10.52298
G1 X96.459 Y71.876 E10.52792
G1 X96.479 Y72.036 E10.53445
G1 X96.479 Y72.346 E10.54705
G1 X96.456 Y72.513 E10.55391
G1 X96.404 Y72.633 E10.55922
G1 X96.321 Y72.734 E10.56453
G1 X96.183 Y72.828 E10.57130
G1 X91.523 Y75.159 E10.78294
G1 X91.523 Y73.541 E10.84866
G1 X91.197 Y73.807 F6000.000
G1 X82.819 Y73.807 E11.18891 F1200.000
G1 X82.819 Y74.748 E11.22714
G1 X82.805 Y74.748 E11.22772
G1 X82.805 Y94.197 E12.01758
G1 X91.197 Y94.197 E12.35841
G1 X91.197 Y92.316 E12.43482
G1 X96.349 Y94.892 E12.66876
G1 X96.543 Y95.025 E12.67832
G1 X96.684 Y95.197 E12.68734
G1 X96.773 Y95.399 E12.69632
G1 X96.805 Y95.633 E12.70591
G1 X96.805 Y95.987 E12.72028
G1 X96.776 Y96.210 E12.72939
G1 X96.697 Y96.402 E12.73783
G1 X96.569 Y96.569 E12.74638
G1 X96.402 Y96.697 E12.75494
G1 X96.210 Y96.776 E12.76337
G1 X95.987 Y96.805 E12.77248
G1 X82.015 Y96.805 E13.33995
G1 X81.535 Y96.742 E13.35962
G1 X81.100 Y96.563 E13.37870
G1 X80.725 Y96.277 E13.39786
G1 X80.439 Y95.902 E13.41703
G1 X80.260 Y95.467 E13.43611
G1 X80.197 Y94.987 E13.45578
G1 X80.197 Y73.003 E14.34864
G1 X80.209 Y71.102 E14.42583
G1 X80.478 Y70.383 E14.45700
G1 X80.617 Y69.576 E14.49026
G1 X80.604 Y68.757 E14.52356
G1 X80.437 Y67.954 E14.55686
G1 X80.123 Y67.197 E14.59014
G1 X79.675 Y66.510 E14.62344
G1 X79.106 Y65.921 E14.65673
G1 X78.437 Y65.446 E14.69003
G1 X77.691 Y65.106 E14.72330
G1 X76.896 Y64.910 E14.75658
G1 X76.077 Y64.866 E14.78987
G1 X75.265 Y64.976 E14.82317
G1 X74.487 Y65.235 E14.85645
G1 X73.771 Y65.635 E14.88977
G1 X73.143 Y66.161 E14.92305
G1 X72.614 Y66.807 E14.95694
G1 X68.132 Y79.377 E15.49894
G1 X66.217 Y78.695 E15.58148
G1 X70.907 Y65.566 E16.14768
G1 X71.632 Y64.469 E16.20109
G1 X72.490 Y63.456 E16.25499
G1 X73.462 Y62.551 E16.30894
G1 X74.533 Y61.767 E16.36284
G1 X75.689 Y61.116 E16.41673
G1 X76.914 Y60.606 E16.47064
G1 X78.191 Y60.244 E16.52454
G1 X79.502 Y60.035 E16.57846
G1 X80.828 Y59.982 E16.63235
G1 X82.136 Y60.086 E16.68562
G1 X83.454 Y60.348 E16.74019
G1 X84.715 Y60.761 E16.79407
G1 X85.919 Y61.319 E16.84798
G1 X87.049 Y62.016 E16.90190
G1 X88.088 Y62.842 E16.95580
G1 X89.023 Y63.784 E17.00971
G1 X89.839 Y64.831 E17.06363
G1 X90.526 Y65.966 E17.11752
G1 X91.075 Y67.175 E17.17144
G1 X91.476 Y68.440 E17.22533
G1 X91.725 Y69.744 E17.27926
G1 X91.828 Y71.197 E17.33840
G1 X95.987 Y71.197 E17.50733
G1 X96.210 Y71.226 E17.51644
G1 X96.402 Y71.305 E17.52487
G1 X96.569 Y71.433 E17.53343
G1 X96.697 Y71.600 E17.54198
G1 X96.776 Y71.792 E17.55042
G1 X96.805 Y72.015 E17.55953
G1 X96.805 Y72.369 E17.57390
G1 X96.773 Y72.603 E17.58350
G1 X96.684 Y72.805 E17.59247
G1 X96.543 Y72.977 E17.60149
G1 X96.349 Y73.110 E17.61105
G1 X91.197 Y75.686 E17.84499
G1 X91.197 Y73.867 E17.91889
G1 X91.197 Y73.407 F6000.000
G1 X91.588 Y71.360 F6000.000
G1 X91.467 Y69.778 E17.98331 F1200.000
G1 X91.205 Y68.458 E18.03797
G1 X90.789 Y67.196 E18.09193
G1 X90.279 Y66.097 E18.14116
G1 X89.969 Y65.583 E18.16552
G1 X89.969 Y65.583 F6000.000
G1 X89.537 Y64.898 E18.23784 F1200.000
G1 X88.709 Y63.872 E18.35549
G1 X87.889 Y63.063 E18.45828
G1 X86.875 Y62.264 E18.57354
G1 X85.773 Y61.590 E18.68883
G1 X84.600 Y61.051 E18.80403
G1 X83.373 Y60.654 E18.91911
G1 X83.080 Y60.583 E18.94604
G1 X82.092 Y60.402 E19.03571
G1 X81.777 Y60.364 E19.06404
G1 X80.822 Y60.305 E19.14946
G1 X80.457 Y60.304 E19.18204
G1 X79.534 Y60.357 E19.26451
G1 X79.153 Y60.402 E19.29874
G1 X78.261 Y60.561 E19.37963
G1 X77.842 Y60.662 E19.41808
G1 X77.021 Y60.913 E19.49470
G1 X76.587 Y61.075 E19.53607
G1 X75.831 Y61.408 E19.60980
G1 X75.390 Y61.635 E19.65408
G1 X74.709 Y62.040 E19.72484
G1 X74.261 Y62.342 E19.77301
G1 E17.77301 F1800.00000
G92 E0
G1 X78.462 Y64.855 F6000.000
G1 E2.00000 F1800.00000
M204 S750
G1 X76.910 Y63.303 E2.08980 F1200.000
G1 X76.389 Y63.246 E2.11125
G1 X77.704 Y64.562 E2.18737
G1 X77.089 Y64.410 E2.21330
G1 X75.937 Y63.258 E2.27998
G1 X75.495 Y63.280 E2.29809
G1 X76.591 Y64.376 E2.36154
G1 X76.105 Y64.354 E2.38147
G1 X75.102 Y63.351 E2.43949
G1 X74.709 Y63.422 E2.45582
G1 X75.696 Y64.409 E2.51293
G1 X75.287 Y64.464 E2.52980
G1 X73.759 Y62.936 E2.61822
G1 X73.519 Y63.160 E2.63165
G1 X74.926 Y64.567 E2.71309
G1 X74.578 Y64.683 E2.72810
G1 X73.279 Y63.383 E2.80330
G1 X73.046 Y63.615 E2.81672
G1 X74.243 Y64.812 E2.88599
G1 X73.946 Y64.978 E2.89994
G1 X72.814 Y63.847 E2.96542
G1 X72.591 Y64.087 E2.97885
G1 X73.648 Y65.144 E3.04001
G1 X73.374 Y65.335 E3.05365
G1 X72.378 Y64.339 E3.11127
G1 X72.166 Y64.590 E3.12474
G1 X73.122 Y65.546 E3.18007
G1 X72.869 Y65.758 E3.19354
G1 X71.963 Y64.851 E3.24598
G1 X71.778 Y65.131 E3.25968
G1 X72.648 Y66.000 E3.30999
G1 X72.439 Y66.255 E3.32348
G1 X71.594 Y65.410 E3.37238
G1 X71.409 Y65.689 E3.38608
G1 X72.230 Y66.510 E3.43357
G1 X72.082 Y66.826 E3.44786
G1 X71.271 Y66.015 E3.49479
G1 X71.149 Y66.357 E3.50965
G1 X71.960 Y67.168 E3.55659
G1 X71.838 Y67.510 E3.57145
G1 X71.027 Y66.699 E3.61840
G1 X70.905 Y67.040 E3.63326
G1 X71.717 Y67.852 E3.68022
G1 X71.595 Y68.194 E3.69508
G1 X70.783 Y67.382 E3.74205
G1 X70.661 Y67.724 E3.75690
G1 X71.473 Y68.536 E3.80389
G1 X71.351 Y68.878 E3.81874
G1 X70.539 Y68.066 E3.86574
G1 X70.416 Y68.408 E3.88059
G1 X71.229 Y69.220 E3.92759
G1 X71.107 Y69.562 E3.94245
G1 X70.294 Y68.750 E3.98946
G1 X70.172 Y69.091 E4.00431
G1 X70.985 Y69.904 E4.05133
G1 X70.863 Y70.246 E4.06619
G1 X70.050 Y69.433 E4.11322
G1 X69.928 Y69.775 E4.12807
G1 X70.741 Y70.588 E4.17511
G1 X70.619 Y70.930 E4.18996
G1 X69.806 Y70.117 E4.23701
G1 X69.684 Y70.459 E4.25186
G1 X70.497 Y71.272 E4.29892
G1 X70.375 Y71.614 E4.31378
G1 X69.562 Y70.801 E4.36084
G1 X69.440 Y71.142 E4.37569
G1 X70.253 Y71.956 E4.42277
G1 X70.131 Y72.298 E4.43763
G1 X69.318 Y71.484 E4.48471
G1 X69.196 Y71.826 E4.49956
G1 X70.009 Y72.640 E4.54666
G1 X69.888 Y72.982 E4.56151
G1 X69.073 Y72.168 E4.60862
G1 X68.951 Y72.510 E4.62347
G1 X69.766 Y73.324 E4.67058
G1 X69.644 Y73.666 E4.68544
G1 X68.829 Y72.852 E4.73256
G1 X68.707 Y73.193 E4.74741
G1 X69.522 Y74.008 E4.79454
G1 X69.400 Y74.350 E4.80940
G1 X68.585 Y73.535 E4.85654
G1 X68.463 Y73.877 E4.87139
G1 X69.278 Y74.692 E4.91854
G1 X69.156 Y75.034 E4.93340
G1 X68.341 Y74.219 E4.98056
G1 X68.219 Y74.561 E4.99541
G1 X69.034 Y75.376 E5.04258
G1 X68.912 Y75.718 E5.05743
G1 X68.097 Y74.902 E5.10461
G1 X67.975 Y75.244 E5.11946
G1 X68.790 Y76.060 E5.16665
G1 X68.668 Y76.402 E5.18150
G1 X67.853 Y75.586 E5.22870
G1 X67.730 Y75.928 E5.24355
G1 X68.546 Y76.744 E5.29076
G1 X68.424 Y77.086 E5.30561
G1 X67.608 Y76.270 E5.35283
G1 X67.486 Y76.612 E5.36768
G1 X68.302 Y77.428 E5.41490
G1 X68.180 Y77.770 E5.42976
G1 X67.364 Y76.953 E5.47699
G1 X67.242 Y77.295 E5.49184
G1 X68.059 Y78.112 E5.53909
M204 S2000
G1 X67.937 Y78.454 F6000.000
M204 S750
G1 X67.120 Y77.637 E5.58634 F1200.000
G1 X66.998 Y77.979 E5.60119
G1 X67.651 Y78.632 E5.63897
M204 S2000
G1 E3.63897 F1800.00000
G92 E0
G1 X81.020 Y70.197 F6000.000
G1 E2.00000 F1800.00000
M204 S750
G1 X81.818 Y70.995 E2.04617 F1200.000
G1 X81.905 Y70.618 E2.06201
G1 X81.089 Y69.801 E2.10923
G1 X81.129 Y69.378 E2.12665
G1 X81.991 Y70.240 E2.17654
G1 X82.051 Y69.836 E2.19325
G1 X81.121 Y68.906 E2.24708
G1 X81.068 Y68.389 E2.26835
G1 X82.082 Y69.404 E2.32706
G1 X82.082 Y68.939 E2.34607
G1 X80.946 Y67.804 E2.41177
M204 S2000
G1 X80.650 Y67.043 F6000.000
M204 S750
G1 X82.042 Y68.435 E2.49232 F1200.000
G1 X81.930 Y67.859 E2.51632
G1 X77.468 Y63.398 E2.77448
G1 X78.117 Y63.583 E2.80209
G1 X81.738 Y67.203 E3.01159
M204 S2000
G1 X81.341 Y66.343 F6000.000
M204 S750
G1 X78.957 Y63.959 E3.14952 F1200.000
M204 S2000
G1 E1.14952 F1800.00000
G92 E0
G1 X91.076 Y73.294 F6000.000
G1 E2.00000 F1800.00000
M204 S750
G1 X89.492 Y71.710 E2.09162 F1200.000
G1 X89.028 Y71.710 E2.11060
G1 X90.612 Y73.294 E2.20222
G1 X90.148 Y73.294 E2.22120
G1 X88.564 Y71.710 E2.31282
G1 X88.100 Y71.710 E2.33180
G1 X89.684 Y73.294 E2.42342
G1 X89.220 Y73.294 E2.44240
G1 X87.637 Y71.710 E2.53402
G1 X87.173 Y71.710 E2.55300
G1 X88.756 Y73.294 E2.64462
G1 X88.292 Y73.294 E2.66360
G1 X86.709 Y71.710 E2.75522
G1 X86.245 Y71.710 E2.77420
G1 X87.828 Y73.294 E2.86582
G1 X87.364 Y73.294 E2.88481
G1 X85.781 Y71.710 E2.97642
G1 X85.317 Y71.710 E2.99541
G1 X86.900 Y73.294 E3.08703
G1 X86.436 Y73.294 E3.10601
G1 X84.853 Y71.710 E3.19763
G1 X84.389 Y71.710 E3.21661
G1 X85.973 Y73.294 E3.30823
G1 X85.509 Y73.294 E3.32721
G1 X83.925 Y71.710 E3.41883
G1 X83.461 Y71.710 E3.43781
G1 X85.045 Y73.294 E3.52943
G1 X84.581 Y73.294 E3.54841
