; generated by Slic3r 1.2.9 on 2018-09-29 at 23:02:59

; external perimeters extrusion width = 0.40mm
; perimeters extrusion width = 0.67mm
; infill extrusion width = 0.67mm
; solid infill extrusion width = 0.67mm
; top infill extrusion width = 0.26mm

M107
M190 S78 ; set bed temperature
M104 S240 ; set temperature
G28 ; home all axes
G1 Z5 F5000 ; lift nozzle

M109 S240 ; wait for temperature to be reached
G21 ; set units to millimeters
G90 ; use absolute coordinates
M82 ; use absolute distances for extrusion
G92 E0
G1 E-2.00000 F1800.00000
G92 E0
G1 Z0.300 F6000.000
G1 X57.530 Y68.209 F6000.000
G1 E2.00000 F1800.00000
M204 S2000
G1 X58.247 Y67.689 E2.03599 F1200.000
G1 X58.515 Y67.524 E2.04879
G1 X59.304 Y67.122 E2.08476
G1 X59.594 Y67.002 E2.09750
G1 X60.438 Y66.728 E2.13351
G1 X60.743 Y66.654 E2.14627
G1 X61.619 Y66.516 E2.18228
G1 X62.375 Y66.474 E2.21304
G1 X137.625 Y66.474 E5.26917
G1 X138.068 Y66.491 E5.28719
G1 X138.381 Y66.516 E5.29993 F1200.000
G1 X139.257 Y66.655 E5.33595
G1 X139.562 Y66.728 E5.34870
G1 X140.406 Y67.002 E5.38471
G1 X140.697 Y67.123 E5.39753
G1 X141.486 Y67.525 E5.43348
G1 X141.755 Y67.690 E5.44631
G1 X142.471 Y68.210 E5.48223
G1 X142.709 Y68.414 E5.49498
G1 X143.336 Y69.041 E5.53099
G1 X143.542 Y69.281 E5.54383
G1 X144.062 Y69.997 E5.57976
G1 X144.226 Y70.264 E5.59250
G1 X144.628 Y71.054 E5.62852
G1 X144.748 Y71.344 E5.64127
G1 X145.022 Y72.188 E5.67727
G1 X145.097 Y72.498 E5.69024
G1 X145.234 Y73.369 E5.72604
G1 X145.276 Y74.125 E5.75680
G1 X145.276 Y122.875 E7.73669
G1 X144.880 Y124.954 E7.82266
G1 X143.746 Y126.742 E7.90863
G1 X142.034 Y127.987 E7.99460
G1 X139.625 Y128.526 E8.09486
G1 X88.875 Y128.526 E10.15597
G1 X86.796 Y128.130 E10.24194
G1 X84.350 Y126.261 E10.36694
G1 X56.232 Y88.686 E12.27292
G1 X55.775 Y87.986 E12.30692
G1 X55.372 Y87.195 E12.34294
G1 X55.252 Y86.906 E12.35568
G1 X54.978 Y86.062 E12.39169
G1 X54.906 Y85.762 E12.40425
G1 X54.766 Y84.881 E12.44046
G1 X54.741 Y84.567 E12.45324
G1 X54.724 Y84.125 E12.47122
G1 X54.724 Y74.125 E12.87735
G1 X54.766 Y73.369 E12.90812
G1 X54.905 Y72.493 E12.94413
G1 X54.978 Y72.187 E12.95689
G1 X55.252 Y71.344 E12.99289
G1 X55.372 Y71.054 E13.00563
G1 X55.775 Y70.264 E13.04165
G1 X55.939 Y69.996 E13.05441
G1 X56.460 Y69.279 E13.09041
G1 X56.664 Y69.041 E13.10316
G1 X57.291 Y68.414 E13.13917
G1 X57.484 Y68.248 E13.14950
G1 X57.741 Y68.457 F6000.000
G1 X58.417 Y67.966 E13.18342 F1200.000
G1 X58.685 Y67.802 E13.19621
G1 X59.429 Y67.423 E13.23011
G1 X59.719 Y67.303 E13.24286
G1 X60.514 Y67.044 E13.27679
G1 X60.819 Y66.971 E13.28955
G1 X61.644 Y66.840 E13.32348
G1 X62.375 Y66.799 E13.35320
G1 X137.625 Y66.799 E16.40933
G1 X138.043 Y66.816 E16.42631
G1 X138.356 Y66.840 E16.43906 F1200.000
G1 X139.181 Y66.971 E16.47300
G1 X139.486 Y67.044 E16.48575
G1 X140.281 Y67.303 E16.51969
G1 X140.573 Y67.423 E16.53250
G1 X141.316 Y67.802 E16.56638
G1 X141.585 Y67.967 E16.57920
G1 X142.259 Y68.457 E16.61306
G1 X142.498 Y68.661 E16.62580
G1 X143.089 Y69.252 E16.65974
G1 X143.294 Y69.492 E16.67257
G1 X143.784 Y70.167 E16.70643
G1 X143.948 Y70.434 E16.71918
G1 X144.327 Y71.179 E16.75312
G1 X144.447 Y71.469 E16.76586
G1 X144.706 Y72.264 E16.79979
G1 X144.780 Y72.574 E16.81275
G1 X144.910 Y73.394 E16.84649
G1 X144.951 Y74.125 E16.87621
G1 X144.951 Y122.875 E18.85610
G1 X144.554 Y124.891 E18.93953
G1 X143.425 Y126.607 E19.02297
G1 X141.729 Y127.767 E19.10640
G1 X139.625 Y128.201 E19.19366
G1 X88.875 Y128.201 E21.25478
G1 X86.859 Y127.804 E21.33821
G1 X84.611 Y126.066 E21.45363
G1 X56.493 Y88.491 E23.35962
G1 X56.052 Y87.816 E23.39238
G1 X55.673 Y87.071 E23.42633
G1 X55.553 Y86.781 E23.43908
G1 X55.294 Y85.986 E23.47301
G1 X55.222 Y85.686 E23.48557
G1 X55.090 Y84.856 E23.51970
G1 X55.066 Y84.542 E23.53248
G1 X55.049 Y84.125 E23.54943
G1 X55.049 Y74.125 E23.95556
G1 X55.090 Y73.394 E23.98529
G1 X55.221 Y72.569 E24.01922
G1 X55.294 Y72.263 E24.03198
G1 X55.553 Y71.469 E24.06590
G1 X55.673 Y71.179 E24.07865
G1 X56.052 Y70.434 E24.11259
G1 X56.216 Y70.167 E24.12535
G1 X56.707 Y69.491 E24.15928
G1 X56.911 Y69.252 E24.17202
G1 X57.502 Y68.661 E24.20596
G1 X57.695 Y68.496 E24.21629
G1 E22.21629 F1800.00000
G92 E0
G1 X123.271 Y122.354 F6000.000
G1 E2.00000 F1800.00000
G1 X123.271 Y119.396 E2.12016 F1200.000
G1 X132.482 Y119.396 E2.49426
G1 X136.146 Y115.732 E2.70469
G1 X136.146 Y79.268 E4.18560
G1 X132.482 Y75.604 E4.39602
G1 X96.018 Y75.604 E5.87693
G1 X92.354 Y79.268 E6.08736
G1 X92.354 Y115.732 E7.56826
G1 X96.018 Y119.396 E7.77869
G1 X105.229 Y119.396 E8.15279
G1 X105.229 Y122.354 E8.27295
G1 X89.396 Y122.354 E8.91601
G1 X89.396 Y88.105 E10.30700
G1 X89.366 Y87.730 E10.32224
G1 X89.274 Y87.346 E10.33832
G1 X89.122 Y86.980 E10.35439
G1 X88.916 Y86.642 E10.37046
G1 X88.658 Y86.342 E10.38654
G1 X88.358 Y86.084 E10.40261
G1 X88.020 Y85.878 E10.41868
G1 X87.654 Y85.726 E10.43476
G1 X87.270 Y85.634 E10.45083
G1 X86.895 Y85.604 E10.46607
G1 X62.395 Y85.604 E11.46109
G1 X62.144 Y85.585 E11.47134
G1 X61.918 Y85.530 E11.48076
G1 X61.704 Y85.442 E11.49018
G1 X61.506 Y85.321 E11.49960
G1 X61.333 Y85.172 E11.50886
G1 X61.179 Y84.993 E11.51845
G1 X61.058 Y84.796 E11.52785
G1 X60.970 Y84.582 E11.53727
G1 X60.915 Y84.356 E11.54668
G1 X60.896 Y84.105 E11.55694
G1 X60.896 Y74.282 E11.95586
G1 X60.917 Y73.888 E11.97190
G1 X60.970 Y73.668 E11.98106
G1 X61.058 Y73.454 E11.99048
G1 X61.179 Y73.256 E11.99989
G1 X61.330 Y73.080 E12.00931
G1 X61.506 Y72.929 E12.01873
G1 X61.704 Y72.808 E12.02815
G1 X61.918 Y72.720 E12.03756
G1 X62.144 Y72.665 E12.04698
G1 X62.395 Y72.646 E12.05723
G1 X137.605 Y72.646 E15.11170
G1 X137.854 Y72.665 E15.12187
G1 X138.082 Y72.720 E15.13138
G1 X138.296 Y72.808 E15.14079
G1 X138.494 Y72.929 E15.15021
G1 X138.670 Y73.080 E15.15962
G1 X138.821 Y73.256 E15.16904
G1 X138.942 Y73.454 E15.17846
G1 X139.030 Y73.668 E15.18788
G1 X139.084 Y73.892 E15.19721
G1 X139.104 Y74.146 E15.20756
G1 X139.104 Y122.354 E17.16546
G1 X123.331 Y122.354 E17.80608
G1 X122.945 Y122.680 F6000.000
G1 X122.945 Y119.070 E17.95269 F1200.000
G1 X132.347 Y119.070 E18.33453
G1 X135.820 Y115.597 E18.53401
G1 X135.820 Y79.403 E20.00396
G1 X132.347 Y75.930 E20.20343
G1 X96.153 Y75.930 E21.67338
G1 X92.680 Y79.403 E21.87285
G1 X92.680 Y115.597 E23.34280
G1 X96.153 Y119.070 E23.54228
G1 X105.555 Y119.070 E23.92412
G1 X105.555 Y122.680 E24.07073
G1 X89.070 Y122.680 E24.74024
G1 X89.070 Y88.117 E26.14393
G1 X89.044 Y87.782 E26.15761
G1 X88.963 Y87.447 E26.17161
G1 X88.831 Y87.128 E26.18560
G1 X88.651 Y86.834 E26.19959
G1 X88.428 Y86.572 E26.21358
G1 X88.166 Y86.349 E26.22758
G1 X87.872 Y86.169 E26.24157
G1 X87.553 Y86.037 E26.25556
G1 X87.218 Y85.956 E26.26955
G1 X86.883 Y85.930 E26.28323
G1 X62.383 Y85.930 E27.27825
G1 X62.093 Y85.907 E27.29007
G1 X61.817 Y85.841 E27.30156
G1 X61.556 Y85.733 E27.31306
G1 X61.314 Y85.585 E27.32456
G1 X61.102 Y85.404 E27.33589
G1 X60.915 Y85.185 E27.34757
G1 X60.767 Y84.944 E27.35906
G1 X60.659 Y84.683 E27.37056
G1 X60.593 Y84.407 E27.38206
G1 X60.570 Y84.117 E27.39387
G1 X60.570 Y74.273 E27.79367
G1 X60.593 Y73.840 E27.81127
G1 X60.659 Y73.567 E27.82267
G1 X60.767 Y73.306 E27.83417
G1 X60.915 Y73.064 E27.84567
G1 X61.099 Y72.849 E27.85717
G1 X61.314 Y72.665 E27.86867
G1 X61.556 Y72.517 E27.88017
G1 X61.817 Y72.409 E27.89167
G1 X62.093 Y72.343 E27.90317
G1 X62.383 Y72.320 E27.91498
G1 X137.617 Y72.320 E30.97049
G1 X137.905 Y72.343 E30.98221
G1 X138.183 Y72.409 E30.99381
G1 X138.444 Y72.517 E31.00530
G1 X138.686 Y72.665 E31.01680
G1 X138.901 Y72.849 E31.02830
G1 X139.085 Y73.064 E31.03980
G1 X139.233 Y73.306 E31.05130
G1 X139.341 Y73.567 E31.06280
G1 X139.407 Y73.840 E31.07420
G1 X139.430 Y74.133 E31.08611
G1 X139.430 Y122.680 E33.05776
G1 X123.005 Y122.680 E33.72483
G1 X123.145 Y122.334 F6000.000
G1 X123.992 Y122.167 F6000.000
M204 S750
G1 X123.458 Y121.633 E33.75560 F1200.000
G1 X123.458 Y121.171 E33.77447
G1 X124.454 Y122.167 E33.83193
G1 X124.917 Y122.167 E33.85080
G1 X123.458 Y120.708 E33.93495
G1 X123.458 Y120.246 E33.95382
G1 X125.379 Y122.167 E34.06465
G1 X125.842 Y122.167 E34.08352
G1 X123.458 Y119.783 E34.22105
G1 X123.721 Y119.583 E34.23451
G1 X126.304 Y122.167 E34.38356
G1 X126.767 Y122.167 E34.40243
G1 X124.184 Y119.583 E34.55148
G1 X124.646 Y119.583 E34.57035
G1 X127.230 Y122.167 E34.71940
G1 X127.692 Y122.167 E34.73827
G1 X125.109 Y119.583 E34.88732
G1 X125.571 Y119.583 E34.90619
G1 X128.155 Y122.167 E35.05524
G1 X128.617 Y122.167 E35.07411
G1 X126.034 Y119.583 E35.22315
G1 X126.497 Y119.583 E35.24203
G1 X129.080 Y122.167 E35.39107
G1 X129.542 Y122.167 E35.40994
G1 X126.959 Y119.583 E35.55899
G1 X127.422 Y119.583 E35.57786
G1 X130.005 Y122.167 E35.72691
G1 X130.468 Y122.167 E35.74578
G1 X127.884 Y119.583 E35.89483
G1 X128.347 Y119.583 E35.91370
G1 X130.930 Y122.167 E36.06275
G1 X131.393 Y122.167 E36.08162
G1 X128.809 Y119.583 E36.23067
G1 X129.272 Y119.583 E36.24954
G1 X131.855 Y122.167 E36.39859
G1 X132.318 Y122.167 E36.41746
G1 X129.735 Y119.583 E36.56651
G1 X130.197 Y119.583 E36.58538
G1 X132.780 Y122.167 E36.73443
G1 X133.243 Y122.167 E36.75330
G1 X130.660 Y119.583 E36.90234
G1 X131.122 Y119.583 E36.92122
G1 X133.706 Y122.167 E37.07026
G1 X134.168 Y122.167 E37.08913
G1 X131.585 Y119.583 E37.23818
G1 X132.047 Y119.583 E37.25705
G1 X134.631 Y122.167 E37.40610
G1 X135.093 Y122.167 E37.42497
G1 X132.510 Y119.583 E37.57402
G1 X132.746 Y119.357 E37.58737
G1 X135.556 Y122.167 E37.74949
G1 X136.019 Y122.167 E37.76836
G1 X132.977 Y119.125 E37.94383
G1 X133.208 Y118.894 E37.95718
G1 X136.481 Y122.167 E38.14599
G1 X136.944 Y122.167 E38.16486
G1 X133.440 Y118.663 E38.36702
G1 X133.671 Y118.431 E38.38037
G1 X137.406 Y122.167 E38.59587
G1 X137.869 Y122.167 E38.61474
G1 X133.902 Y118.200 E38.84358
G1 X134.134 Y117.969 E38.85693
G1 X138.331 Y122.167 E39.09912
G1 X138.794 Y122.167 E39.11799
G1 X134.365 Y117.738 E39.37352
G1 X134.596 Y117.506 E39.38687
G1 X138.917 Y121.827 E39.63614
G1 X138.917 Y121.364 E39.65501
G1 X134.827 Y117.275 E39.89094
G1 X135.059 Y117.044 E39.90428
G1 X138.917 Y120.902 E40.12687
G1 X138.917 Y120.439 E40.14574
G1 X135.290 Y116.812 E40.35498
G1 X135.521 Y116.581 E40.36832
G1 X138.917 Y119.977 E40.56422
G1 X138.917 Y119.514 E40.58309
G1 X135.753 Y116.350 E40.76564
G1 X135.984 Y116.119 E40.77899
G1 X138.917 Y119.051 E40.94820
G1 X138.917 Y118.589 E40.96707
G1 X136.215 Y115.887 E41.12293
M204 S2000
G1 X136.333 Y115.543 F6000.000
M204 S750
G1 X138.917 Y118.126 E41.27198 F1200.000
G1 X138.917 Y117.664 E41.29085
G1 X136.333 Y115.080 E41.43990
G1 X136.333 Y114.618 E41.45877
G1 X138.917 Y117.201 E41.60782
G1 X138.917 Y116.739 E41.62669
G1 X136.333 Y114.155 E41.77574
G1 X136.333 Y113.693 E41.79461
G1 X138.917 Y116.276 E41.94366
G1 X138.917 Y115.813 E41.96253
G1 X136.333 Y113.230 E42.11158
G1 X136.333 Y112.767 E42.13045
G1 X138.917 Y115.351 E42.27950
G1 X138.917 Y114.888 E42.29837
G1 X136.333 Y112.305 E42.44742
G1 X136.333 Y111.842 E42.46629
G1 X138.917 Y114.426 E42.61533
G1 X138.917 Y113.963 E42.63421
G1 X136.333 Y111.380 E42.78325
G1 X136.333 Y110.917 E42.80212
G1 X138.917 Y113.501 E42.95117
G1 X138.917 Y113.038 E42.97004
G1 X136.333 Y110.455 E43.11909
G1 X136.333 Y109.992 E43.13796
G1 X138.917 Y112.575 E43.28701
G1 X138.917 Y112.113 E43.30588
G1 X136.333 Y109.529 E43.45493
G1 X136.333 Y109.067 E43.47380
G1 X138.917 Y111.650 E43.62285
G1 X138.917 Y111.188 E43.64172
G1 X136.333 Y108.604 E43.79077
G1 X136.333 Y108.142 E43.80964
G1 X138.917 Y110.725 E43.95869
G1 X138.917 Y110.263 E43.97756
G1 X136.333 Y107.679 E44.12661
G1 X136.333 Y107.217 E44.14548
G1 X138.917 Y109.800 E44.29453
G1 X138.917 Y109.337 E44.31340
G1 X136.333 Y106.754 E44.46244
G1 X136.333 Y106.291 E44.48132
G1 X138.917 Y108.875 E44.63036
G1 X138.917 Y108.412 E44.64923
G1 X136.333 Y105.829 E44.79828
G1 X136.333 Y105.366 E44.81715
G1 X138.917 Y107.950 E44.96620
G1 X138.917 Y107.487 E44.98507
G1 X136.333 Y104.904 E45.13412
G1 X136.333 Y104.441 E45.15299
G1 X138.917 Y107.025 E45.30204
G1 X138.917 Y106.562 E45.32091
G1 X136.333 Y103.979 E45.46996
G1 X136.333 Y103.516 E45.48883
G1 X138.917 Y106.099 E45.63788
G1 X138.917 Y105.637 E45.65675
G1 X136.333 Y103.053 E45.80580
G1 X136.333 Y102.591 E45.82467
G1 X138.917 Y105.174 E45.97372
G1 X138.917 Y104.712 E45.99259
G1 X136.333 Y102.128 E46.14164
G1 X136.333 Y101.666 E46.16051
G1 X138.917 Y104.249 E46.30955
G1 X138.917 Y103.787 E46.32843
G1 X136.333 Y101.203 E46.47747
G1 X136.333 Y100.741 E46.49635
G1 X138.917 Y103.324 E46.64539
G1 X138.917 Y102.861 E46.66426
G1 X136.333 Y100.278 E46.81331
G1 X136.333 Y99.815 E46.83218
G1 X138.917 Y102.399 E46.98123
G1 X138.917 Y101.936 E47.00010
G1 X136.333 Y99.353 E47.14915
G1 X136.333 Y98.890 E47.16802
G1 X138.917 Y101.474 E47.31707
G1 X138.917 Y101.011 E47.33594
G1 X136.333 Y98.428 E47.48499
G1 X136.333 Y97.965 E47.50386
G1 X138.917 Y100.549 E47.65291
G1 X138.917 Y100.086 E47.67178
G1 X136.333 Y97.503 E47.82083
G1 X136.333 Y97.040 E47.83970
G1 X138.917 Y99.623 E47.98875
G1 X138.917 Y99.161 E48.00762
G1 X136.333 Y96.577 E48.15667
G1 X136.333 Y96.115 E48.17554
G1 X138.917 Y98.698 E48.32459
G1 X138.917 Y98.236 E48.34346
G1 X136.333 Y95.652 E48.49250
G1 X136.333 Y95.190 E48.51138
G1 X138.917 Y97.773 E48.66042
G1 X138.917 Y97.311 E48.67929
G1 X136.333 Y94.727 E48.82834
G1 X136.333 Y94.265 E48.84721
G1 X138.917 Y96.848 E48.99626
G1 X138.917 Y96.385 E49.01513
G1 X136.333 Y93.802 E49.16418
G1 X136.333 Y93.339 E49.18305
G1 X138.917 Y95.923 E49.33210
G1 X138.917 Y95.460 E49.35097
G1 X136.333 Y92.877 E49.50002
G1 X136.333 Y92.414 E49.51889
G1 X138.917 Y94.998 E49.66794
G1 X138.917 Y94.535 E49.68681
G1 X136.333 Y91.952 E49.83586
G1 X136.333 Y91.489 E49.85473
G1 X138.917 Y94.073 E50.00378
G1 X138.917 Y93.610 E50.02265
G1 X136.333 Y91.027 E50.17170
G1 X136.333 Y90.564 E50.19057
G1 X138.917 Y93.147 E50.33962
G1 X138.917 Y92.685 E50.35849
G1 X136.333 Y90.101 E50.50754
G1 X136.333 Y89.639 E50.52641
G1 X138.917 Y92.222 E50.67545
G1 X138.917 Y91.760 E50.69433
G1 X136.333 Y89.176 E50.84337
G1 X136.333 Y88.714 E50.86224
G1 X138.917 Y91.297 E51.01129
G1 X138.917 Y90.835 E51.03016
G1 X136.333 Y88.251 E51.17921
G1 X136.333 Y87.789 E51.19808
G1 X138.917 Y90.372 E51.34713
G1 X138.917 Y89.909 E51.36600
G1 X136.333 Y87.326 E51.51505
G1 X136.333 Y86.863 E51.53392
G1 X138.917 Y89.447 E51.68297
G1 X138.917 Y88.984 E51.70184
G1 X136.333 Y86.401 E51.85089
G1 X136.333 Y85.938 E51.86976
G1 X138.917 Y88.522 E52.01881
G1 X138.917 Y88.059 E52.03768
G1 X136.333 Y85.476 E52.18673
G1 X136.333 Y85.013 E52.20560
G1 X138.917 Y87.597 E52.35465
G1 X138.917 Y87.134 E52.37352
G1 X136.333 Y84.551 E52.52257
G1 X136.333 Y84.088 E52.54144
G1 X138.917 Y86.671 E52.69049
G1 X138.917 Y86.209 E52.70936
G1 X136.333 Y83.625 E52.85841
G1 X136.333 Y83.163 E52.87728
G1 X138.917 Y85.746 E53.02632
G1 X138.917 Y85.284 E53.04520
G1 X136.333 Y82.700 E53.19424
G1 X136.333 Y82.238 E53.21311
G1 X138.917 Y84.821 E53.36216
G1 X138.917 Y84.359 E53.38103
G1 X136.333 Y81.775 E53.53008
G1 X136.333 Y81.313 E53.54895
G1 X138.917 Y83.896 E53.69800
G1 X138.917 Y83.433 E53.71687
G1 X136.333 Y80.850 E53.86592
G1 X136.333 Y80.387 E53.88479
G1 X138.917 Y82.971 E54.03384
G1 X138.917 Y82.508 E54.05271
G1 X136.333 Y79.925 E54.20176
G1 X136.333 Y79.462 E54.22063
G1 X138.917 Y82.046 E54.36968
G1 X138.917 Y81.583 E54.38855
G1 X130.167 Y72.833 E54.89337
G1 X130.629 Y72.833 E54.91224
G1 X138.917 Y81.121 E55.39037
G1 X138.917 Y80.658 E55.40924
G1 X131.092 Y72.833 E55.86068
G1 X131.555 Y72.833 E55.87955
G1 X138.917 Y80.195 E56.30431
G1 X138.917 Y79.733 E56.32318
G1 X132.017 Y72.833 E56.72124
G1 X132.480 Y72.833 E56.74012
G1 X138.917 Y79.270 E57.11149
G1 X138.917 Y78.808 E57.13037
G1 X132.942 Y72.833 E57.47506
G1 X133.405 Y72.833 E57.49393
G1 X138.917 Y78.345 E57.81193
G1 X138.917 Y77.883 E57.83080
G1 X133.867 Y72.833 E58.12212
G1 X134.330 Y72.833 E58.14099
G1 X138.917 Y77.420 E58.40561
G1 X138.917 Y76.957 E58.42448
G1 X134.793 Y72.833 E58.66242
G1 X135.255 Y72.833 E58.68130
G1 X138.917 Y76.495 E58.89255
G1 X138.917 Y76.032 E58.91142
G1 X135.718 Y72.833 E59.09598
G1 X136.180 Y72.833 E59.11485
G1 X138.917 Y75.570 E59.27273
G1 X138.917 Y75.107 E59.29160
G1 X136.643 Y72.833 E59.42279
