; generated by Slic3r 1.2.9 on 2018-09-29 at 17:31:23

; external perimeters extrusion width = 0.40mm
; perimeters extrusion width = 0.67mm
; infill extrusion width = 0.67mm
; solid infill extrusion width = 0.67mm
; top infill extrusion width = 0.26mm

M107
M190 S78 ; set bed temperature
M104 S240 ; set temperature
G28 ; home all axes
G1 Z5 F5000 ; lift nozzle

M109 S240 ; wait for temperature to be reached
G21 ; set units to millimeters
G90 ; use absolute coordinates
M82 ; use absolute distances for extrusion
G92 E0
G1 E-2.00000 F1800.00000
G92 E0
G1 Z0.300 F6000.000
G1 X79.007 Y82.052 F6000.000
G1 E2.00000 F1800.00000
M204 S2000
G1 X80.734 Y80.726 E2.08843 F1200.000
G1 X83.450 Y80.073 E2.20188
G1 X116.550 Y80.073 E3.54617
G1 X118.691 Y80.470 E3.63460
G1 X120.548 Y81.607 E3.72304 F1200.000
G1 X121.874 Y83.334 E3.81147
G1 X122.527 Y86.050 E3.92491
G1 X122.527 Y113.950 E5.05802
G1 X122.130 Y116.091 E5.14645
G1 X120.993 Y117.948 E5.23489
G1 X119.266 Y119.274 E5.32332
G1 X116.550 Y119.927 E5.43676
G1 X95.452 Y119.927 E6.29361
G1 X83.432 Y119.891 E6.78178
G1 X81.292 Y119.488 E6.87022
G1 X79.439 Y118.345 E6.95865
G1 X78.118 Y116.614 E7.04709
G1 X77.473 Y113.914 E7.15982
G1 X77.473 Y86.050 E8.29146
G1 X77.870 Y83.909 E8.37990
G1 X78.976 Y82.103 E8.46589
G1 X79.296 Y82.235 F6000.000
G1 X79.329 Y82.183 E8.46840 F1200.000
G1 X81.041 Y80.938 E8.55438
G1 X83.450 Y80.399 E8.65464
G1 X116.550 Y80.399 E9.99893
G1 X118.629 Y80.795 E10.08490
G1 X120.417 Y81.929 E10.17087 F1200.000
G1 X121.662 Y83.641 E10.25684
G1 X122.201 Y86.050 E10.35710
G1 X122.201 Y113.950 E11.49020
G1 X121.805 Y116.029 E11.57618
G1 X120.671 Y117.817 E11.66215
G1 X118.959 Y119.062 E11.74812
G1 X116.550 Y119.601 E11.84838
G1 X95.452 Y119.601 E12.70523
G1 X83.433 Y119.565 E13.19336
G1 X81.355 Y119.163 E13.27933
G1 X79.571 Y118.023 E13.36530
G1 X78.331 Y116.308 E13.45127
G1 X77.799 Y113.914 E13.55086
G1 X77.799 Y86.050 E14.68250
G1 X78.195 Y83.971 E14.76847
G1 X79.264 Y82.286 E14.84950
G1 X79.581 Y82.423 F6000.000
G1 X79.650 Y82.318 E14.85460 F1200.000
G1 X81.346 Y81.158 E14.93803
G1 X83.450 Y80.724 E15.02529
G1 X116.550 Y80.724 E16.36958
G1 X118.566 Y81.121 E16.45302
G1 X120.282 Y82.250 E16.53645 F1200.000
G1 X121.442 Y83.946 E16.61989
G1 X121.876 Y86.050 E16.70715
G1 X121.876 Y113.950 E17.84025
G1 X121.479 Y115.966 E17.92369
G1 X120.350 Y117.682 E18.00712
G1 X118.654 Y118.842 E18.09056
G1 X116.550 Y119.276 E18.17782
G1 X95.452 Y119.276 E19.03467
G1 X83.434 Y119.240 E19.52276
G1 X81.419 Y118.837 E19.60620
G1 X79.707 Y117.702 E19.68963
G1 X78.552 Y116.004 E19.77307
G1 X78.124 Y113.914 E19.85969
G1 X78.124 Y86.050 E20.99133
G1 X78.521 Y84.034 E21.07477
G1 X79.548 Y82.473 E21.15067
G1 E19.15067 F1800.00000
G92 E0
G1 X108.329 Y107.971 F6000.000
G1 E2.00000 F1800.00000
G1 X116.029 Y107.971 E2.31272 F1200.000
G1 X116.029 Y113.429 E2.53442
G1 X95.973 Y113.429 E3.34898
G1 X95.973 Y100.600 E3.87001
G1 X95.952 Y100.170 E3.88752
G1 X95.886 Y99.731 E3.90552
G1 X95.779 Y99.301 E3.92353
G1 X95.630 Y98.883 E3.94157
G1 X95.455 Y98.513 E3.95818
G1 X95.630 Y98.142 E3.97484
G1 X95.779 Y97.724 E3.99288
G1 X95.886 Y97.294 E4.01088
G1 X95.952 Y96.855 E4.02889
G1 X95.973 Y96.412 E4.04691
G1 X95.952 Y95.969 E4.06493
G1 X95.886 Y95.530 E4.08293
G1 X95.779 Y95.100 E4.10094
G1 X95.630 Y94.682 E4.11898
G1 X95.440 Y94.280 E4.13703
G1 X95.211 Y93.900 E4.15502
G1 X94.947 Y93.543 E4.17308
G1 X94.649 Y93.215 E4.19107
G1 X94.321 Y92.917 E4.20907
G1 X93.962 Y92.652 E4.22716
G1 X93.583 Y92.424 E4.24514
G1 X93.181 Y92.234 E4.26319
G1 X92.763 Y92.085 E4.28124
G1 X92.332 Y91.978 E4.29928
G1 X91.893 Y91.912 E4.31728
G1 X91.450 Y91.891 E4.33530
G1 X91.007 Y91.912 E4.35333
G1 X90.568 Y91.978 E4.37133
G1 X90.137 Y92.085 E4.38937
G1 X89.719 Y92.234 E4.40742
G1 X89.317 Y92.424 E4.42547
G1 X88.938 Y92.652 E4.44345
G1 X88.579 Y92.917 E4.46153
G1 X88.251 Y93.215 E4.47954
G1 X87.953 Y93.543 E4.49753
G1 X87.689 Y93.900 E4.51558
G1 X87.460 Y94.280 E4.53357
G1 X87.270 Y94.682 E4.55163
G1 X87.121 Y95.100 E4.56967
G1 X87.014 Y95.530 E4.58767
G1 X86.948 Y95.968 E4.60565
G1 X86.926 Y96.412 E4.62370
G1 X86.948 Y96.856 E4.64175
G1 X87.014 Y97.294 E4.65973
G1 X87.121 Y97.724 E4.67774
G1 X87.270 Y98.142 E4.69577
G1 X87.445 Y98.513 E4.71243
G1 X87.270 Y98.883 E4.72904
G1 X87.121 Y99.301 E4.74709
G1 X87.014 Y99.731 E4.76509
G1 X86.948 Y100.169 E4.78307
G1 X86.926 Y100.600 E4.80058
G1 X86.926 Y113.393 E5.32017
G1 X83.971 Y113.393 E5.44021
G1 X83.971 Y86.571 E6.52956
G1 X116.029 Y86.571 E7.83157
G1 X116.029 Y92.529 E8.07357
G1 X108.329 Y92.529 E8.38629
G1 X108.329 Y107.911 E9.01097
G1 X108.655 Y107.645 F6000.000
G1 X116.355 Y107.645 E9.32369 F1200.000
G1 X116.355 Y113.755 E9.57184
G1 X95.647 Y113.755 E10.41285
G1 X95.647 Y100.608 E10.94678
G1 X95.627 Y100.202 E10.96331
G1 X95.566 Y99.795 E10.98002
G1 X95.467 Y99.396 E10.99674
G1 X95.328 Y99.007 E11.01347
G1 X95.079 Y98.513 E11.03597
G1 X95.328 Y98.018 E11.05850
G1 X95.467 Y97.629 E11.07523
G1 X95.566 Y97.230 E11.09195
G1 X95.627 Y96.823 E11.10866
G1 X95.647 Y96.412 E11.12538
G1 X95.627 Y96.001 E11.14210
G1 X95.566 Y95.594 E11.15881
G1 X95.467 Y95.195 E11.17553
G1 X95.328 Y94.806 E11.19226
G1 X95.152 Y94.434 E11.20900
G1 X94.940 Y94.081 E11.22570
G1 X94.695 Y93.750 E11.24245
G1 X94.418 Y93.446 E11.25915
G1 X94.114 Y93.169 E11.27585
G1 X93.781 Y92.924 E11.29264
G1 X93.429 Y92.712 E11.30933
G1 X93.057 Y92.536 E11.32607
G1 X92.668 Y92.397 E11.34281
G1 X92.268 Y92.298 E11.35956
G1 X91.861 Y92.237 E11.37627
G1 X91.450 Y92.217 E11.39299
G1 X91.039 Y92.237 E11.40971
G1 X90.632 Y92.298 E11.42641
G1 X90.232 Y92.397 E11.44317
G1 X89.843 Y92.536 E11.45991
G1 X89.471 Y92.712 E11.47665
G1 X89.119 Y92.924 E11.49334
G1 X88.786 Y93.169 E11.51012
G1 X88.482 Y93.446 E11.52683
G1 X88.205 Y93.750 E11.54353
G1 X87.960 Y94.081 E11.56028
G1 X87.748 Y94.434 E11.57698
G1 X87.572 Y94.806 E11.59371
G1 X87.433 Y95.195 E11.61045
G1 X87.334 Y95.594 E11.62717
G1 X87.273 Y96.001 E11.64387
G1 X87.252 Y96.412 E11.66060
G1 X87.273 Y96.823 E11.67733
G1 X87.334 Y97.230 E11.69403
G1 X87.433 Y97.629 E11.71075
G1 X87.572 Y98.018 E11.72748
G1 X87.821 Y98.513 E11.75001
G1 X87.572 Y99.007 E11.77251
G1 X87.433 Y99.396 E11.78924
G1 X87.334 Y99.795 E11.80596
G1 X87.273 Y100.202 E11.82266
G1 X87.252 Y100.608 E11.83919
G1 X87.252 Y113.719 E12.37167
G1 X83.645 Y113.719 E12.51816
G1 X83.645 Y86.245 E13.63396
G1 X116.355 Y86.245 E14.96241
G1 X116.355 Y92.855 E15.23087
G1 X108.655 Y92.855 E15.54359
G1 X108.655 Y107.585 E16.14182
G1 X108.655 Y108.045 F6000.000
G1 X108.142 Y107.893 F6000.000
M204 S750
G1 X96.139 Y95.890 E16.83373 F1200.000
G1 X96.052 Y95.340 E16.85643
G1 X108.142 Y107.430 E17.55339
G1 X108.142 Y106.968 E17.57223
G1 X95.859 Y94.686 E18.28028
M204 S2000
G1 X95.404 Y93.768 F6000.000
M204 S750
G1 X108.142 Y106.506 E19.01458 F1200.000
M204 S2000
G1 X108.407 Y108.158 F6000.000
M204 S750
G1 X113.491 Y113.242 E19.30763 F1200.000
G1 X113.029 Y113.242 E19.32647
G1 X96.160 Y96.373 E20.29891
G1 X96.138 Y96.814 E20.31690
G1 X112.566 Y113.242 E21.26394
G1 X112.104 Y113.242 E21.28278
G1 X96.078 Y97.216 E22.20665
G1 X95.991 Y97.590 E22.22233
G1 X111.642 Y113.242 E23.12460
G1 X111.180 Y113.242 E23.14344
G1 X95.880 Y97.942 E24.02544
G1 X95.750 Y98.274 E24.03997
G1 X110.718 Y113.242 E24.90283
G1 X110.255 Y113.242 E24.92167
G1 X95.836 Y98.823 E25.75289
G1 X96.038 Y99.486 E25.78116
G1 X109.793 Y113.242 E26.57412
G1 X109.331 Y113.242 E26.59296
G1 X96.134 Y100.045 E27.35374
G1 X96.160 Y100.533 E27.37369
G1 X108.869 Y113.242 E28.10631
G1 X108.407 Y113.242 E28.12515
G1 X96.160 Y100.995 E28.83112
G1 X96.160 Y101.458 E28.84996
G1 X107.944 Y113.242 E29.52928
G1 X107.482 Y113.242 E29.54812
G1 X96.160 Y101.920 E30.20080
G1 X96.160 Y102.382 E30.21965
G1 X107.020 Y113.242 E30.84568
G1 X106.558 Y113.242 E30.86452
G1 X96.160 Y102.844 E31.46391
G1 X96.160 Y103.306 E31.48276
G1 X106.096 Y113.242 E32.05550
G1 X105.633 Y113.242 E32.07434
G1 X96.160 Y103.769 E32.62045
G1 X96.160 Y104.231 E32.63929
G1 X105.171 Y113.242 E33.15875
G1 X104.709 Y113.242 E33.17759
G1 X96.160 Y104.693 E33.67040
G1 X96.160 Y105.155 E33.68924
G1 X104.247 Y113.242 E34.15541
G1 X103.785 Y113.242 E34.17425
G1 X96.160 Y105.617 E34.61377
G1 X96.160 Y106.080 E34.63262
G1 X103.322 Y113.242 E35.04550
G1 X102.860 Y113.242 E35.06434
G1 X96.160 Y106.542 E35.45057
G1 X96.160 Y107.004 E35.46941
G1 X102.398 Y113.242 E35.82900
G1 X101.936 Y113.242 E35.84784
G1 X96.160 Y107.466 E36.18079
G1 X96.160 Y107.928 E36.19963
G1 X101.474 Y113.242 E36.50593
G1 X101.011 Y113.242 E36.52477
G1 X96.160 Y108.391 E36.80443
G1 X96.160 Y108.853 E36.82327
G1 X100.549 Y113.242 E37.07628
G1 X100.087 Y113.242 E37.09512
G1 X96.160 Y109.315 E37.32149
G1 X96.160 Y109.777 E37.34033
G1 X99.625 Y113.242 E37.54006
G1 X99.163 Y113.242 E37.55890
G1 X96.160 Y110.239 E37.73197
G1 X96.160 Y110.702 E37.75082
G1 X98.700 Y113.242 E37.89725
G1 X98.238 Y113.242 E37.91609
G1 X96.160 Y111.164 E38.03588
G1 X96.160 Y111.626 E38.05472
G1 X97.776 Y113.242 E38.14787
G1 X97.314 Y113.242 E38.16671
G1 X96.160 Y112.088 E38.23321
G1 X96.160 Y112.550 E38.25205
G1 X96.852 Y113.242 E38.29190
G1 X96.389 Y113.242 E38.31074
G1 X96.160 Y113.013 E38.32395
M204 S2000
G1 E36.32395 F1800.00000
G92 E0
G1 X84.336 Y113.206 F6000.000
G1 E2.00000 F1800.00000
M204 S750
G1 X84.158 Y113.028 E2.01027 F1200.000
G1 X84.158 Y112.565 E2.02911
G1 X84.799 Y113.206 E2.06602
G1 X85.261 Y113.206 E2.08486
G1 X84.158 Y112.103 E2.14841
G1 X84.158 Y111.641 E2.16725
G1 X85.723 Y113.206 E2.25745
G1 X86.185 Y113.206 E2.27629
G1 X84.158 Y111.179 E2.39313
G1 X84.158 Y110.717 E2.41197
G1 X86.647 Y113.206 E2.55546
G1 X86.739 Y112.835 E2.57103
G1 X84.158 Y110.254 E2.71979
G1 X84.158 Y109.792 E2.73863
G1 X86.739 Y112.373 E2.88738
G1 X86.739 Y111.910 E2.90622
G1 X84.158 Y109.330 E3.05497
G1 X84.158 Y108.868 E3.07381
G1 X86.739 Y111.448 E3.22257
G1 X86.739 Y110.986 E3.24141
G1 X84.158 Y108.406 E3.39016
G1 X84.158 Y107.943 E3.40900
G1 X86.739 Y110.524 E3.55776
G1 X86.739 Y110.062 E3.57660
G1 X84.158 Y107.481 E3.72535
G1 X84.158 Y107.019 E3.74419
G1 X86.739 Y109.599 E3.89294
G1 X86.739 Y109.137 E3.91179
G1 X84.158 Y106.557 E4.06054
G1 X84.158 Y106.095 E4.07938
G1 X86.739 Y108.675 E4.22813
G1 X86.739 Y108.213 E4.24697
G1 X84.158 Y105.632 E4.39573
G1 X84.158 Y105.170 E4.41457
G1 X86.739 Y107.751 E4.56332
G1 X86.739 Y107.288 E4.58216
G1 X84.158 Y104.708 E4.73092
G1 X84.158 Y104.246 E4.74976
G1 X86.739 Y106.826 E4.89851
G1 X86.739 Y106.364 E4.91735
G1 X84.158 Y103.784 E5.06610
G1 X84.158 Y103.322 E5.08494
G1 X86.739 Y105.902 E5.23370
G1 X86.739 Y105.440 E5.25254
G1 X84.158 Y102.859 E5.40129
G1 X84.158 Y102.397 E5.42013
G1 X86.739 Y104.977 E5.56889
G1 X86.739 Y104.515 E5.58773
G1 X84.158 Y101.935 E5.73648
G1 X84.158 Y101.473 E5.75532
G1 X86.739 Y104.053 E5.90407
G1 X86.739 Y103.591 E5.92292
G1 X84.158 Y101.011 E6.07167
G1 X84.158 Y100.548 E6.09051
G1 X86.739 Y103.129 E6.23926
G1 X86.739 Y102.667 E6.25810
G1 X84.158 Y100.086 E6.40686
G1 X84.158 Y99.624 E6.42570
G1 X86.739 Y102.204 E6.57445
G1 X86.739 Y101.742 E6.59329
G1 X84.158 Y99.162 E6.74205
G1 X84.158 Y98.700 E6.76089
G1 X86.739 Y101.280 E6.90964
G1 X86.739 Y100.818 E6.92848
G1 X84.158 Y98.237 E7.07723
G1 X84.158 Y97.775 E7.09607
G1 X86.754 Y100.370 E7.24569
G1 X86.800 Y99.955 E7.26273
G1 X84.158 Y97.313 E7.41503
G1 X84.158 Y96.851 E7.43387
G1 X86.876 Y99.569 E7.59055
G1 X86.976 Y99.206 E7.60586
G1 X84.158 Y96.389 E7.76830
G1 X84.158 Y95.926 E7.78714
G1 X87.098 Y98.866 E7.95658
G1 X87.190 Y98.495 E7.97213
G1 X84.158 Y95.464 E8.14688
G1 X84.158 Y95.002 E8.16572
G1 X86.918 Y97.761 E8.32478
G1 X86.795 Y97.177 E8.34912
G1 X84.158 Y94.540 E8.50115
G1 X84.158 Y94.078 E8.51999
G1 X86.747 Y96.666 E8.66923
G1 X86.752 Y96.209 E8.68789
G1 X84.158 Y93.615 E8.83738
G1 X84.158 Y93.153 E8.85622
G1 X86.795 Y95.790 E9.00821
G1 X86.868 Y95.401 E9.02435
G1 X84.158 Y92.691 E9.18055
G1 X84.158 Y92.229 E9.19939
G1 X86.965 Y95.036 E9.36120
G1 X87.087 Y94.695 E9.37595
G1 X84.158 Y91.767 E9.54476
G1 X84.158 Y91.304 E9.56360
G1 X87.232 Y94.378 E9.74078
G1 X87.393 Y94.077 E9.75470
G1 X84.158 Y90.842 E9.94119
G1 X84.158 Y90.380 E9.96003
G1 X87.570 Y93.792 E10.15670
G1 X87.767 Y93.526 E10.17017
G1 X84.158 Y89.918 E10.37818
G1 X84.158 Y89.456 E10.39702
G1 X87.980 Y93.277 E10.61733
G1 X88.206 Y93.041 E10.63065
G1 X84.158 Y88.993 E10.86401
G1 X84.158 Y88.531 E10.88285
G1 X88.448 Y92.821 E11.13015
G1 X88.710 Y92.621 E11.14359
G1 X84.158 Y88.069 E11.40601
G1 X84.158 Y87.607 E11.42486
G1 X88.986 Y92.434 E11.70316
G1 X89.275 Y92.262 E11.71690
G1 X84.158 Y87.145 E12.01189
G1 X84.234 Y86.758 E12.02794
G1 X89.589 Y92.113 E12.33665
G1 X89.921 Y91.983 E12.35118
G1 X84.696 Y86.758 E12.65239
G1 X85.159 Y86.758 E12.67123
G1 X90.273 Y91.873 E12.96607
G1 X90.648 Y91.786 E12.98176
G1 X85.621 Y86.758 E13.27158
G1 X86.083 Y86.758 E13.29042
G1 X91.050 Y91.726 E13.57677
G1 X91.491 Y91.704 E13.59476
G1 X86.545 Y86.758 E13.87988
G1 X87.007 Y86.758 E13.89872
G1 X91.974 Y91.725 E14.18503
G1 X92.524 Y91.813 E14.20775
G1 X87.470 Y86.758 E14.49914
G1 X87.932 Y86.758 E14.51798
G1 X93.179 Y92.005 E14.82045
M204 S2000
G1 X94.097 Y92.461 F6000.000
M204 S750
G1 X88.394 Y86.758 E15.14923 F1200.000
G1 X88.856 Y86.758 E15.16807
G1 X108.142 Y106.044 E16.27984
G1 X108.142 Y105.582 E16.29868
G1 X89.318 Y86.758 E17.38380
G1 X89.781 Y86.758 E17.40264
G1 X108.142 Y105.119 E18.46112
G1 X108.142 Y104.657 E18.47996
G1 X90.243 Y86.758 E19.51179
G1 X90.705 Y86.758 E19.53063
G1 X108.142 Y104.195 E20.53582
G1 X108.142 Y103.733 E20.55466
G1 X91.167 Y86.758 E21.53321
G1 X91.629 Y86.758 E21.55205
G1 X108.142 Y103.271 E22.50395
G1 X108.142 Y102.808 E22.52279
G1 X92.092 Y86.758 E23.44804
G1 X92.554 Y86.758 E23.46688
G1 X108.142 Y102.346 E24.36549
G1 X108.142 Y101.884 E24.38434
G1 X93.016 Y86.758 E25.25630
G1 X93.478 Y86.758 E25.27514
G1 X108.142 Y101.422 E26.12046
G1 X108.142 Y100.960 E26.13930
G1 X93.940 Y86.758 E26.95798
G1 X94.403 Y86.758 E26.97682
G1 X108.142 Y100.497 E27.76885
G1 X108.142 Y100.035 E27.78769
G1 X94.865 Y86.758 E28.55308
G1 X95.327 Y86.758 E28.57192
G1 X108.142 Y99.573 E29.31067
G1 X108.142 Y99.111 E29.32951
G1 X95.789 Y86.758 E30.04161
G1 X96.251 Y86.758 E30.06045
G1 X108.142 Y98.649 E30.74590
G1 X108.142 Y98.187 E30.76474
G1 X96.713 Y86.758 E31.42355
G1 X97.176 Y86.758 E31.44239
G1 X108.142 Y97.724 E32.07456
G1 X108.142 Y97.262 E32.09340
G1 X97.638 Y86.758 E32.69892
G1 X98.100 Y86.758 E32.71776
G1 X108.142 Y96.800 E33.29663
G1 X108.142 Y96.338 E33.31547
G1 X98.562 Y86.758 E33.86770
G1 X99.024 Y86.758 E33.88655
G1 X108.142 Y95.876 E34.41213
G1 X108.142 Y95.413 E34.43097
G1 X99.487 Y86.758 E34.92991
G1 X99.949 Y86.758 E34.94876
G1 X108.142 Y94.951 E35.42105
G1 X108.142 Y94.489 E35.43989
G1 X100.411 Y86.758 E35.88555
G1 X100.873 Y86.758 E35.90439
G1 X108.142 Y94.027 E36.32340
G1 X108.142 Y93.565 E36.34224
G1 X101.335 Y86.758 E36.73460
G1 X101.798 Y86.758 E36.75344
G1 X108.142 Y93.102 E37.11916
G1 X108.142 Y92.640 E37.13800
G1 X102.260 Y86.758 E37.47707
G1 X102.722 Y86.758 E37.49591
G1 X108.305 Y92.342 E37.81779
G1 X108.768 Y92.342 E37.83663
G1 X103.184 Y86.758 E38.15850
G1 X103.646 Y86.758 E38.17734
G1 X109.230 Y92.342 E38.49921
G1 X109.692 Y92.342 E38.51805
G1 X104.109 Y86.758 E38.83992
G1 X104.571 Y86.758 E38.85876
G1 X110.154 Y92.342 E39.18063
G1 X110.616 Y92.342 E39.19947
G1 X105.033 Y86.758 E39.52134
G1 X105.495 Y86.758 E39.54018
G1 X111.079 Y92.342 E39.86205
G1 X111.541 Y92.342 E39.88089
G1 X105.957 Y86.758 E40.20276
G1 X106.420 Y86.758 E40.22160
G1 X112.003 Y92.342 E40.54347
G1 X112.465 Y92.342 E40.56231
G1 X106.882 Y86.758 E40.88418
G1 X107.344 Y86.758 E40.90302
G1 X112.927 Y92.342 E41.22489
G1 X113.390 Y92.342 E41.24373
G1 X107.806 Y86.758 E41.56560
G1 X108.268 Y86.758 E41.58444
G1 X113.852 Y92.342 E41.90631
G1 X114.314 Y92.342 E41.92515
G1 X108.731 Y86.758 E42.24702
G1 X109.193 Y86.758 E42.26586
G1 X114.776 Y92.342 E42.58773
G1 X115.238 Y92.342 E42.60657
G1 X109.655 Y86.758 E42.92844
G1 X110.117 Y86.758 E42.94728
G1 X115.701 Y92.342 E43.26915
G1 X115.842 Y92.021 E43.28345
G1 X110.579 Y86.758 E43.58681
G1 X111.042 Y86.758 E43.60565
G1 X115.842 Y91.558 E43.88237
