; generated by Slic3r 1.2.9 on 2016-12-03 at 22:42:34

; external perimeters extrusion width = 0.40mm
; perimeters extrusion width = 0.67mm
; infill extrusion width = 0.67mm
; solid infill extrusion width = 0.67mm
; top infill extrusion width = 0.26mm

M190 S100 ; set bed temperature
M104 S255 ; set temperature
G28 ; home all axes
G1 Z5 F5000 ; lift nozzle

M109 S255 ; wait for temperature to be reached
G21 ; set units to millimeters
G90 ; use absolute coordinates
M82 ; use absolute distances for extrusion
G92 E0
G1 E-2.00000 F1800.00000
G92 E0
G1 Z0.400 F6000.000
G1 X88.076 Y88.076 F6000.000
G1 E2.00000 F1800.00000
M204 S2000
G1 X88.589 Y87.579 E2.05156 F1200.000
G1 X89.391 Y86.888 E2.12803
G1 X89.938 Y86.464 E2.17796
G1 X90.807 Y85.859 E2.25446
G1 X92.036 Y85.132 E2.35755
G1 X92.985 Y84.662 E2.43401
G1 X93.621 Y84.386 E2.48402
G1 X94.613 Y84.017 E2.56046
G1 X95.456 Y83.760 E2.62411
G1 X95.983 Y83.619 E2.66346
G1 X97.021 Y83.399 E2.74007
G1 X97.703 Y83.291 E2.78997
G1 X98.757 Y83.179 E2.86649
G1 X99.816 Y83.135 E2.94298
G1 X100.270 Y83.137 E2.97581
G1 X101.243 Y83.179 E3.04606 F1200.000
G1 X101.931 Y83.244 E3.09597
G1 X103.342 Y83.468 E3.19911
G1 X104.016 Y83.619 E3.24901
G1 X105.037 Y83.903 E3.32549
G1 X106.037 Y84.251 E3.40200
G1 X107.014 Y84.661 E3.47851
G1 X108.287 Y85.310 E3.58159
G1 X108.881 Y85.661 E3.63148
G1 X109.764 Y86.247 E3.70798
G1 X110.892 Y87.122 E3.81107
G1 X111.411 Y87.580 E3.86100
G1 X112.168 Y88.320 E3.93748
G1 X113.112 Y89.391 E4.04057
G1 X113.753 Y90.236 E4.11709
G1 X114.141 Y90.808 E4.16699
G1 X114.690 Y91.713 E4.24348
G1 X115.338 Y92.985 E4.34653
G1 X115.614 Y93.621 E4.39654
G1 X115.923 Y94.445 E4.46012
G1 X116.097 Y94.963 E4.49957
G1 X116.290 Y95.627 E4.54949
G1 X116.601 Y97.021 E4.65258
G1 X116.709 Y97.703 E4.70248
G1 X116.821 Y98.757 E4.77901
G1 X116.865 Y100.183 E4.88201
G1 X116.844 Y100.875 E4.93201
G1 X116.772 Y101.754 E4.99562
G1 X116.709 Y102.297 E5.03510
G1 X116.601 Y102.979 E5.08499
G1 X116.381 Y104.016 E5.16152
G1 X115.983 Y105.387 E5.26462
G1 X115.614 Y106.379 E5.34099
G1 X115.339 Y107.014 E5.39101
G1 X114.690 Y108.287 E5.49410
G1 X114.141 Y109.193 E5.57059
G1 X113.753 Y109.764 E5.62049
G1 X112.878 Y110.892 E5.72358
G1 X112.168 Y111.680 E5.80010
G1 X111.411 Y112.420 E5.87659
G1 X110.892 Y112.878 E5.92649
G1 X110.062 Y113.536 E6.00299
G1 X108.881 Y114.339 E6.10609
G1 X108.287 Y114.690 E6.15599
G1 X107.348 Y115.182 E6.23249
G1 X106.379 Y115.614 E6.30906
G1 X105.036 Y116.097 E6.41209
G1 X104.373 Y116.290 E6.46199
G1 X103.515 Y116.493 E6.52566
G1 X102.979 Y116.601 E6.56510
G1 X102.297 Y116.709 E6.61500
G1 X100.875 Y116.844 E6.71811
G1 X99.817 Y116.865 E6.79452
G1 X99.125 Y116.844 E6.84453
G1 X97.703 Y116.709 E6.94760
G1 X96.658 Y116.532 E7.02413
G1 X95.984 Y116.381 E7.07402
G1 X94.964 Y116.097 E7.15050
G1 X93.621 Y115.614 E7.25349
G1 X92.652 Y115.182 E7.33010
G1 X92.037 Y114.868 E7.38000
G1 X91.119 Y114.339 E7.45650
G1 X89.938 Y113.536 E7.55960
G1 X89.108 Y112.878 E7.63608
G1 X88.589 Y112.420 E7.68600
G1 X87.580 Y111.411 E7.78909
G1 X87.122 Y110.892 E7.83899
G1 X86.573 Y110.203 E7.90265
G1 X86.247 Y109.764 E7.94210
G1 X85.859 Y109.193 E7.99201
G1 X85.132 Y107.964 E8.09510
G1 X84.627 Y106.935 E8.17785
G1 X84.251 Y106.038 E8.24806
G1 X84.017 Y105.387 E8.29800
G1 X83.619 Y104.017 E8.40099
G1 X83.399 Y102.979 E8.47759
G1 X83.291 Y102.297 E8.52750
G1 X83.179 Y101.243 E8.60401
G1 X83.135 Y99.817 E8.70701
G1 X83.156 Y99.125 E8.75702
G1 X83.244 Y98.069 E8.83348
G1 X83.399 Y97.021 E8.90999
G1 X83.710 Y95.627 E9.01310
G1 X83.903 Y94.964 E9.06300
G1 X84.251 Y93.963 E9.13951
G1 X84.818 Y92.652 E9.24260
G1 X85.310 Y91.713 E9.31910
G1 X85.661 Y91.119 E9.36899
G1 X86.247 Y90.236 E9.44549
G1 X87.122 Y89.108 E9.54858
G1 X87.580 Y88.589 E9.59850
G1 X88.034 Y88.119 E9.64572
G1 X88.383 Y88.383 F6000.000
G1 X88.876 Y87.905 E9.69530 F1200.000
G1 X89.657 Y87.231 E9.76981
G1 X90.204 Y86.807 E9.81974
G1 X91.052 Y86.218 E9.89427
G1 X92.234 Y85.519 E9.99342
G1 X93.158 Y85.060 E10.06791
G1 X93.793 Y84.785 E10.11791
G1 X94.760 Y84.426 E10.19239
G1 X95.577 Y84.177 E10.25408
G1 X96.078 Y84.043 E10.29146
G1 X97.089 Y83.828 E10.36610
G1 X97.771 Y83.719 E10.41600
G1 X98.798 Y83.612 E10.49055
G1 X99.829 Y83.569 E10.56507
G1 X100.257 Y83.571 E10.59593
G1 X101.202 Y83.612 E10.66421 F1200.000
G1 X101.890 Y83.677 E10.71412
G1 X103.247 Y83.892 E10.81333
G1 X103.921 Y84.042 E10.86322
G1 X104.915 Y84.320 E10.93774
G1 X105.890 Y84.660 E11.01227
G1 X106.842 Y85.060 E11.08681
G1 X108.066 Y85.683 E11.18596
G1 X108.949 Y86.218 E11.26049
G1 X109.520 Y86.606 E11.31039
G1 X110.605 Y87.448 E11.40954
G1 X111.124 Y87.905 E11.45946
G1 X111.861 Y88.627 E11.53398
G1 X112.769 Y89.658 E11.63313
G1 X113.394 Y90.480 E11.70768
G1 X113.782 Y91.052 E11.75758
G1 X114.317 Y91.934 E11.83211
G1 X114.940 Y93.158 E11.93122
G1 X115.215 Y93.793 E11.98122
G1 X115.514 Y94.593 E12.04284
G1 X115.680 Y95.084 E12.08032
G1 X115.873 Y95.748 E12.13024
G1 X116.172 Y97.089 E12.22940
G1 X116.281 Y97.771 E12.27930
G1 X116.388 Y98.798 E12.35385
G1 X116.432 Y100.170 E12.45292
G1 X116.410 Y100.862 E12.50292
G1 X116.340 Y101.713 E12.56456
G1 X116.281 Y102.229 E12.60207
G1 X116.172 Y102.911 E12.65196
G1 X115.958 Y103.921 E12.72652
G1 X115.574 Y105.240 E12.82568
G1 X115.215 Y106.206 E12.90009
G1 X114.940 Y106.842 E12.95011
G1 X114.317 Y108.066 E13.04925
G1 X113.782 Y108.949 E13.12378
G1 X113.394 Y109.520 E13.17368
G1 X112.552 Y110.605 E13.27283
G1 X111.861 Y111.373 E13.34738
G1 X111.124 Y112.095 E13.42191
G1 X110.605 Y112.552 E13.47181
G1 X109.520 Y113.394 E13.57097
G1 X108.660 Y113.965 E13.64550
G1 X108.066 Y114.317 E13.69540
G1 X107.151 Y114.795 E13.76993
G1 X106.207 Y115.215 E13.84452
G1 X104.915 Y115.680 E13.94363
G1 X104.252 Y115.873 E13.99353
G1 X103.421 Y116.070 E14.05519
G1 X102.911 Y116.172 E14.09270
G1 X102.229 Y116.281 E14.14260
G1 X100.861 Y116.410 E14.24177
G1 X99.830 Y116.432 E14.31622
G1 X99.138 Y116.410 E14.36622
G1 X97.771 Y116.281 E14.46536
G1 X96.753 Y116.108 E14.53991
G1 X96.079 Y115.958 E14.58981
G1 X95.085 Y115.680 E14.66432
G1 X93.794 Y115.215 E14.76338
G1 X92.849 Y114.795 E14.83802
G1 X92.234 Y114.481 E14.88791
G1 X91.340 Y113.965 E14.96244
G1 X90.204 Y113.193 E15.06161
G1 X89.395 Y112.552 E15.13612
G1 X88.876 Y112.095 E15.18604
G1 X87.905 Y111.124 E15.28519
G1 X87.448 Y110.605 E15.33509
G1 X86.916 Y109.937 E15.39678
G1 X86.606 Y109.520 E15.43427
G1 X86.218 Y108.948 E15.48417
G1 X85.519 Y107.766 E15.58333
G1 X85.025 Y106.762 E15.66411
G1 X84.660 Y105.891 E15.73236
G1 X84.425 Y105.240 E15.78229
G1 X84.043 Y103.922 E15.88135
G1 X83.828 Y102.911 E15.95598
G1 X83.719 Y102.229 E16.00588
G1 X83.612 Y101.202 E16.08043
G1 X83.568 Y99.830 E16.17949
G1 X83.590 Y99.138 E16.22950
G1 X83.677 Y98.110 E16.30399
G1 X83.828 Y97.089 E16.37854
G1 X84.127 Y95.748 E16.47771
G1 X84.426 Y94.760 E16.55225
G1 X84.660 Y94.110 E16.60214
G1 X85.205 Y92.849 E16.70129
G1 X85.519 Y92.234 E16.75119
G1 X86.035 Y91.340 E16.82572
G1 X86.606 Y90.480 E16.90025
G1 X87.448 Y89.395 E16.99940
G1 X87.905 Y88.876 E17.04932
G1 X88.341 Y88.426 E17.09457
G1 E15.09457 F1800.00000
G92 E0
G1 X90.537 Y90.537 F6000.000
G1 E2.00000 F1800.00000
G1 X90.863 Y90.215 E2.03307 F1200.000
G1 X91.495 Y89.661 E2.09379
G1 X92.100 Y89.191 E2.14911
G1 X92.795 Y88.716 E2.20983
G1 X93.517 Y88.286 E2.27055
G1 X94.266 Y87.902 E2.33127
G1 X95.154 Y87.515 E2.40126
G1 X95.248 Y87.353 E2.41476
G1 X98.144 Y86.704 E2.62904
G1 X98.240 Y86.730 E2.63618
G1 X99.197 Y86.636 E2.70564
G1 X100.162 Y86.616 E2.77531
G1 X100.878 Y86.641 E2.82704 F1200.000
G1 X101.660 Y86.714 E2.88371
G1 X102.546 Y86.856 E2.94853
G1 X103.366 Y87.042 E3.00924
G1 X104.101 Y87.256 E3.06454
G1 X104.893 Y87.538 E3.12525
G1 X105.666 Y87.870 E3.18599
G1 X106.483 Y88.286 E3.25213
G1 X107.142 Y88.676 E3.30743
G1 X107.839 Y89.147 E3.36816
G1 X108.563 Y89.708 E3.43429
G1 X109.137 Y90.215 E3.48961
G1 X109.734 Y90.808 E3.55033
G1 X110.339 Y91.495 E3.61647
G1 X110.923 Y92.264 E3.68620
G1 X111.324 Y92.858 E3.73791
G1 X111.714 Y93.517 E3.79321
G1 X112.130 Y94.333 E3.85934
G1 X112.434 Y95.037 E3.91468
G1 X112.648 Y95.625 E3.95984
G1 X112.958 Y96.634 E4.03608
G1 X113.158 Y97.528 E4.10223
G1 X113.286 Y98.340 E4.16161
G1 X113.359 Y99.122 E4.21829
G1 X113.388 Y100.037 E4.28438
G1 X113.364 Y100.803 E4.33973
G1 X113.286 Y101.660 E4.40181
G1 X113.158 Y102.472 E4.46119
G1 X112.958 Y103.366 E4.52733
G1 X112.721 Y104.173 E4.58806
G1 X112.434 Y104.963 E4.64873
G1 X112.130 Y105.666 E4.70408
G1 X111.714 Y106.483 E4.77022
G1 X111.324 Y107.142 E4.82552
G1 X110.853 Y107.839 E4.88625
G1 X110.292 Y108.563 E4.95239
G1 X109.734 Y109.192 E5.01312
G1 X109.192 Y109.734 E5.06842
G1 X108.563 Y110.292 E5.12915
G1 X107.900 Y110.809 E5.18987
G1 X107.142 Y111.324 E5.25602
G1 X106.417 Y111.750 E5.31674
G1 X105.734 Y112.098 E5.37204
G1 X104.963 Y112.434 E5.43279
G1 X104.101 Y112.744 E5.49891
G1 X103.366 Y112.958 E5.55421
G1 X102.756 Y113.097 E5.59939
G1 X101.660 Y113.286 E5.67971
G1 X100.803 Y113.364 E5.74183
G1 X100.038 Y113.388 E5.79708
G1 X99.412 Y113.371 E5.84228
G1 X98.340 Y113.286 E5.91989
G1 X97.454 Y113.144 E5.98471
G1 X96.634 Y112.958 E6.04542
G1 X95.899 Y112.744 E6.10072
G1 X95.037 Y112.434 E6.16682
G1 X94.266 Y112.098 E6.22758
G1 X93.583 Y111.750 E6.28289
G1 X92.858 Y111.324 E6.34361
G1 X92.100 Y110.809 E6.40975
G1 X91.437 Y110.292 E6.47047
G1 X90.863 Y109.785 E6.52579
G1 X90.215 Y109.137 E6.59192
G1 X89.708 Y108.563 E6.64723
G1 X89.323 Y108.070 E6.69241
G1 X88.716 Y107.205 E6.76866
G1 X88.250 Y106.417 E6.83480
G1 X87.821 Y105.552 E6.90451
G1 X87.539 Y104.894 E6.95623
G1 X87.279 Y104.173 E7.01154
G1 X87.024 Y103.294 E7.07765
G1 X86.842 Y102.472 E7.13841
G1 X86.714 Y101.660 E7.19779
G1 X86.636 Y100.803 E7.25990
G1 X86.612 Y100.038 E7.31516
G1 X86.629 Y99.412 E7.36035
G1 X86.714 Y98.340 E7.43796
G1 X86.941 Y96.902 E7.54310
G1 X87.002 Y96.801 E7.55166
G1 X87.256 Y95.899 E7.61931
G1 X87.538 Y95.107 E7.68002
G1 X87.902 Y94.266 E7.74617
G1 X88.286 Y93.517 E7.80690
G1 X88.676 Y92.858 E7.86220
G1 X89.147 Y92.161 E7.92293
G1 X89.708 Y91.437 E7.98906
G1 X90.215 Y90.863 E8.04438
G1 X90.495 Y90.580 E8.07311
G1 X90.844 Y90.844 F6000.000
G1 X91.155 Y90.536 E8.10471 F1200.000
G1 X91.767 Y89.999 E8.16345
G1 X92.361 Y89.538 E8.21779
G1 X93.033 Y89.079 E8.27654
G1 X93.733 Y88.663 E8.33530
G1 X94.457 Y88.292 E8.39405
G1 X95.203 Y87.967 E8.45282
G1 X95.608 Y87.819 E8.48398
G1 X95.682 Y87.701 E8.49406
G1 X98.049 Y87.170 E8.66916
G1 X98.118 Y87.188 E8.67433
G1 X98.392 Y87.145 E8.69434
G1 X99.218 Y87.070 E8.75423
G1 X100.030 Y87.046 E8.81293
G1 X100.783 Y87.070 E8.86729 F1200.000
G1 X101.608 Y87.145 E8.92715
G1 X102.397 Y87.270 E8.98481
G1 X103.251 Y87.461 E9.04799
G1 X104.032 Y87.690 E9.10675
G1 X104.740 Y87.945 E9.16105
G1 X105.296 Y88.183 E9.20475
G1 X106.214 Y88.634 E9.27855
G1 X106.967 Y89.079 E9.34174
G1 X107.589 Y89.502 E9.39606
G1 X108.233 Y89.999 E9.45482
G1 X108.845 Y90.536 E9.51358
G1 X109.464 Y91.155 E9.57676
G1 X110.001 Y91.767 E9.63551
G1 X110.462 Y92.361 E9.68984
G1 X110.954 Y93.085 E9.75303
G1 X111.337 Y93.733 E9.80735
G1 X111.708 Y94.457 E9.86610
G1 X112.033 Y95.203 E9.92487
G1 X112.329 Y96.026 E9.98804
G1 X112.554 Y96.808 E10.04677
G1 X112.719 Y97.543 E10.10113
G1 X112.855 Y98.392 E10.16321
G1 X112.930 Y99.218 E10.22310
G1 X112.954 Y99.969 E10.27738
G1 X112.937 Y100.574 E10.32110
G1 X112.855 Y101.609 E10.39600
G1 X112.718 Y102.458 E10.45811
G1 X112.539 Y103.251 E10.51684
G1 X112.329 Y103.974 E10.57116
G1 X112.033 Y104.797 E10.63432
G1 X111.734 Y105.488 E10.68868
G1 X111.366 Y106.214 E10.74743
G1 X110.954 Y106.915 E10.80618
G1 X110.462 Y107.639 E10.86937
G1 X109.961 Y108.281 E10.92812
G1 X109.464 Y108.845 E10.98245
G1 X108.845 Y109.464 E11.04563
G1 X108.281 Y109.961 E11.09996
G1 X107.804 Y110.334 E11.14365
G1 X106.967 Y110.921 E11.21745
G1 X106.214 Y111.366 E11.28063
G1 X105.488 Y111.734 E11.33937
G1 X104.797 Y112.033 E11.39372
G1 X103.974 Y112.329 E11.45689
G1 X103.251 Y112.539 E11.51121
G1 X102.661 Y112.673 E11.55491
G1 X101.608 Y112.855 E11.63204
G1 X100.782 Y112.930 E11.69193
G1 X100.031 Y112.954 E11.74621
G1 X99.426 Y112.937 E11.78992
G1 X98.391 Y112.855 E11.86483
G1 X97.542 Y112.718 E11.92694
G1 X96.749 Y112.539 E11.98567
G1 X96.026 Y112.329 E12.03999
G1 X95.203 Y112.033 E12.10315
G1 X94.457 Y111.708 E12.16193
G1 X93.786 Y111.366 E12.21626
G1 X93.085 Y110.954 E12.27501
G1 X92.361 Y110.462 E12.33820
G1 X91.719 Y109.961 E12.39695
G1 X91.155 Y109.464 E12.45128
G1 X90.536 Y108.845 E12.51446
G1 X90.039 Y108.281 E12.56879
G1 X89.666 Y107.804 E12.61248
G1 X89.079 Y106.967 E12.68628
G1 X88.634 Y106.214 E12.74946
G1 X88.219 Y105.379 E12.81673
G1 X87.945 Y104.740 E12.86695
G1 X87.690 Y104.032 E12.92128
G1 X87.446 Y103.192 E12.98444
G1 X87.270 Y102.397 E13.04322
G1 X87.145 Y101.608 E13.10088
G1 X87.070 Y100.782 E13.16077
G1 X87.046 Y100.031 E13.21505
G1 X87.063 Y99.426 E13.25876
G1 X87.145 Y98.392 E13.33367
G1 X87.347 Y97.115 E13.42694
G1 X87.395 Y97.037 E13.43359
G1 X87.461 Y96.749 E13.45492
G1 X87.690 Y95.968 E13.51368
G1 X87.967 Y95.203 E13.57240
G1 X88.292 Y94.457 E13.63118
G1 X88.634 Y93.786 E13.68551
G1 X89.046 Y93.085 E13.74426
G1 X89.502 Y92.411 E13.80301
G1 X90.039 Y91.719 E13.86620
G1 X90.536 Y91.155 E13.92053
G1 X90.802 Y90.887 E13.94779
G1 X91.151 Y91.151 F6000.000
G1 X91.447 Y90.857 E13.97790 F1200.000
G1 X92.038 Y90.338 E14.03468
G1 X92.660 Y89.857 E14.09147
G1 X93.312 Y89.417 E14.14826
G1 X93.948 Y89.041 E14.20160
G1 X94.648 Y88.682 E14.25838
G1 X95.369 Y88.368 E14.31518
G1 X96.078 Y88.112 E14.36960
G1 X96.118 Y88.048 E14.37505
G1 X97.953 Y87.636 E14.51087
G1 X97.996 Y87.647 E14.51406
G1 X98.443 Y87.577 E14.54671
G1 X99.190 Y87.507 E14.60092
G1 X100.135 Y87.484 E14.66914
G1 X100.810 Y87.507 E14.71791 F1200.000
G1 X101.557 Y87.577 E14.77212
G1 X102.370 Y87.707 E14.83151
G1 X103.090 Y87.868 E14.88483
G1 X103.846 Y88.086 E14.94162
G1 X104.586 Y88.351 E14.99840
G1 X105.309 Y88.662 E15.05520
G1 X106.052 Y89.041 E15.11543
G1 X106.688 Y89.417 E15.16876
G1 X107.339 Y89.857 E15.22555
G1 X107.999 Y90.369 E15.28578
G1 X108.588 Y90.890 E15.34257
G1 X109.110 Y91.412 E15.39591
G1 X109.662 Y92.038 E15.45614
G1 X110.143 Y92.660 E15.51292
G1 X110.558 Y93.272 E15.56627
G1 X110.959 Y93.948 E15.62305
G1 X111.338 Y94.691 E15.68327
G1 X111.632 Y95.369 E15.73663
G1 X111.831 Y95.919 E15.77884
G1 X112.120 Y96.863 E15.85017
G1 X112.302 Y97.678 E15.91040
G1 X112.423 Y98.443 E15.96633
G1 X112.493 Y99.190 E16.02054
G1 X112.520 Y100.024 E16.08075
G1 X112.496 Y100.762 E16.13411
G1 X112.423 Y101.557 E16.19176
G1 X112.302 Y102.323 E16.24769
G1 X112.132 Y103.090 E16.30447
G1 X111.899 Y103.892 E16.36471
G1 X111.649 Y104.586 E16.41804
G1 X111.418 Y105.124 E16.46026
G1 X110.982 Y106.010 E16.53159
G1 X110.583 Y106.688 E16.58838
G1 X110.115 Y107.378 E16.64861
G1 X109.631 Y107.999 E16.70539
G1 X109.143 Y108.553 E16.75874
G1 X108.553 Y109.143 E16.81897
G1 X107.999 Y109.631 E16.87231
G1 X107.538 Y109.991 E16.91453
G1 X106.728 Y110.558 E16.98586
G1 X106.010 Y110.982 E17.04609
G1 X105.309 Y111.338 E17.10287
G1 X104.631 Y111.632 E17.15623
G1 X103.846 Y111.914 E17.21645
G1 X103.137 Y112.120 E17.26978
G1 X102.566 Y112.249 E17.31200
G1 X101.557 Y112.423 E17.38593
G1 X100.762 Y112.496 E17.44360
G1 X100.024 Y112.520 E17.49690
G1 X99.439 Y112.503 E17.53914
G1 X98.443 Y112.423 E17.61133
G1 X97.630 Y112.293 E17.67073
G1 X96.863 Y112.120 E17.72750
G1 X96.154 Y111.914 E17.78083
G1 X95.369 Y111.632 E17.84104
G1 X94.648 Y111.318 E17.89785
G1 X93.990 Y110.982 E17.95119
G1 X93.312 Y110.583 E18.00797
G1 X92.622 Y110.114 E18.06821
G1 X92.038 Y109.662 E18.12155
G1 X91.599 Y109.276 E18.16376
G1 X90.890 Y108.588 E18.23510
G1 X90.338 Y107.962 E18.29533
G1 X89.885 Y107.378 E18.34867
G1 X89.442 Y106.728 E18.40546
G1 X89.018 Y106.010 E18.46568
G1 X88.618 Y105.207 E18.53049
G1 X88.351 Y104.587 E18.57924
G1 X88.101 Y103.891 E18.63258
G1 X87.868 Y103.091 E18.69280
G1 X87.698 Y102.322 E18.74960
G1 X87.577 Y101.557 E18.80553
G1 X87.504 Y100.762 E18.86320
G1 X87.480 Y100.024 E18.91651
G1 X87.497 Y99.439 E18.95874
G1 X87.577 Y98.443 E19.03094
G1 X87.753 Y97.329 E19.11235
G1 X87.787 Y97.273 E19.11708
G1 X87.880 Y96.863 E19.14740
