; generated by Slic3r 1.2.9 on 2016-11-25 at 12:20:59

; external perimeters extrusion width = 0.40mm
; perimeters extrusion width = 0.67mm
; infill extrusion width = 0.67mm
; solid infill extrusion width = 0.67mm
; top infill extrusion width = 0.26mm

M190 S100 ; set bed temperature
M104 S255 ; set temperature
G28 ; home all axes
G1 Z5 F5000 ; lift nozzle

M109 S255 ; wait for temperature to be reached
G21 ; set units to millimeters
G90 ; use absolute coordinates
M82 ; use absolute distances for extrusion
G92 E0
G1 E-2.00000 F1800.00000
G92 E0
G1 Z0.400 F6000.000
G1 X66.106 Y66.106 F6000.000
G1 E2.00000 F1800.00000
M204 S2000
G1 X67.125 Y65.117 E2.10253 F1200.000
G1 X68.237 Y64.101 E2.21129
G1 X69.512 Y63.012 E2.33233
G1 X70.554 Y62.177 E2.42873
G1 X71.756 Y61.271 E2.53743
G1 X73.128 Y60.307 E2.65849
G1 X74.945 Y59.123 E2.81507
G1 X77.126 Y57.864 E2.99688
G1 X78.315 Y57.252 E3.09343
G1 X79.668 Y56.592 E3.20216
G1 X81.042 Y55.975 E3.31088
G1 X82.275 Y55.464 E3.40728
G1 X83.683 Y54.929 E3.51599
G1 X85.107 Y54.439 E3.62471
G1 X86.709 Y53.946 E3.74575
G1 X88.162 Y53.551 E3.85447
G1 X89.460 Y53.240 E3.95087
G1 X91.102 Y52.900 E4.07190
G1 X92.586 Y52.643 E4.18063
G1 X93.908 Y52.455 E4.27705
G1 X95.574 Y52.271 E4.39810
G1 X97.059 Y52.157 E4.50559
G1 X98.727 Y52.073 E4.62621
G1 X101.273 Y52.073 E4.81002
G1 X103.095 Y52.166 E4.94172 F1200.000
G1 X104.596 Y52.287 E5.05047
G1 X106.092 Y52.455 E5.15917
G1 X107.414 Y52.643 E5.25558
G1 X108.898 Y52.900 E5.36433
G1 X110.540 Y53.240 E5.48536
G1 X112.003 Y53.594 E5.59406
G1 X113.291 Y53.946 E5.69047
G1 X114.731 Y54.386 E5.79920
G1 X116.317 Y54.929 E5.92022
G1 X117.725 Y55.464 E6.02895
G1 X119.115 Y56.043 E6.13768
G1 X120.486 Y56.665 E6.24641
G1 X121.785 Y57.302 E6.35085
G1 X123.101 Y57.988 E6.45800
G1 X125.055 Y59.123 E6.62116
G1 X127.013 Y60.403 E6.79004
G1 X128.105 Y61.171 E6.88646
G1 X129.311 Y62.073 E6.99519
G1 X130.620 Y63.121 E7.11621
G1 X131.763 Y64.101 E7.22494
G1 X132.750 Y64.999 E7.32134
G1 X133.834 Y66.046 E7.43011
G1 X135.001 Y67.250 E7.55113
G1 X136.012 Y68.365 E7.65985
G1 X136.879 Y69.380 E7.75625
G1 X137.823 Y70.554 E7.86496
G1 X138.729 Y71.756 E7.97367
G1 X139.693 Y73.128 E8.09473
G1 X141.012 Y75.167 E8.27007
G1 X142.012 Y76.899 E8.41446
G1 X142.748 Y78.315 E8.52966
G1 X143.335 Y79.514 E8.62606
G1 X143.957 Y80.885 E8.73479
G1 X144.599 Y82.434 E8.85583
G1 X145.071 Y83.683 E8.95223
G1 X145.561 Y85.107 E9.06094
G1 X146.054 Y86.709 E9.18199
G1 X146.406 Y87.997 E9.27839
G1 X146.761 Y89.460 E9.38711
G1 X147.100 Y91.102 E9.50813
G1 X147.357 Y92.586 E9.61688
G1 X147.545 Y93.908 E9.71328
G1 X147.713 Y95.404 E9.82200
G1 X147.843 Y97.059 E9.94182
G1 X147.934 Y99.000 E10.08215
G1 X147.934 Y101.000 E10.22655
G1 X147.834 Y103.095 E10.37797
G1 X147.729 Y104.426 E10.47437
G1 X147.566 Y105.923 E10.58313
G1 X147.330 Y107.583 E10.70416
G1 X147.100 Y108.899 E10.80060
G1 X146.798 Y110.373 E10.90927
G1 X146.406 Y112.003 E11.03031
G1 X146.054 Y113.291 E11.12672
G1 X145.624 Y114.699 E11.23302
G1 X145.128 Y116.157 E11.34419
G1 X144.599 Y117.566 E11.45288
G1 X143.957 Y119.115 E11.57391
G1 X143.335 Y120.486 E11.68264
G1 X142.698 Y121.785 E11.78708
G1 X142.012 Y123.101 E11.89424
G1 X140.877 Y125.055 E12.05739
G1 X139.693 Y126.872 E12.21401
G1 X138.729 Y128.244 E12.33503
G1 X137.823 Y129.446 E12.44375
G1 X136.987 Y130.489 E12.54018
G1 X136.034 Y131.609 E12.64644
G1 X135.000 Y132.751 E12.75758
G1 X133.834 Y133.954 E12.87859
G1 X132.751 Y135.000 E12.98735
G1 X131.763 Y135.899 E13.08376
G1 X130.489 Y136.987 E13.20476
G1 X129.311 Y137.927 E13.31350
G1 X128.244 Y138.729 E13.40991
G1 X126.872 Y139.693 E13.53092
G1 X125.055 Y140.877 E13.68754
G1 X123.101 Y142.012 E13.85070
G1 X121.686 Y142.748 E13.96587
G1 X120.332 Y143.408 E14.07462
G1 X118.959 Y144.025 E14.18330
G1 X117.725 Y144.536 E14.27974
G1 X116.157 Y145.128 E14.40075
G1 X114.731 Y145.614 E14.50949
G1 X113.455 Y146.006 E14.60590
G1 X111.838 Y146.449 E14.72694
G1 X110.373 Y146.798 E14.83567
G1 X109.065 Y147.068 E14.93208
G1 X107.414 Y147.357 E15.05310
G1 X105.923 Y147.566 E15.16181
G1 X104.596 Y147.713 E15.25823
G1 X103.095 Y147.834 E15.36696
G1 X101.273 Y147.927 E15.49868
G1 X99.000 Y147.934 E15.66279
G1 X97.059 Y147.843 E15.80312
G1 X95.404 Y147.713 E15.92294
G1 X93.908 Y147.545 E16.03165
G1 X92.417 Y147.330 E16.14040
G1 X91.102 Y147.100 E16.23680
G1 X89.627 Y146.798 E16.34548
G1 X88.162 Y146.449 E16.45423
G1 X86.545 Y146.006 E16.57527
G1 X85.269 Y145.614 E16.67167
G1 X83.843 Y145.129 E16.78039
G1 X82.275 Y144.536 E16.90143
G1 X81.042 Y144.025 E16.99782
G1 X79.668 Y143.408 E17.10654
G1 X78.315 Y142.748 E17.21527
G1 X76.899 Y142.012 E17.33047
G1 X74.945 Y140.877 E17.49363
G1 X73.128 Y139.693 E17.65021
G1 X71.756 Y138.729 E17.77126
G1 X70.689 Y137.927 E17.86765
G1 X69.512 Y136.988 E17.97638
G1 X68.237 Y135.899 E18.09741
G1 X67.125 Y134.883 E18.20618
G1 X66.166 Y133.954 E18.30257
G1 X65.117 Y132.875 E18.41123
G1 X63.988 Y131.635 E18.53232
G1 X63.121 Y130.620 E18.62872
G1 X62.177 Y129.446 E18.73743
G1 X61.271 Y128.244 E18.84614
G1 X60.307 Y126.872 E18.96720
G1 X59.123 Y125.055 E19.12378
G1 X57.988 Y123.101 E19.28694
G1 X57.302 Y121.785 E19.39408
G1 X56.665 Y120.486 E19.49853
G1 X56.043 Y119.115 E19.60726
G1 X55.401 Y117.566 E19.72830
G1 X54.929 Y116.317 E19.82472
G1 X54.450 Y114.925 E19.93101
G1 X53.994 Y113.455 E20.04213
G1 X53.551 Y111.838 E20.16318
G1 X53.240 Y110.540 E20.25957
G1 X52.931 Y109.065 E20.36832
G1 X52.643 Y107.414 E20.48935
G1 X52.455 Y106.092 E20.58576
G1 X52.287 Y104.596 E20.69447
G1 X52.166 Y103.095 E20.80322
G1 X52.066 Y101.000 E20.95462
G1 X52.066 Y99.000 E21.09902
G1 X52.157 Y97.059 E21.23935
G1 X52.287 Y95.404 E21.35917
G1 X52.434 Y94.077 E21.45558
G1 X52.639 Y92.619 E21.56190
G1 X52.900 Y91.102 E21.67304
G1 X53.240 Y89.460 E21.79407
G1 X53.551 Y88.162 E21.89047
G1 X53.946 Y86.709 E21.99919
G1 X54.439 Y85.107 E22.12022
G1 X54.871 Y83.843 E22.21663
G1 X55.401 Y82.434 E22.32534
G1 X55.975 Y81.042 E22.43405
G1 X56.665 Y79.514 E22.55511
G1 X57.252 Y78.315 E22.65151
G1 X57.864 Y77.126 E22.74805
G1 X58.988 Y75.167 E22.91110
G1 X60.307 Y73.128 E23.08644
G1 X61.171 Y71.895 E23.19516
G1 X62.073 Y70.689 E23.30389
G1 X63.121 Y69.380 E23.42492
G1 X63.988 Y68.365 E23.52133
G1 X64.999 Y67.250 E23.63004
G1 X66.064 Y66.148 E23.74060
G1 E21.74060 F1800.00000
G92 E0
G1 X68.260 Y68.260 F6000.000
G1 E2.00000 F1800.00000
G1 X69.258 Y67.291 E2.10045 F1200.000
G1 X70.301 Y66.341 E2.20227
G1 X71.402 Y65.401 E2.30680
G1 X72.473 Y64.543 E2.40590
G1 X73.600 Y63.696 E2.50771
G1 X74.754 Y62.885 E2.60953
G1 X75.745 Y62.233 E2.69521
G1 X75.821 Y62.127 E2.70458
G1 X79.292 Y60.123 E2.99396
G1 X79.425 Y60.108 E3.00356
G1 X80.905 Y59.376 E3.12279
G1 X82.190 Y58.796 E3.22461
G1 X83.493 Y58.257 E3.32642
G1 X84.812 Y57.760 E3.42822
G1 X86.111 Y57.315 E3.52733
G1 X87.495 Y56.889 E3.63185
G1 X88.819 Y56.527 E3.73096
G1 X90.190 Y56.197 E3.83277
G1 X91.570 Y55.911 E3.93459
G1 X92.959 Y55.668 E4.03640
G1 X94.355 Y55.468 E4.13822
G1 X95.757 Y55.313 E4.24003
G1 X97.163 Y55.202 E4.34184
G1 X97.872 Y55.168 E4.39314
G1 X97.999 Y55.112 E4.40309
G1 X102.001 Y55.112 E4.69211
G1 X102.128 Y55.168 E4.70206
G1 X102.837 Y55.202 E4.75335 F1200.000
G1 X104.206 Y55.310 E4.85246
G1 X105.644 Y55.468 E4.95698
G1 X107.041 Y55.668 E5.05881
G1 X108.393 Y55.904 E5.15791
G1 X109.774 Y56.189 E5.25972
G1 X111.145 Y56.518 E5.36153
G1 X112.541 Y56.900 E5.46606
G1 X113.853 Y57.303 E5.56516
G1 X115.188 Y57.760 E5.66697
G1 X116.542 Y58.271 E5.77149
G1 X117.810 Y58.796 E5.87060
G1 X119.095 Y59.376 E5.97241
G1 X120.576 Y60.109 E6.09170
G1 X120.708 Y60.124 E6.10130
G1 X124.179 Y62.128 E6.39063
G1 X124.255 Y62.233 E6.40000
G1 X125.246 Y62.885 E6.48566
G1 X126.369 Y63.674 E6.58478
G1 X127.497 Y64.520 E6.68660
G1 X128.598 Y65.401 E6.78840
G1 X129.699 Y66.341 E6.89292
G1 X130.714 Y67.265 E6.99203
G1 X131.727 Y68.246 E7.09385
G1 X132.735 Y69.286 E7.19837
G1 X133.683 Y70.329 E7.30018
G1 X134.599 Y71.402 E7.40199
G1 X135.457 Y72.473 E7.50110
G1 X136.326 Y73.631 E7.60562
G1 X137.115 Y74.754 E7.70474
G1 X137.767 Y75.745 E7.79041
G1 X137.873 Y75.821 E7.79979
G1 X139.877 Y79.294 E8.08927
G1 X139.892 Y79.426 E8.09887
G1 X140.624 Y80.905 E8.21799
G1 X141.204 Y82.190 E8.31981
G1 X141.729 Y83.458 E8.41890
G1 X142.228 Y84.777 E8.52071
G1 X142.685 Y86.111 E8.62252
G1 X143.111 Y87.495 E8.72706
G1 X143.482 Y88.855 E8.82887
G1 X143.811 Y90.226 E8.93069
G1 X144.096 Y91.607 E9.03249
G1 X144.332 Y92.959 E9.13158
G1 X144.532 Y94.355 E9.23341
G1 X144.687 Y95.757 E9.33522
G1 X144.798 Y97.163 E9.43705
G1 X144.832 Y97.872 E9.48834
G1 X144.888 Y97.999 E9.49830
G1 X144.888 Y102.001 E9.78731
G1 X144.832 Y102.128 E9.79726
G1 X144.798 Y102.837 E9.84856
G1 X144.687 Y104.243 E9.95037
G1 X144.532 Y105.645 E10.05219
G1 X144.332 Y107.041 E10.15401
G1 X144.096 Y108.393 E10.25313
G1 X143.822 Y109.723 E10.35116
G1 X143.482 Y111.145 E10.45673
G1 X143.111 Y112.505 E10.55855
G1 X142.685 Y113.889 E10.66307
G1 X142.228 Y115.223 E10.76489
G1 X141.729 Y116.542 E10.86670
G1 X141.203 Y117.810 E10.96582
G1 X140.624 Y119.095 E11.06761
G1 X139.891 Y120.576 E11.18687
G1 X139.876 Y120.708 E11.19647
G1 X137.872 Y124.179 E11.48588
G1 X137.767 Y124.255 E11.49526
G1 X137.115 Y125.246 E11.58088
G1 X136.326 Y126.369 E11.67998
G1 X135.457 Y127.527 E11.78451
G1 X134.599 Y128.598 E11.88362
G1 X133.717 Y129.631 E11.98166
G1 X132.735 Y130.714 E12.08724
G1 X131.727 Y131.754 E12.19175
G1 X130.742 Y132.709 E12.29085
G1 X129.699 Y133.659 E12.39268
G1 X128.598 Y134.599 E12.49719
G1 X127.497 Y135.480 E12.59901
G1 X126.369 Y136.326 E12.70083
G1 X125.246 Y137.115 E12.79993
G1 X124.255 Y137.767 E12.88555
G1 X124.179 Y137.872 E12.89492
G1 X120.708 Y139.876 E13.18434
G1 X120.576 Y139.891 E13.19394
G1 X119.095 Y140.624 E13.31320
G1 X117.810 Y141.203 E13.41499
G1 X116.507 Y141.743 E13.51682
G1 X115.188 Y142.240 E13.61862
G1 X113.889 Y142.685 E13.71774
G1 X112.541 Y143.100 E13.81955
G1 X111.181 Y143.473 E13.92137
G1 X109.774 Y143.811 E14.02588
G1 X108.393 Y144.096 E14.12768
G1 X107.041 Y144.332 E14.22680
G1 X105.645 Y144.532 E14.32862
G1 X104.205 Y144.690 E14.43315
G1 X102.837 Y144.798 E14.53225
G1 X102.128 Y144.832 E14.58355
G1 X102.001 Y144.888 E14.59350
G1 X97.999 Y144.888 E14.88251
G1 X97.872 Y144.832 E14.89247
G1 X97.163 Y144.798 E14.94376
G1 X95.794 Y144.690 E15.04287
G1 X94.355 Y144.532 E15.14740
G1 X92.996 Y144.338 E15.24650
G1 X91.607 Y144.096 E15.34832
G1 X90.190 Y143.803 E15.45283
G1 X88.855 Y143.482 E15.55194
G1 X87.495 Y143.111 E15.65375
G1 X86.147 Y142.697 E15.75557
G1 X84.812 Y142.240 E15.85739
G1 X83.458 Y141.729 E15.96191
G1 X82.190 Y141.204 E16.06100
G1 X80.905 Y140.624 E16.16282
G1 X79.426 Y139.892 E16.28194
G1 X79.294 Y139.877 E16.29154
G1 X75.821 Y137.873 E16.58102
G1 X75.745 Y137.767 E16.59040
G1 X74.754 Y137.115 E16.67607
G1 X73.631 Y136.326 E16.77519
G1 X72.503 Y135.480 E16.87700
G1 X71.373 Y134.575 E16.98153
G1 X70.329 Y133.683 E17.08063
G1 X69.286 Y132.735 E17.18244
G1 X68.273 Y131.754 E17.28426
G1 X67.265 Y130.714 E17.38878
G1 X66.317 Y129.671 E17.49059
G1 X65.425 Y128.627 E17.58970
G1 X64.543 Y127.527 E17.69150
G1 X63.674 Y126.369 E17.79603
G1 X62.885 Y125.246 E17.89515
G1 X62.233 Y124.255 E17.98081
G1 X62.128 Y124.179 E17.99018
G1 X60.124 Y120.708 E18.27951
G1 X60.109 Y120.576 E18.28911
G1 X59.376 Y119.095 E18.40840
G1 X58.811 Y117.844 E18.50750
G1 X58.271 Y116.542 E18.60932
G1 X57.772 Y115.223 E18.71113
G1 X57.303 Y113.853 E18.81565
G1 X56.889 Y112.505 E18.91746
G1 X56.527 Y111.181 E19.01658
G1 X56.197 Y109.810 E19.11838
G1 X55.904 Y108.393 E19.22290
G1 X55.668 Y107.041 E19.32200
G1 X55.468 Y105.644 E19.42383
G1 X55.310 Y104.206 E19.52835
G1 X55.202 Y102.837 E19.62746
G1 X55.168 Y102.128 E19.67875
G1 X55.112 Y102.001 E19.68870
G1 X55.112 Y97.999 E19.97772
G1 X55.168 Y97.872 E19.98767
G1 X55.202 Y97.163 E20.03897
G1 X55.313 Y95.757 E20.14078
G1 X55.464 Y94.393 E20.23989
G1 X55.662 Y92.996 E20.34171
G1 X55.911 Y91.570 E20.44622
G1 X56.197 Y90.190 E20.54804
G1 X56.518 Y88.855 E20.64714
G1 X56.900 Y87.459 E20.75166
G1 X57.315 Y86.111 E20.85348
G1 X57.760 Y84.812 E20.95259
G1 X58.257 Y83.493 E21.05439
G1 X58.796 Y82.190 E21.15620
G1 X59.376 Y80.905 E21.25802
G1 X60.108 Y79.425 E21.37725
G1 X60.123 Y79.292 E21.38685
G1 X62.127 Y75.821 E21.67623
G1 X62.233 Y75.745 E21.68560
G1 X62.885 Y74.754 E21.77128
G1 X63.696 Y73.600 E21.87310
G1 X64.543 Y72.473 E21.97491
G1 X65.425 Y71.373 E22.07672
G1 X66.341 Y70.301 E22.17854
G1 X67.265 Y69.286 E22.27764
G1 X68.218 Y68.302 E22.37648
G1 X68.567 Y68.567 F6000.000
G1 X69.558 Y67.605 E22.47619 F1200.000
G1 X70.591 Y66.665 E22.57703
G1 X71.676 Y65.738 E22.68007
G1 X72.742 Y64.884 E22.77869
G1 X73.858 Y64.045 E22.87951
G1 X75.001 Y63.242 E22.98035
G1 X76.122 Y62.505 E23.07721
G1 X76.183 Y62.420 E23.08478
G1 X79.361 Y60.585 E23.34973
G1 X79.477 Y60.572 E23.35815
G1 X81.059 Y59.784 E23.48575
G1 X82.331 Y59.208 E23.58657
G1 X83.650 Y58.662 E23.68962
G1 X84.956 Y58.169 E23.79044
G1 X86.248 Y57.727 E23.88906
G1 X87.660 Y57.294 E23.99562
G1 X88.960 Y56.939 E24.09293
G1 X90.318 Y56.613 E24.19376
G1 X91.685 Y56.331 E24.29458
G1 X93.031 Y56.096 E24.39319
G1 X94.413 Y55.899 E24.49403
G1 X95.801 Y55.745 E24.59486
G1 X97.193 Y55.635 E24.69569
G1 X98.061 Y55.594 E24.75837
G1 X98.168 Y55.546 E24.76682
G1 X101.832 Y55.546 E25.03140
G1 X101.939 Y55.594 E25.03986 F1200.000
G1 X102.806 Y55.635 E25.10254
G1 X104.168 Y55.742 E25.20115
G1 X105.587 Y55.899 E25.30420
G1 X106.969 Y56.096 E25.40503
G1 X108.315 Y56.331 E25.50365
G1 X109.682 Y56.613 E25.60447
G1 X111.040 Y56.939 E25.70530
G1 X112.417 Y57.316 E25.80834
G1 X113.722 Y57.717 E25.90696
G1 X115.044 Y58.169 E26.00779
G1 X116.379 Y58.674 E26.11083
G1 X117.669 Y59.208 E26.21166
G1 X118.941 Y59.784 E26.31248
G1 X120.524 Y60.572 E26.44013
G1 X120.639 Y60.585 E26.44855
G1 X123.817 Y62.420 E26.71346
G1 X123.878 Y62.505 E26.72102
G1 X124.999 Y63.242 E26.81788
G1 X126.117 Y64.027 E26.91650
G1 X127.234 Y64.865 E27.01733
G1 X128.324 Y65.738 E27.11816
G1 X129.409 Y66.665 E27.22120
G1 X130.442 Y67.605 E27.32204
G1 X131.423 Y68.556 E27.42065
G1 X132.395 Y69.558 E27.52146
G1 X133.355 Y70.614 E27.62452
G1 X134.242 Y71.652 E27.72312
G1 X135.116 Y72.742 E27.82396
G1 X135.973 Y73.883 E27.92700
G1 X136.758 Y75.001 E28.02562
G1 X137.495 Y76.122 E28.12249
G1 X137.580 Y76.183 E28.13005
G1 X139.416 Y79.362 E28.39509
G1 X139.429 Y79.478 E28.40351
G1 X140.216 Y81.059 E28.53101
G1 X140.804 Y82.359 E28.63406
G1 X141.338 Y83.650 E28.73489
G1 X141.831 Y84.956 E28.83571
G1 X142.273 Y86.248 E28.93432
G1 X142.693 Y87.613 E29.03737
G1 X143.061 Y88.960 E29.13820
G1 X143.387 Y90.318 E29.23904
G1 X143.663 Y91.655 E29.33764
G1 X143.904 Y93.031 E29.43846
G1 X144.101 Y94.413 E29.53930
G1 X144.255 Y95.801 E29.64013
G1 X144.365 Y97.193 E29.74096
G1 X144.406 Y98.061 E29.80365
G1 X144.454 Y98.168 E29.81210
G1 X144.454 Y101.832 E30.07668
G1 X144.406 Y101.939 E30.08513
G1 X144.365 Y102.807 E30.14782
G1 X144.255 Y104.199 E30.24865
G1 X144.101 Y105.587 E30.34948
G1 X143.904 Y106.969 E30.45031
G1 X143.669 Y108.315 E30.54893
G1 X143.396 Y109.635 E30.64623
G1 X143.061 Y111.040 E30.75057
G1 X142.693 Y112.387 E30.85140
G1 X142.273 Y113.752 E30.95445
G1 X141.831 Y115.044 E31.05307
G1 X141.355 Y116.305 E31.15037
G1 X140.804 Y117.641 E31.25473
G1 X140.216 Y118.941 E31.35776
G1 X139.428 Y120.523 E31.48538
G1 X139.415 Y120.639 E31.49380
G1 X137.580 Y123.817 E31.75878
G1 X137.495 Y123.879 E31.76635
G1 X136.758 Y124.999 E31.86316
G1 X135.973 Y126.117 E31.96177
G1 X135.116 Y127.258 E32.06482
G1 X134.262 Y128.324 E32.16344
G1 X133.387 Y129.349 E32.26074
G1 X132.416 Y130.420 E32.36509
G1 X131.423 Y131.444 E32.46812
G1 X130.442 Y132.395 E32.56673
G1 X129.409 Y133.335 E32.66757
G1 X128.324 Y134.262 E32.77061
G1 X127.234 Y135.135 E32.87144
G1 X126.117 Y135.973 E32.97228
G1 X124.999 Y136.758 E33.07089
G1 X123.879 Y137.495 E33.16770
G1 X123.817 Y137.580 E33.17527
G1 X120.639 Y139.415 E33.44025
G1 X120.523 Y139.428 E33.44867
G1 X118.941 Y140.216 E33.57629
G1 X117.669 Y140.792 E33.67711
G1 X116.350 Y141.338 E33.78016
G1 X115.044 Y141.831 E33.88098
G1 X113.752 Y142.273 E33.97960
G1 X112.417 Y142.684 E34.08043
