; generated by Slic3r 1.2.9 on 2018-09-22 at 09:57:00

; external perimeters extrusion width = 0.40mm
; perimeters extrusion width = 0.67mm
; infill extrusion width = 0.67mm
; solid infill extrusion width = 0.67mm
; top infill extrusion width = 0.26mm

M107
M190 S78 ; set bed temperature
M104 S245 ; set temperature
G28 ; home all axes
G1 Z5 F5000 ; lift nozzle

M109 S245 ; wait for temperature to be reached
G21 ; set units to millimeters
G90 ; use absolute coordinates
M82 ; use absolute distances for extrusion
G92 E0
G1 E-2.00000 F1800.00000
G92 E0
G1 Z0.400 F6000.000
G1 X65.799 Y65.799 F6000.000
G1 E2.00000 F1800.00000
M204 S2000
G1 X66.823 Y64.805 E2.10302 F1200.000
G1 X67.945 Y63.780 E2.21277
G1 X69.240 Y62.673 E2.33577
G1 X70.282 Y61.839 E2.43217
G1 X71.496 Y60.924 E2.54187
G1 X72.890 Y59.944 E2.66489
G1 X74.710 Y58.758 E2.82178
G1 X76.927 Y57.478 E3.00658
G1 X78.124 Y56.862 E3.10377
G1 X79.490 Y56.196 E3.21348
G1 X80.706 Y55.647 E3.30987
G1 X82.109 Y55.063 E3.41959
G1 X83.529 Y54.523 E3.52929
G1 X84.966 Y54.028 E3.63899
G1 X86.594 Y53.527 E3.76199
G1 X88.060 Y53.129 E3.87169
G1 X89.359 Y52.817 E3.96810
G1 X91.027 Y52.472 E4.09110
G1 X92.524 Y52.213 E4.20082
G1 X93.847 Y52.025 E4.29723
G1 X95.540 Y51.838 E4.42026
G1 X97.037 Y51.723 E4.52863
G1 X98.705 Y51.639 E4.64925
G1 X101.295 Y51.639 E4.83621
G1 X103.129 Y51.734 E4.96879 F1200.000
G1 X104.644 Y51.856 E5.07853
G1 X106.153 Y52.025 E5.18822
G1 X107.475 Y52.213 E5.28463
G1 X108.973 Y52.472 E5.39436
G1 X110.641 Y52.817 E5.51736
G1 X112.118 Y53.175 E5.62705
G1 X113.406 Y53.527 E5.72346
G1 X115.034 Y54.028 E5.84647
G1 X116.471 Y54.523 E5.95617
G1 X117.891 Y55.063 E6.06588
G1 X119.294 Y55.647 E6.17559
G1 X120.677 Y56.275 E6.28529
G1 X121.984 Y56.916 E6.39039
G1 X123.318 Y57.612 E6.49903
G1 X125.290 Y58.758 E6.66368
G1 X127.262 Y60.048 E6.83385
G1 X128.355 Y60.816 E6.93027
G1 X129.572 Y61.726 E7.03999
G1 X130.901 Y62.791 E7.16297
G1 X132.055 Y63.780 E7.27269
G1 X133.043 Y64.678 E7.36909
G1 X134.136 Y65.734 E7.47884
G1 X135.322 Y66.957 E7.60184
G1 X136.342 Y68.083 E7.71154
G1 X137.209 Y69.098 E7.80794
G1 X138.161 Y70.282 E7.91763
G1 X139.076 Y71.496 E8.02733
G1 X140.056 Y72.890 E8.15036
G1 X141.388 Y74.950 E8.32750
G1 X142.388 Y76.682 E8.47190
G1 X143.138 Y78.124 E8.58923
G1 X143.725 Y79.323 E8.68563
G1 X144.353 Y80.706 E8.79534
G1 X145.005 Y82.280 E8.91836
G1 X145.477 Y83.529 E9.01475
G1 X145.972 Y84.966 E9.12445
G1 X146.473 Y86.594 E9.24747
G1 X146.825 Y87.882 E9.34387
G1 X147.183 Y89.359 E9.45357
G1 X147.528 Y91.027 E9.57657
G1 X147.787 Y92.525 E9.68630
G1 X147.998 Y94.029 E9.79600
G1 X148.144 Y95.356 E9.89240
G1 X148.277 Y97.037 E10.01409
G1 X148.368 Y99.000 E10.15599
G1 X148.368 Y101.000 E10.30040
G1 X148.266 Y103.129 E10.45427
G1 X148.162 Y104.460 E10.55067
G1 X147.998 Y105.971 E10.66041
G1 X147.758 Y107.658 E10.78342
G1 X147.528 Y108.974 E10.87988
G1 X147.230 Y110.428 E10.98708
G1 X146.871 Y111.939 E11.09923
G1 X146.421 Y113.583 E11.22223
G1 X146.029 Y114.859 E11.31865
G1 X145.539 Y116.298 E11.42838
G1 X145.005 Y117.720 E11.53806
G1 X144.353 Y119.294 E11.66105
G1 X143.725 Y120.677 E11.77076
G1 X143.084 Y121.984 E11.87585
G1 X142.388 Y123.318 E11.98449
G1 X141.242 Y125.290 E12.14915
G1 X140.055 Y127.111 E12.30608
G1 X139.076 Y128.504 E12.42906
G1 X138.161 Y129.718 E12.53876
G1 X137.326 Y130.760 E12.63519
G1 X136.364 Y131.891 E12.74244
G1 X135.322 Y133.043 E12.85456
G1 X134.136 Y134.266 E12.97754
G1 X133.177 Y135.195 E13.07394
G1 X132.055 Y136.220 E13.18369
G1 X130.760 Y137.326 E13.30666
G1 X129.572 Y138.274 E13.41639
G1 X128.504 Y139.076 E13.51280
G1 X127.111 Y140.055 E13.63577
G1 X125.290 Y141.242 E13.79271
G1 X123.318 Y142.388 E13.95736
G1 X121.877 Y143.138 E14.07467
G1 X120.480 Y143.817 E14.18681
G1 X119.125 Y144.426 E14.29408
G1 X117.891 Y144.937 E14.39051
G1 X116.298 Y145.539 E14.51348
G1 X114.859 Y146.029 E14.62321
G1 X113.583 Y146.421 E14.71962
G1 X111.939 Y146.871 E14.84263
G1 X110.461 Y147.223 E14.95234
G1 X109.154 Y147.494 E15.04876
G1 X107.475 Y147.787 E15.17175
G1 X105.971 Y147.998 E15.28146
G1 X104.643 Y148.144 E15.37786
G1 X103.129 Y148.266 E15.48758
G1 X101.295 Y148.361 E15.62018
G1 X99.000 Y148.368 E15.78586
G1 X97.037 Y148.277 E15.92776
G1 X95.356 Y148.144 E16.04946
G1 X93.847 Y147.975 E16.15916
G1 X92.342 Y147.758 E16.26889
G1 X91.027 Y147.528 E16.36529
G1 X89.539 Y147.223 E16.47496
G1 X88.061 Y146.871 E16.58469
G1 X86.417 Y146.421 E16.70770
G1 X85.141 Y146.029 E16.80410
G1 X83.703 Y145.539 E16.91380
G1 X82.109 Y144.937 E17.03680
G1 X80.706 Y144.353 E17.14652
G1 X79.323 Y143.725 E17.25623
G1 X78.124 Y143.138 E17.35263
G1 X76.682 Y142.388 E17.46996
G1 X74.710 Y141.242 E17.63461
G1 X72.890 Y140.056 E17.79150
G1 X71.496 Y139.076 E17.91452
G1 X70.428 Y138.274 E18.01092
G1 X69.240 Y137.327 E18.12062
G1 X67.945 Y136.220 E18.24363
G1 X66.823 Y135.195 E18.35338
G1 X65.734 Y134.136 E18.46301
G1 X64.805 Y133.177 E18.55941
G1 X63.658 Y131.917 E18.68247
G1 X62.791 Y130.901 E18.77889
G1 X61.839 Y129.718 E18.88856
G1 X60.924 Y128.504 E18.99826
G1 X59.944 Y127.110 E19.12129
G1 X58.758 Y125.290 E19.27817
G1 X57.612 Y123.318 E19.44283
G1 X56.916 Y121.984 E19.55147
G1 X56.275 Y120.677 E19.65656
G1 X55.647 Y119.294 E19.76627
G1 X54.995 Y117.720 E19.88929
G1 X54.523 Y116.471 E19.98568
G1 X54.028 Y115.034 E20.09538
G1 X53.527 Y113.406 E20.21840
G1 X53.129 Y111.939 E20.32810
G1 X52.817 Y110.641 E20.42450
G1 X52.506 Y109.153 E20.53424
G1 X52.213 Y107.475 E20.65723
G1 X52.025 Y106.153 E20.75364
G1 X51.856 Y104.644 E20.86333
G1 X51.734 Y103.129 E20.97307
G1 X51.632 Y101.000 E21.12693
G1 X51.632 Y99.000 E21.27133
G1 X51.723 Y97.037 E21.41323
G1 X51.856 Y95.356 E21.53492
G1 X52.002 Y94.029 E21.63134
G1 X52.209 Y92.558 E21.73861
G1 X52.472 Y91.027 E21.85076
G1 X52.817 Y89.359 E21.97376
G1 X53.129 Y88.060 E22.07017
G1 X53.527 Y86.594 E22.17987
G1 X54.028 Y84.966 E22.30287
G1 X54.461 Y83.703 E22.39927
G1 X54.983 Y82.312 E22.50655
G1 X55.574 Y80.876 E22.61867
G1 X56.275 Y79.323 E22.74169
G1 X56.862 Y78.123 E22.83810
G1 X57.478 Y76.927 E22.93528
G1 X58.612 Y74.950 E23.09982
G1 X59.944 Y72.890 E23.27696
G1 X60.816 Y71.645 E23.38666
G1 X61.726 Y70.428 E23.49638
G1 X62.791 Y69.098 E23.61938
G1 X63.658 Y68.083 E23.71578
G1 X64.678 Y66.957 E23.82548
G1 X65.757 Y65.841 E23.93752
G1 X66.106 Y66.106 F6000.000
G1 X67.125 Y65.117 E24.04005 F1200.000
G1 X68.237 Y64.101 E24.14881
G1 X69.512 Y63.012 E24.26985
G1 X70.554 Y62.177 E24.36625
G1 X71.756 Y61.271 E24.47496
G1 X73.128 Y60.307 E24.59602
G1 X74.945 Y59.123 E24.75260
G1 X77.126 Y57.864 E24.93441
G1 X78.315 Y57.252 E25.03095
G1 X79.668 Y56.592 E25.13968
G1 X81.042 Y55.975 E25.24841
G1 X82.275 Y55.464 E25.34480
G1 X83.683 Y54.929 E25.45352
G1 X85.107 Y54.439 E25.56224
G1 X86.709 Y53.946 E25.68327
G1 X88.162 Y53.551 E25.79199
G1 X89.460 Y53.240 E25.88839
G1 X91.102 Y52.900 E26.00943
G1 X92.586 Y52.643 E26.11816
G1 X93.908 Y52.455 E26.21457
G1 X95.574 Y52.271 E26.33562
G1 X97.059 Y52.157 E26.44311
G1 X98.727 Y52.073 E26.56374
G1 X101.273 Y52.073 E26.74754
G1 X103.095 Y52.166 E26.87924 F1200.000
G1 X104.596 Y52.287 E26.98799
G1 X106.092 Y52.455 E27.09670
G1 X107.414 Y52.643 E27.19311
G1 X108.898 Y52.900 E27.30185
G1 X110.540 Y53.240 E27.42289
G1 X112.003 Y53.594 E27.53159
G1 X113.291 Y53.946 E27.62799
G1 X114.893 Y54.439 E27.74904
G1 X116.317 Y54.929 E27.85775
G1 X117.725 Y55.464 E27.96648
G1 X119.115 Y56.043 E28.07521
G1 X120.486 Y56.665 E28.18392
G1 X121.785 Y57.302 E28.28838
G1 X123.101 Y57.988 E28.39553
G1 X125.055 Y59.123 E28.55868
G1 X127.013 Y60.403 E28.72756
G1 X128.105 Y61.171 E28.82398
G1 X129.311 Y62.073 E28.93271
G1 X130.619 Y63.121 E29.05373
G1 X131.763 Y64.101 E29.16246
G1 X132.750 Y64.999 E29.25887
G1 X133.834 Y66.046 E29.36763
G1 X135.001 Y67.250 E29.48865
G1 X136.012 Y68.365 E29.59737
G1 X136.879 Y69.380 E29.69377
G1 X137.823 Y70.554 E29.80248
G1 X138.729 Y71.756 E29.91120
G1 X139.693 Y73.128 E30.03225
G1 X141.012 Y75.167 E30.20759
G1 X142.012 Y76.899 E30.35199
G1 X142.748 Y78.315 E30.46718
G1 X143.335 Y79.514 E30.56358
G1 X143.957 Y80.885 E30.67231
G1 X144.599 Y82.434 E30.79336
G1 X145.071 Y83.683 E30.88975
G1 X145.561 Y85.107 E30.99847
G1 X146.054 Y86.709 E31.11952
G1 X146.406 Y87.997 E31.21592
G1 X146.761 Y89.460 E31.32463
G1 X147.100 Y91.102 E31.44566
G1 X147.357 Y92.586 E31.55441
G1 X147.545 Y93.908 E31.65080
G1 X147.713 Y95.404 E31.75952
G1 X147.843 Y97.058 E31.87934
G1 X147.934 Y99.000 E32.01967
G1 X147.934 Y101.000 E32.16407
G1 X147.834 Y103.095 E32.31549
G1 X147.729 Y104.426 E32.41189
G1 X147.566 Y105.923 E32.52064
G1 X147.330 Y107.583 E32.64168
G1 X147.100 Y108.899 E32.73814
G1 X146.805 Y110.340 E32.84436
G1 X146.449 Y111.838 E32.95552
G1 X146.006 Y113.455 E33.07656
G1 X145.614 Y114.731 E33.17297
G1 X145.128 Y116.157 E33.28172
G1 X144.599 Y117.566 E33.39042
G1 X143.957 Y119.115 E33.51144
G1 X143.335 Y120.486 E33.62016
G1 X142.698 Y121.785 E33.72461
G1 X142.012 Y123.101 E33.83176
G1 X140.877 Y125.055 E33.99492
G1 X139.693 Y126.872 E34.15154
G1 X138.729 Y128.244 E34.27255
G1 X137.823 Y129.446 E34.38127
G1 X136.987 Y130.489 E34.47770
G1 X136.034 Y131.609 E34.58397
G1 X135.001 Y132.751 E34.69510
G1 X133.834 Y133.954 E34.81611
G1 X132.751 Y135.001 E34.92488
G1 X131.763 Y135.899 E35.02128
G1 X130.489 Y136.987 E35.14228
G1 X129.311 Y137.927 E35.25102
G1 X128.244 Y138.729 E35.34743
G1 X126.872 Y139.693 E35.46844
G1 X125.055 Y140.877 E35.62506
G1 X123.101 Y142.012 E35.78822
G1 X121.686 Y142.748 E35.90340
G1 X120.301 Y143.422 E36.01456
G1 X118.959 Y144.025 E36.12083
G1 X117.725 Y144.536 E36.21727
G1 X116.157 Y145.128 E36.33827
G1 X114.731 Y145.614 E36.44702
G1 X113.455 Y146.006 E36.54342
G1 X111.838 Y146.449 E36.66446
G1 X110.373 Y146.798 E36.77319
G1 X109.065 Y147.068 E36.86960
G1 X107.414 Y147.357 E36.99063
G1 X105.923 Y147.566 E37.09935
G1 X104.596 Y147.713 E37.19576
G1 X103.095 Y147.834 E37.30449
G1 X101.273 Y147.927 E37.43620
G1 X99.000 Y147.934 E37.60031
G1 X97.059 Y147.843 E37.74064
G1 X95.404 Y147.713 E37.86046
G1 X93.908 Y147.545 E37.96918
G1 X92.417 Y147.330 E38.07792
G1 X91.102 Y147.100 E38.17432
G1 X89.627 Y146.798 E38.28301
G1 X88.162 Y146.449 E38.39175
G1 X86.545 Y146.006 E38.51279
G1 X85.269 Y145.614 E38.60919
G1 X83.843 Y145.129 E38.71791
G1 X82.275 Y144.536 E38.83895
G1 X80.885 Y143.957 E38.94767
G1 X79.514 Y143.335 E39.05640
G1 X78.315 Y142.748 E39.15280
G1 X76.899 Y142.012 E39.26799
G1 X74.945 Y140.877 E39.43115
G1 X73.128 Y139.693 E39.58773
G1 X71.756 Y138.729 E39.70879
G1 X70.554 Y137.823 E39.81750
G1 X69.512 Y136.988 E39.91390
G1 X68.237 Y135.899 E40.03494
G1 X67.125 Y134.883 E40.14370
G1 X66.046 Y133.834 E40.25236
G1 X65.117 Y132.875 E40.34876
G1 X63.988 Y131.635 E40.46984
G1 X63.121 Y130.619 E40.56625
G1 X62.177 Y129.446 E40.67495
G1 X61.271 Y128.244 E40.78366
G1 X60.307 Y126.872 E40.90472
G1 X59.123 Y125.055 E41.06130
G1 X57.988 Y123.101 E41.22446
G1 X57.302 Y121.785 E41.33161
G1 X56.665 Y120.486 E41.43605
G1 X56.043 Y119.115 E41.54478
G1 X55.401 Y117.566 E41.66583
G1 X54.929 Y116.317 E41.76222
G1 X54.439 Y114.893 E41.87094
G1 X53.994 Y113.455 E41.97966
G1 X53.551 Y111.838 E42.10070
G1 X53.239 Y110.540 E42.19710
G1 X52.931 Y109.065 E42.30585
G1 X52.643 Y107.414 E42.42688
G1 X52.455 Y106.092 E42.52329
G1 X52.287 Y104.596 E42.63199
G1 X52.166 Y103.095 E42.74074
G1 X52.066 Y101.000 E42.89214
G1 X52.066 Y99.000 E43.03654
G1 X52.157 Y97.059 E43.17688
G1 X52.287 Y95.404 E43.29670
G1 X52.434 Y94.077 E43.39311
G1 X52.639 Y92.619 E43.49940
G1 X52.900 Y91.102 E43.61056
G1 X53.240 Y89.460 E43.73159
G1 X53.551 Y88.162 E43.82800
G1 X53.946 Y86.709 E43.93672
G1 X54.439 Y85.107 E44.05775
G1 X54.871 Y83.843 E44.15415
G1 X55.389 Y82.465 E44.26045
G1 X55.975 Y81.042 E44.37158
G1 X56.665 Y79.514 E44.49263
G1 X57.252 Y78.315 E44.58904
G1 X57.864 Y77.126 E44.68558
G1 X58.988 Y75.167 E44.84863
G1 X60.307 Y73.128 E45.02396
G1 X61.171 Y71.895 E45.13268
G1 X62.073 Y70.689 E45.24141
G1 X63.121 Y69.380 E45.36244
G1 X63.988 Y68.365 E45.45884
G1 X64.999 Y67.250 E45.56756
G1 X66.064 Y66.148 E45.67813
G1 E43.67813 F1800.00000
G92 E0
G1 X99.694 Y133.821 F6000.000
G1 E2.00000 F1800.00000
G1 X99.694 Y141.208 E2.53337 F1200.000
G1 X97.415 Y141.113 E2.69805
G1 X96.123 Y141.011 E2.79162
G1 X94.837 Y140.869 E2.88506
G1 X93.556 Y140.687 E2.97849
G1 X92.281 Y140.465 E3.07193
G1 X91.014 Y140.202 E3.16537
G1 X89.755 Y139.900 E3.25880
G1 X88.507 Y139.559 E3.35223
G1 X87.270 Y139.178 E3.44567
G1 X86.046 Y138.759 E3.53911
G1 X84.835 Y138.301 E3.63254
G1 X83.640 Y137.806 E3.72598
G1 X82.460 Y137.274 E3.81942
G1 X81.298 Y136.704 E3.91285
G1 X79.662 Y135.838 E4.04651
G1 X83.358 Y129.436 E4.58026
G1 X84.652 Y130.121 E4.68599
G1 X85.606 Y130.588 E4.76266
G1 X86.574 Y131.025 E4.83934
G1 X87.555 Y131.432 E4.91602
G1 X88.549 Y131.807 E4.99269
G1 X89.553 Y132.151 E5.06937
G1 X90.569 Y132.463 E5.14605
G1 X91.593 Y132.744 E5.22273
G1 X92.626 Y132.992 E5.29941
G1 X93.665 Y133.207 E5.37608
G1 X94.712 Y133.389 E5.45276
G1 X95.763 Y133.539 E5.52944
G1 X96.819 Y133.656 E5.60611
G1 X97.877 Y133.739 E5.68274
G1 X99.634 Y133.818 E5.80977
G1 X99.260 Y134.236 F6000.000
G1 X99.260 Y140.755 E6.28049 F1200.000
G1 X97.441 Y140.680 E6.41191
G1 X96.164 Y140.579 E6.50442
G1 X94.891 Y140.439 E6.59687
G1 X93.624 Y140.258 E6.68932
G1 X92.362 Y140.038 E6.78177
G1 X91.108 Y139.778 E6.87422
G1 X89.863 Y139.479 E6.96667
G1 X88.628 Y139.142 E7.05912
G1 X87.404 Y138.765 E7.15157
G1 X86.193 Y138.350 E7.24402
G1 X84.995 Y137.898 E7.33647
G1 X83.812 Y137.408 E7.42892
G1 X82.645 Y136.881 E7.52137
G1 X81.495 Y136.317 E7.61382
G1 X80.263 Y135.665 E7.71448
G1 X83.525 Y130.015 E8.18549
G1 X84.455 Y130.508 E8.26149
G1 X85.421 Y130.981 E8.33915
G1 X86.402 Y131.424 E8.41682
G1 X87.395 Y131.836 E8.49448
G1 X88.402 Y132.216 E8.57214
G1 X89.419 Y132.564 E8.64980
G1 X90.447 Y132.880 E8.72747
G1 X91.485 Y133.164 E8.80513
G1 X92.531 Y133.415 E8.88279
G1 X93.584 Y133.633 E8.96045
G1 X94.644 Y133.818 E9.03811
G1 X95.709 Y133.970 E9.11578
G1 X96.778 Y134.088 E9.19344
G1 X97.850 Y134.172 E9.27108
G1 X99.200 Y134.233 E9.36867
G1 X99.660 Y134.242 F6000.000
G1 X99.694 Y133.213 F6000.000
G1 X97.916 Y133.129 E9.49722 F1200.000
G1 X96.876 Y133.047 E9.57251
G1 X95.840 Y132.932 E9.64780
G1 X94.807 Y132.786 E9.72309
G1 X93.780 Y132.606 E9.79838
G1 X92.759 Y132.395 E9.87367
G1 X91.745 Y132.151 E9.94896
G1 X90.739 Y131.876 E10.02425
G1 X89.742 Y131.570 E10.09954
G1 X88.756 Y131.232 E10.17483
G1 X87.780 Y130.863 E10.25012
G1 X86.817 Y130.464 E10.32541
G1 X85.867 Y130.035 E10.40070
G1 X84.930 Y129.576 E10.47599
G1 X83.664 Y128.906 E10.57941
G1 X87.353 Y122.516 E11.11214
G1 X89.016 Y123.351 E11.24643
G1 X89.751 Y123.683 E11.30472
G1 X90.500 Y123.994 E11.36325
G1 X91.259 Y124.280 E11.42178
G1 X92.026 Y124.543 E11.48032
G1 X92.800 Y124.781 E11.53885
G1 X93.582 Y124.995 E11.59738
G1 X94.371 Y125.184 E11.65591
G1 X95.164 Y125.349 E11.71444
G1 X95.963 Y125.488 E11.77297
G1 X96.766 Y125.602 E11.83151
G1 X97.567 Y125.691 E11.88969
G1 X99.694 Y125.828 E12.04362
G1 X99.694 Y133.153 E12.57244
G1 X99.260 Y132.758 F6000.000
G1 X97.943 Y132.695 E12.66764 F1200.000
G1 X96.917 Y132.615 E12.74195
G1 X95.894 Y132.502 E12.81625
G1 X94.875 Y132.357 E12.89056
G1 X93.861 Y132.180 E12.96486
G1 X92.854 Y131.971 E13.03917
G1 X91.853 Y131.731 E13.11347
G1 X90.860 Y131.459 E13.18778
G1 X89.877 Y131.157 E13.26209
G1 X88.903 Y130.823 E13.33639
G1 X87.940 Y130.459 E13.41069
G1 X86.989 Y130.066 E13.48500
G1 X86.051 Y129.642 E13.55930
G1 X85.127 Y129.189 E13.63361
G1 X84.265 Y128.733 E13.70402
G1 X87.525 Y123.088 E14.17465
G1 X88.829 Y123.743 E14.28002
G1 X89.579 Y124.082 E14.33945
G1 X90.340 Y124.397 E14.39897
G1 X91.112 Y124.689 E14.45848
G1 X91.891 Y124.956 E14.51800
G1 X92.679 Y125.198 E14.57752
G1 X93.474 Y125.416 E14.63703
G1 X94.276 Y125.608 E14.69655
G1 X95.083 Y125.775 E14.75606
G1 X95.895 Y125.917 E14.81558
G1 X96.711 Y126.033 E14.87510
G1 X97.529 Y126.123 E14.93448
G1 X99.260 Y126.235 E15.05974
G1 X99.260 Y132.698 E15.52632
G1 X99.247 Y133.157 F6000.000
G1 X99.694 Y125.218 F6000.000
G1 X97.628 Y125.083 E15.67582 F1200.000
G1 X96.059 Y124.884 E15.79002
G1 X94.504 Y124.588 E15.90430
