; generated by Slic3r 1.2.9 on 2018-09-22 at 09:18:29

; external perimeters extrusion width = 0.40mm
; perimeters extrusion width = 0.67mm
; infill extrusion width = 0.67mm
; solid infill extrusion width = 0.67mm
; top infill extrusion width = 0.26mm

M107
M190 S78 ; set bed temperature
M104 S245 ; set temperature
G28 ; home all axes
G1 Z5 F5000 ; lift nozzle

M109 S245 ; wait for temperature to be reached
G21 ; set units to millimeters
G90 ; use absolute coordinates
M82 ; use absolute distances for extrusion
G92 E0
G1 E-2.00000 F1800.00000
G92 E0
G1 Z0.400 F6000.000
G1 X83.882 Y83.882 F6000.000
G1 E2.00000 F1800.00000
M204 S2000
G1 X84.537 Y83.245 E2.06599 F1200.000
G1 X85.620 Y82.307 E2.16941
G1 X86.759 Y81.439 E2.27283
G1 X87.616 Y80.856 E2.34768
G1 X89.190 Y79.925 E2.47965
G1 X90.471 Y79.287 E2.58301
G1 X91.424 Y78.874 E2.65798
G1 X92.766 Y78.378 E2.76133
G1 X93.967 Y78.016 E2.85190
G1 X94.520 Y77.868 E2.89321
G1 X95.922 Y77.567 E2.99674
G1 X96.946 Y77.405 E3.07160
G1 X98.371 Y77.258 E3.17503
G1 X99.802 Y77.201 E3.27843
G1 X100.284 Y77.203 E3.31321
G1 X101.629 Y77.258 E3.41039 F1200.000
G1 X102.661 Y77.356 E3.48525
G1 X104.467 Y77.642 E3.61728
G1 X105.479 Y77.868 E3.69212
G1 X106.857 Y78.255 E3.79551
G1 X108.209 Y78.729 E3.89894
G1 X109.887 Y79.455 E4.03091
G1 X110.810 Y79.925 E4.10575
G1 X112.049 Y80.644 E4.20916
G1 X113.241 Y81.439 E4.31258
G1 X114.685 Y82.559 E4.44456
G1 X115.752 Y83.516 E4.54798
G1 X116.755 Y84.537 E4.65139
G1 X117.441 Y85.315 E4.72624
G1 X118.561 Y86.759 E4.85822
G1 X119.144 Y87.616 E4.93307
G1 X119.884 Y88.843 E5.03648
G1 X120.713 Y90.471 E5.16840
G1 X121.126 Y91.424 E5.24337
G1 X121.562 Y92.599 E5.33388
G1 X121.745 Y93.142 E5.37528
G1 X122.034 Y94.138 E5.45016
G1 X122.433 Y95.922 E5.58213
G1 X122.595 Y96.946 E5.65698
G1 X122.742 Y98.371 E5.76041
G1 X122.799 Y100.197 E5.89228
G1 X122.767 Y101.235 E5.96726
G1 X122.644 Y102.661 E6.07061
G1 X122.433 Y104.078 E6.17405
G1 X122.132 Y105.479 E6.27750
G1 X121.622 Y107.234 E6.40947
G1 X121.126 Y108.575 E6.51274
G1 X120.714 Y109.529 E6.58773
G1 X119.884 Y111.157 E6.71969
G1 X119.356 Y112.049 E6.79453
G1 X118.561 Y113.241 E6.89795
G1 X117.441 Y114.685 E7.02993
G1 X116.485 Y115.752 E7.13335
G1 X115.463 Y116.755 E7.23676
G1 X114.685 Y117.441 E7.31161
G1 X113.241 Y118.561 E7.44359
G1 X112.049 Y119.356 E7.54702
G1 X111.157 Y119.884 E7.62186
G1 X109.887 Y120.545 E7.72527
G1 X108.576 Y121.126 E7.82875
G1 X106.857 Y121.745 E7.96065
G1 X105.862 Y122.034 E8.03552
G1 X104.641 Y122.320 E8.12605
G1 X104.078 Y122.433 E8.16751
G1 X103.054 Y122.595 E8.24236
G1 X101.234 Y122.767 E8.37434
G1 X99.803 Y122.799 E8.47766
G1 X98.765 Y122.767 E8.55264
G1 X96.946 Y122.595 E8.68458
G1 X95.533 Y122.358 E8.78803
G1 X94.521 Y122.132 E8.86287
G1 X93.143 Y121.745 E8.96626
G1 X91.425 Y121.126 E9.09811
G1 X90.113 Y120.545 E9.20166
G1 X88.843 Y119.884 E9.30507
G1 X87.951 Y119.356 E9.37991
G1 X86.439 Y118.329 E9.51190
G1 X85.315 Y117.441 E9.61530
G1 X84.537 Y116.755 E9.69016
G1 X83.245 Y115.463 E9.82213
G1 X82.559 Y114.685 E9.89698
G1 X81.780 Y113.702 E9.98755
G1 X81.439 Y113.241 E10.02897
G1 X80.856 Y112.384 E10.10383
G1 X79.925 Y110.810 E10.23580
G1 X79.251 Y109.448 E10.34555
G1 X78.729 Y108.209 E10.44259
G1 X78.378 Y107.234 E10.51747
G1 X77.868 Y105.480 E10.64934
G1 X77.567 Y104.078 E10.75286
G1 X77.405 Y103.054 E10.82772
G1 X77.258 Y101.629 E10.93115
G1 X77.201 Y99.803 E11.06302
G1 X77.233 Y98.765 E11.13800
G1 X77.356 Y97.339 E11.24136
G1 X77.567 Y95.922 E11.34479
G1 X77.966 Y94.138 E11.47678
G1 X78.378 Y92.766 E11.58021
G1 X78.729 Y91.791 E11.65505
G1 X79.455 Y90.113 E11.78702
G1 X79.925 Y89.190 E11.86186
G1 X80.553 Y88.104 E11.95243
G1 X80.856 Y87.616 E11.99385
G1 X81.439 Y86.759 E12.06869
G1 X82.559 Y85.315 E12.20067
G1 X83.245 Y84.537 E12.27553
G1 X83.840 Y83.924 E12.33719
G1 X84.189 Y84.189 F6000.000
G1 X84.824 Y83.570 E12.40121 F1200.000
G1 X85.886 Y82.650 E12.50267
G1 X87.003 Y81.798 E12.60411
G1 X87.860 Y81.215 E12.67896
G1 X89.387 Y80.312 E12.80700
G1 X90.643 Y79.685 E12.90839
G1 X91.596 Y79.273 E12.98336
G1 X92.913 Y78.786 E13.08474
G1 X94.089 Y78.433 E13.17335
G1 X94.615 Y78.292 E13.21269
G1 X95.990 Y77.996 E13.31424
G1 X97.014 Y77.834 E13.38910
G1 X98.412 Y77.690 E13.49056
G1 X99.816 Y77.635 E13.59199
G1 X100.270 Y77.637 E13.62481
G1 X101.588 Y77.690 E13.72002 F1200.000
G1 X102.620 Y77.788 E13.79487
G1 X104.372 Y78.065 E13.92297
G1 X105.384 Y78.292 E13.99781
G1 X106.736 Y78.672 E14.09923
G1 X108.062 Y79.137 E14.20069
G1 X109.690 Y79.842 E14.32873
G1 X110.613 Y80.312 E14.40357
G1 X111.828 Y81.017 E14.50501
G1 X112.997 Y81.798 E14.60646
G1 X114.398 Y82.885 E14.73450
G1 X115.176 Y83.570 E14.80936
G1 X116.178 Y84.555 E14.91080
G1 X117.350 Y85.886 E15.03884
G1 X118.202 Y87.003 E15.14029
G1 X118.785 Y87.860 E15.21514
G1 X119.510 Y89.064 E15.31658
G1 X120.315 Y90.643 E15.44457
G1 X120.727 Y91.596 E15.51953
G1 X121.153 Y92.746 E15.60806
G1 X121.328 Y93.264 E15.64750
G1 X121.617 Y94.260 E15.72238
G1 X122.004 Y95.990 E15.85042
G1 X122.166 Y97.014 E15.92527
G1 X122.310 Y98.412 E16.02673
G1 X122.365 Y100.183 E16.15467
G1 X122.333 Y101.221 E16.22964
G1 X122.212 Y102.620 E16.33103
G1 X122.004 Y104.010 E16.43249
G1 X121.708 Y105.384 E16.53398
G1 X121.214 Y107.087 E16.66201
G1 X120.728 Y108.403 E16.76333
G1 X120.315 Y109.356 E16.83830
G1 X119.510 Y110.936 E16.96633
G1 X118.983 Y111.828 E17.04117
G1 X118.302 Y112.850 E17.12977
G1 X117.986 Y113.295 E17.16923
G1 X117.350 Y114.114 E17.24407
G1 X116.178 Y115.445 E17.37212
G1 X115.176 Y116.430 E17.47356
G1 X114.398 Y117.115 E17.54841
G1 X112.997 Y118.202 E17.67646
G1 X111.828 Y118.983 E17.77791
G1 X110.936 Y119.510 E17.85275
G1 X109.690 Y120.158 E17.95419
G1 X108.404 Y120.727 E18.05570
G1 X106.736 Y121.328 E18.18367
G1 X105.740 Y121.617 E18.25854
G1 X104.546 Y121.896 E18.34710
G1 X104.010 Y122.004 E18.38659
G1 X102.986 Y122.166 E18.46144
G1 X101.220 Y122.333 E18.58948
G1 X99.817 Y122.365 E18.69084
G1 X98.779 Y122.333 E18.76581
G1 X97.014 Y122.166 E18.89382
G1 X95.628 Y121.935 E18.99530
G1 X94.616 Y121.708 E19.07014
G1 X93.264 Y121.328 E19.17156
G1 X91.597 Y120.728 E19.29949
G1 X90.310 Y120.158 E19.40106
G1 X89.387 Y119.688 E19.47590
G1 X88.172 Y118.983 E19.57734
G1 X86.705 Y117.986 E19.70539
G1 X85.602 Y117.115 E19.80683
G1 X84.824 Y116.430 E19.88168
G1 X83.570 Y115.176 E20.00972
G1 X82.885 Y114.398 E20.08457
G1 X82.123 Y113.436 E20.17317
G1 X81.798 Y112.997 E20.21262
G1 X81.215 Y112.140 E20.28748
G1 X80.312 Y110.613 E20.41551
G1 X79.650 Y109.277 E20.52321
G1 X79.138 Y108.062 E20.61837
G1 X78.786 Y107.087 E20.69324
G1 X78.292 Y105.385 E20.82119
G1 X77.996 Y104.010 E20.92273
G1 X77.834 Y102.986 E20.99759
G1 X77.690 Y101.588 E21.09905
G1 X77.635 Y99.817 E21.22699
G1 X77.667 Y98.779 E21.30196
G1 X77.788 Y97.380 E21.40335
G1 X77.996 Y95.990 E21.50481
G1 X78.383 Y94.259 E21.63287
G1 X78.672 Y93.264 E21.70771
G1 X79.137 Y91.938 E21.80917
G1 X79.842 Y90.310 E21.93720
G1 X80.312 Y89.387 E22.01204
G1 X80.927 Y88.325 E22.10064
G1 X81.215 Y87.860 E22.14010
G1 X81.798 Y87.003 E22.21494
G1 X82.885 Y85.602 E22.34298
G1 X83.570 Y84.824 E22.41784
G1 X84.147 Y84.231 E22.47753
G1 X84.496 Y84.496 F6000.000
G1 X85.111 Y83.896 E22.53958 F1200.000
G1 X86.152 Y82.993 E22.63907
G1 X87.247 Y82.157 E22.73855
G1 X88.104 Y81.574 E22.81339
G1 X89.584 Y80.699 E22.93750
G1 X90.816 Y80.083 E23.03693
G1 X91.769 Y79.671 E23.11188
G1 X93.060 Y79.195 E23.21130
G1 X93.469 Y79.065 E23.24223
G1 X94.710 Y78.715 E23.33533
G1 X96.058 Y78.425 E23.43490
G1 X97.082 Y78.263 E23.50975
G1 X98.453 Y78.122 E23.60924
G1 X99.829 Y78.069 E23.70871
G1 X100.257 Y78.071 E23.73957
G1 X101.547 Y78.122 E23.83281 F1200.000
G1 X102.579 Y78.220 E23.90766
G1 X104.278 Y78.489 E24.03181
G1 X105.289 Y78.715 E24.10665
G1 X106.615 Y79.089 E24.20611
G1 X107.915 Y79.546 E24.30560
G1 X109.492 Y80.228 E24.42970
G1 X110.416 Y80.699 E24.50454
G1 X111.607 Y81.391 E24.60401
G1 X112.753 Y82.157 E24.70349
G1 X114.111 Y83.210 E24.82760
G1 X115.138 Y84.129 E24.92708
G1 X116.104 Y85.111 E25.02655
G1 X116.790 Y85.889 E25.10140
G1 X117.843 Y87.247 E25.22552
G1 X118.426 Y88.104 E25.30036
G1 X119.136 Y89.285 E25.39984
G1 X119.917 Y90.816 E25.52389
G1 X120.329 Y91.769 E25.59884
G1 X120.745 Y92.893 E25.68541
G1 X120.911 Y93.385 E25.72288
G1 X121.200 Y94.381 E25.79776
G1 X121.575 Y96.058 E25.92186
G1 X121.737 Y97.082 E25.99671
G1 X121.878 Y98.453 E26.09620
G1 X121.932 Y100.169 E26.22021
G1 X121.899 Y101.207 E26.29517
G1 X121.780 Y102.579 E26.39460
G1 X121.575 Y103.942 E26.49409
G1 X121.285 Y105.289 E26.59361
G1 X120.805 Y106.940 E26.71770
G1 X120.329 Y108.231 E26.81706
G1 X119.917 Y109.184 E26.89203
G1 X119.136 Y110.715 E27.01612
G1 X118.609 Y111.607 E27.09096
G1 X117.843 Y112.753 E27.19044
G1 X116.790 Y114.111 E27.31455
G1 X115.871 Y115.138 E27.41403
G1 X114.889 Y116.104 E27.51350
G1 X114.111 Y116.790 E27.58835
G1 X112.753 Y117.843 E27.71246
G1 X111.607 Y118.609 E27.81194
G1 X110.715 Y119.136 E27.88678
G1 X109.492 Y119.772 E27.98626
G1 X108.231 Y120.329 E28.08579
G1 X106.615 Y120.911 E28.20983
G1 X105.619 Y121.200 E28.28470
G1 X104.451 Y121.472 E28.37130
G1 X103.942 Y121.575 E28.40881
G1 X102.918 Y121.737 E28.48366
G1 X101.207 Y121.899 E28.60777
G1 X99.830 Y121.932 E28.70717
G1 X98.793 Y121.899 E28.78213
G1 X97.082 Y121.737 E28.90620
G1 X95.722 Y121.511 E29.00571
G1 X94.711 Y121.285 E29.08055
G1 X93.385 Y120.911 E29.18000
G1 X91.769 Y120.329 E29.30400
G1 X90.508 Y119.772 E29.40359
G1 X89.584 Y119.301 E29.47843
G1 X88.393 Y118.609 E29.57791
G1 X86.971 Y117.643 E29.70202
G1 X85.889 Y116.790 E29.80149
G1 X85.111 Y116.104 E29.87635
G1 X83.896 Y114.889 E30.00045
G1 X83.210 Y114.111 E30.07530
G1 X82.466 Y113.170 E30.16193
G1 X82.157 Y112.753 E30.19941
G1 X81.574 Y111.896 E30.27426
G1 X80.699 Y110.416 E30.39837
G1 X80.049 Y109.104 E30.50410
G1 X79.546 Y107.915 E30.59729
G1 X79.195 Y106.940 E30.67216
G1 X78.715 Y105.290 E30.79617
G1 X78.425 Y103.942 E30.89574
G1 X78.263 Y102.918 E30.97060
G1 X78.122 Y101.547 E31.07009
G1 X78.068 Y99.831 E31.19410
G1 X78.101 Y98.793 E31.26906
G1 X78.220 Y97.421 E31.36849
G1 X78.425 Y96.058 E31.46798
G1 X78.800 Y94.380 E31.59210
G1 X79.089 Y93.385 E31.66694
G1 X79.546 Y92.085 E31.76643
G1 X80.228 Y90.508 E31.89053
G1 X80.699 Y89.584 E31.96537
G1 X81.301 Y88.546 E32.05200
G1 X81.574 Y88.104 E32.08949
G1 X82.157 Y87.247 E32.16433
G1 X83.210 Y85.889 E32.28844
G1 X83.896 Y85.111 E32.36329
G1 X84.454 Y84.538 E32.42101
G1 E30.42101 F1800.00000
G92 E0
G1 X104.444 Y86.521 F6000.000
G1 E2.00000 F1800.00000
G1 X104.444 Y84.840 E2.12138 F1200.000
G1 X104.884 Y84.968 E2.15446
G1 X105.818 Y85.304 E2.22615
G1 X106.730 Y85.699 E2.29784
G1 X107.614 Y86.150 E2.36953
G1 X108.469 Y86.655 E2.44122
G1 X109.289 Y87.212 E2.51279
G1 X110.139 Y87.878 E2.59077
G1 X110.820 Y88.478 E2.65628
G1 X111.522 Y89.180 E2.72797
G1 X112.178 Y89.925 E2.79966
G1 X112.787 Y90.710 E2.87135
G1 X113.345 Y91.531 E2.94304
G1 X113.850 Y92.386 E3.01473
G1 X114.301 Y93.270 E3.08642
G1 X114.695 Y94.180 E3.15799
G1 X115.056 Y95.198 E3.23597
G1 X115.309 Y96.069 E3.30148
G1 X115.526 Y97.038 E3.37317
G1 X115.681 Y98.019 E3.44486
G1 X115.774 Y99.008 E3.51655
G1 X115.805 Y100.000 E3.58824
G1 X115.774 Y100.992 E3.65993
G1 X115.681 Y101.981 E3.73162
G1 X115.526 Y102.962 E3.80331
G1 X115.309 Y103.931 E3.87500
G1 X115.032 Y104.884 E3.94669
G1 X114.696 Y105.818 E4.01839
G1 X114.301 Y106.730 E4.09007
G1 X113.850 Y107.614 E4.16176
G1 X113.345 Y108.469 E4.23345
G1 X112.787 Y109.290 E4.30514
G1 X112.178 Y110.075 E4.37683
G1 X111.523 Y110.818 E4.44840
G1 X110.755 Y111.578 E4.52639
G1 X110.075 Y112.178 E4.59189
G1 X109.290 Y112.787 E4.66358
G1 X108.469 Y113.345 E4.73527
G1 X107.616 Y113.850 E4.80684
G1 X106.651 Y114.335 E4.88482
G1 X105.818 Y114.696 E4.95033
G1 X104.884 Y115.032 E5.02202
G1 X103.931 Y115.309 E5.09371
G1 X102.962 Y115.526 E5.16541
G1 X101.981 Y115.681 E5.23709
G1 X100.992 Y115.774 E5.30878
G1 X100.000 Y115.805 E5.38047
G1 X99.008 Y115.774 E5.45216
G1 X98.019 Y115.681 E5.52385
G1 X97.038 Y115.526 E5.59554
G1 X96.069 Y115.309 E5.66723
G1 X95.116 Y115.032 E5.73892
G1 X94.182 Y114.696 E5.81062
G1 X93.431 Y114.371 E5.86969
G1 X92.383 Y113.849 E5.95420
G1 X91.531 Y113.345 E6.02566
G1 X90.711 Y112.788 E6.09723
G1 X89.861 Y112.122 E6.17521
G1 X89.180 Y111.522 E6.24072
G1 X88.478 Y110.820 E6.31241
G1 X87.822 Y110.075 E6.38410
G1 X87.320 Y109.428 E6.44318
G1 X86.653 Y108.466 E6.52769
G1 X86.150 Y107.614 E6.59915
G1 X85.699 Y106.730 E6.67084
G1 X85.305 Y105.820 E6.74241
G1 X84.944 Y104.802 E6.82039
G1 X84.691 Y103.931 E6.88590
G1 X84.474 Y102.962 E6.95759
G1 X84.319 Y101.981 E7.02928
G1 X84.226 Y100.992 E7.10097
G1 X84.195 Y100.000 E7.17266
G1 X84.226 Y99.008 E7.24435
G1 X84.319 Y98.019 E7.31604
G1 X84.474 Y97.038 E7.38773
G1 X84.691 Y96.069 E7.45942
G1 X84.968 Y95.116 E7.53111
G1 X85.304 Y94.182 E7.60281
G1 X85.629 Y93.431 E7.66188
G1 X86.151 Y92.383 E7.74639
G1 X86.655 Y91.531 E7.81785
G1 X87.213 Y90.710 E7.88954
G1 X87.822 Y89.925 E7.96123
G1 X88.478 Y89.180 E8.03292
G1 X89.180 Y88.478 E8.10461
G1 X89.794 Y87.937 E8.16369
G1 X90.712 Y87.211 E8.24820
G1 X91.531 Y86.655 E8.31966
G1 X92.386 Y86.150 E8.39135
G1 X93.270 Y85.699 E8.46304
G1 X94.182 Y85.304 E8.53473
G1 X95.116 Y84.968 E8.60642
G1 X95.556 Y84.840 E8.63950
G1 X95.556 Y86.521 E8.76086
G1 X94.775 Y86.802 E8.82080
G1 X93.956 Y87.156 E8.88519
G1 X93.162 Y87.561 E8.94957
G1 X92.394 Y88.015 E9.01395
G1 X91.657 Y88.516 E9.07834
G1 X90.952 Y89.063 E9.14272
G1 X90.283 Y89.653 E9.20710
G1 X89.653 Y90.283 E9.27148
G1 X89.062 Y90.953 E9.33599
G1 X88.475 Y91.718 E9.40557
G1 X88.015 Y92.394 E9.46462
G1 X87.561 Y93.162 E9.52901
G1 X87.156 Y93.956 E9.59339
G1 X86.802 Y94.775 E9.65777
G1 X86.500 Y95.614 E9.72216
G1 X86.293 Y96.328 E9.77584
G1 X86.057 Y97.337 E9.85068
G1 X85.917 Y98.221 E9.91529
G1 X85.847 Y98.961 E9.96898
G1 X85.805 Y99.997 E10.04381
G1 X85.834 Y100.891 E10.10842
G1 X85.917 Y101.779 E10.17280
G1 X86.057 Y102.660 E10.23719
G1 X86.219 Y103.385 E10.29087
G1 X86.499 Y104.383 E10.36570
G1 X86.802 Y105.225 E10.43032
G1 X87.156 Y106.044 E10.49470
G1 X87.561 Y106.838 E10.55908
G1 X88.015 Y107.606 E10.62347
G1 X88.516 Y108.343 E10.68785
G1 X89.063 Y109.048 E10.75223
G1 X89.653 Y109.717 E10.81662
G1 X90.283 Y110.347 E10.88100
G1 X90.952 Y110.937 E10.94538
G1 X91.657 Y111.484 E11.00977
G1 X92.394 Y111.985 E11.07415
G1 X93.162 Y112.439 E11.13853
G1 X93.956 Y112.844 E11.20291
G1 X94.775 Y113.198 E11.26730
G1 X95.614 Y113.500 E11.33168
G1 X96.470 Y113.749 E11.39606
G1 X97.340 Y113.943 E11.46045
G1 X98.221 Y114.083 E11.52483
G1 X98.961 Y114.153 E11.57852
G1 X99.997 Y114.195 E11.65335
G1 X100.891 Y114.166 E11.71796
G1 X101.779 Y114.083 E11.78234
G1 X102.660 Y113.943 E11.84673
G1 X103.530 Y113.749 E11.91111
G1 X104.386 Y113.500 E11.97549
G1 X105.225 Y113.198 E12.03988
G1 X106.044 Y112.844 E12.10426
G1 X106.838 Y112.439 E12.16864
G1 X107.606 Y111.985 E12.23303
G1 X108.343 Y111.484 E12.29741
G1 X109.048 Y110.937 E12.36179
G1 X109.717 Y110.347 E12.42617
G1 X110.347 Y109.717 E12.49056
G1 X110.937 Y109.048 E12.55494
G1 X111.485 Y108.342 E12.61945
G1 X112.022 Y107.542 E12.68902
G1 X112.439 Y106.838 E12.74808
G1 X112.844 Y106.044 E12.81246
G1 X113.198 Y105.225 E12.87685
G1 X113.500 Y104.386 E12.94123
G1 X113.749 Y103.530 E13.00561
G1 X113.943 Y102.660 E13.07000
G1 X114.083 Y101.779 E13.13438
G1 X114.166 Y100.891 E13.19876
G1 X114.195 Y100.000 E13.26315
G1 X114.166 Y99.109 E13.32753
G1 X114.083 Y98.221 E13.39191
G1 X113.943 Y97.340 E13.45629
G1 X113.781 Y96.615 E13.50998
G1 X113.501 Y95.617 E13.58481
G1 X113.198 Y94.775 E13.64943
G1 X112.844 Y93.956 E13.71381
G1 X112.439 Y93.162 E13.77819
G1 X111.985 Y92.394 E13.84258
G1 X111.484 Y91.657 E13.90696
G1 X110.937 Y90.952 E13.97134
G1 X110.347 Y90.283 E14.03572
G1 X109.717 Y89.653 E14.10011
G1 X109.047 Y89.062 E14.16461
G1 X108.282 Y88.475 E14.23419
G1 X107.606 Y88.015 E14.29325
G1 X106.838 Y87.561 E14.35763
G1 X106.044 Y87.156 E14.42201
G1 X105.361 Y86.861 E14.47570
G1 X104.500 Y86.542 E14.54198
G1 X104.010 Y86.293 F6000.000
G1 X104.010 Y84.817 E14.64852 F1200.000
G1 X102.859 Y84.560 E14.73364
G1 X101.913 Y84.410 E14.80286
G1 X100.958 Y84.320 E14.87208
