; generated by Slic3r 1.2.9 on 2016-12-04 at 11:41:43

; external perimeters extrusion width = 0.40mm
; perimeters extrusion width = 0.67mm
; infill extrusion width = 0.67mm
; solid infill extrusion width = 0.67mm
; top infill extrusion width = 0.26mm

M107
M190 S70 ; set bed temperature
M104 S205 ; set temperature
G28 ; home all axes
G1 Z5 F5000 ; lift nozzle

M109 S205 ; wait for temperature to be reached
G21 ; set units to millimeters
G90 ; use absolute coordinates
M82 ; use absolute distances for extrusion
G92 E0
G1 E-2.00000 F1800.00000
G92 E0
G1 Z0.400 F6000.000
G1 X90.293 Y56.844 F6000.000
G1 E2.00000 F1800.00000
M204 S2000
G1 X91.844 Y55.344 E2.15577 F1200.000
G1 X93.832 Y54.506 E2.31154
G1 X95.078 Y54.372 E2.40202
G1 X99.306 Y54.372 E2.70725
G1 X105.066 Y54.387 E3.12312 F1200.000
G1 X107.185 Y54.790 E3.27889
G1 X109.016 Y55.932 E3.43466
G1 X110.310 Y57.658 E3.59043
G1 X110.742 Y58.834 E3.68091
G1 X120.318 Y97.201 E6.53601
G1 X120.597 Y98.442 E6.62782
G1 X128.003 Y134.205 E9.26473
G1 X128.137 Y135.052 E9.32668
G1 X128.192 Y135.905 E9.38836
G1 X128.188 Y136.521 E9.43283
G1 X128.110 Y137.410 E9.49730
G1 X127.971 Y138.215 E9.55626
G1 X127.825 Y138.792 E9.59923
G1 X127.575 Y139.540 E9.65621
G1 X127.240 Y140.325 E9.71783
G1 X126.794 Y141.148 E9.78545
G1 X126.477 Y141.638 E9.82753
G1 X126.046 Y142.216 E9.87960
G1 X125.444 Y142.892 E9.94492
G1 X124.972 Y143.344 E9.99213
G1 X124.331 Y143.866 E10.05181
G1 X123.832 Y144.218 E10.09589
G1 X123.154 Y144.625 E10.15300
G1 X122.293 Y145.041 E10.22204
G1 X121.603 Y145.302 E10.27532
G1 X119.676 Y145.628 E10.41642
G1 X80.324 Y145.628 E13.25767
G1 X77.988 Y145.143 E13.42994
G1 X77.275 Y144.833 E13.48606
G1 X76.603 Y144.489 E13.54056
G1 X76.003 Y144.109 E13.59186
G1 X75.404 Y143.661 E13.64585
G1 X74.945 Y143.265 E13.68963
G1 X74.364 Y142.690 E13.74864
G1 X73.975 Y142.241 E13.79154
G1 X73.503 Y141.608 E13.84855
G1 X73.189 Y141.120 E13.89044
G1 X72.785 Y140.376 E13.95156
G1 X72.470 Y139.664 E14.00780
G1 X72.317 Y139.241 E14.04027
G1 X72.140 Y138.658 E14.08424
G1 X71.973 Y137.943 E14.13728
G1 X71.873 Y137.296 E14.18451
G1 X71.832 Y136.858 E14.21629
G1 X71.803 Y136.035 E14.27572
G1 X71.821 Y135.570 E14.30936
G1 X71.862 Y135.073 E14.34536
G1 X71.954 Y134.432 E14.39210
G1 X79.427 Y98.327 E17.05420
G1 X79.692 Y97.160 E17.14061
G1 X89.389 Y58.802 E19.99717
G1 X90.268 Y56.898 E20.14861
G1 X90.693 Y57.032 F6000.000
G1 X92.216 Y55.621 E20.29852 F1200.000
G1 X95.078 Y54.806 E20.51335
G1 X99.305 Y54.806 E20.81853
G1 X105.064 Y54.821 E21.23436 F1200.000
G1 X107.100 Y55.224 E21.38420
G1 X108.837 Y56.360 E21.53405
G1 X110.320 Y58.939 E21.74888
G1 X119.897 Y97.306 E24.60398
G1 X120.172 Y98.530 E24.69453
G1 X127.578 Y134.293 E27.33144
G1 X127.706 Y135.105 E27.39081
G1 X127.758 Y135.924 E27.45006
G1 X127.754 Y136.497 E27.49143
G1 X127.681 Y137.344 E27.55283
G1 X127.548 Y138.118 E27.60951
G1 X127.407 Y138.676 E27.65109
G1 X127.166 Y139.395 E27.70584
G1 X126.846 Y140.143 E27.76454
G1 X126.418 Y140.930 E27.82926
G1 X126.123 Y141.385 E27.86841
G1 X125.711 Y141.940 E27.91831
G1 X125.137 Y142.586 E27.98069
G1 X124.680 Y143.023 E28.02638
G1 X124.064 Y143.524 E28.08371
G1 X123.599 Y143.851 E28.12470
G1 X122.949 Y144.243 E28.17953
G1 X122.128 Y144.639 E28.24533
G1 X121.460 Y144.892 E28.29690
G1 X119.676 Y145.194 E28.42756
G1 X80.324 Y145.194 E31.26881
G1 X78.161 Y144.744 E31.42833
G1 X77.448 Y144.435 E31.48445
G1 X76.826 Y144.116 E31.53491
G1 X76.245 Y143.748 E31.58457
G1 X75.573 Y143.240 E31.64536
G1 X75.244 Y142.951 E31.67699
G1 X74.686 Y142.399 E31.73371
G1 X74.309 Y141.964 E31.77523
G1 X73.856 Y141.355 E31.83001
G1 X73.564 Y140.902 E31.86897
G1 X73.179 Y140.193 E31.92721
G1 X72.876 Y139.509 E31.98123
G1 X72.726 Y139.095 E32.01298
G1 X72.560 Y138.551 E32.05405
G1 X72.401 Y137.866 E32.10488
G1 X72.308 Y137.275 E32.14804
G1 X72.266 Y136.834 E32.18001
G1 X72.237 Y136.044 E32.23711
G1 X72.255 Y135.589 E32.27000
G1 X72.293 Y135.123 E32.30372
G1 X72.382 Y134.504 E32.34887
G1 X79.851 Y98.422 E35.00926
G1 X80.113 Y97.266 E35.09485
G1 X89.810 Y58.909 E37.95141
G1 X90.667 Y57.086 E38.09686
G1 E36.09686 F1800.00000
G92 E0
G1 X96.545 Y93.522 F6000.000
G1 E2.00000 F1800.00000
G1 X96.392 Y93.798 E2.02279 F1200.000
G1 X96.163 Y94.051 E2.04744
G1 X95.953 Y94.197 E2.06591
G1 X95.029 Y94.725 E2.14272
G1 X94.484 Y95.106 E2.19071
G1 X93.959 Y95.534 E2.23966
G1 X93.282 Y96.191 E2.30773
G1 X92.841 Y96.703 E2.35659
G1 X92.295 Y97.461 E2.42400
G1 X91.827 Y98.277 E2.49189
G1 X91.421 Y99.163 E2.56228
G1 X91.198 Y99.452 E2.58866
G1 X90.985 Y99.632 E2.60879
G1 X90.700 Y99.784 E2.63207
G1 X90.385 Y99.868 E2.65567
G1 X90.090 Y99.883 E2.67697
G1 X89.669 Y99.796 E2.70797
G1 X89.406 Y99.668 E2.72915
G1 X89.180 Y99.494 E2.74971
G1 X88.926 Y99.188 E2.77843
G1 X88.779 Y98.843 E2.80551
G1 X88.727 Y98.581 E2.82477
G1 X88.727 Y98.293 E2.84560
G1 X88.811 Y97.934 E2.87218
G1 X89.136 Y97.200 E2.93018
G1 X89.645 Y96.253 E3.00776
G1 X90.073 Y95.586 E3.06497
G1 X90.531 Y94.965 E3.12072
G1 X90.982 Y94.426 E3.17143
G1 X91.479 Y93.899 E3.22376
G1 X92.014 Y93.396 E3.27678
G1 X92.585 Y92.921 E3.33039
G1 X93.175 Y92.489 E3.38321
G1 X93.802 Y92.087 E3.43694
G1 X94.716 Y91.598 E3.51180
G1 X95.057 Y91.516 E3.53713 F1200.000
G1 X95.432 Y91.528 E3.56426
G1 X95.696 Y91.594 E3.58388
G1 X95.941 Y91.708 E3.60339
G1 X96.238 Y91.933 E3.63027
G1 X96.456 Y92.214 E3.65596
G1 X96.597 Y92.531 E3.68102
G1 X96.660 Y92.880 E3.70664
G1 X96.626 Y93.262 E3.73431
G1 X96.563 Y93.465 E3.74964
G1 X96.144 Y93.350 F6000.000
G1 X96.037 Y93.543 E3.76559 F1200.000
G1 X95.874 Y93.722 E3.78305
G1 X95.724 Y93.827 E3.79631
G1 X94.791 Y94.362 E3.87393
G1 X94.223 Y94.759 E3.92397
G1 X93.670 Y95.209 E3.97545
G1 X92.966 Y95.893 E4.04629
G1 X92.499 Y96.434 E4.09790
G1 X91.934 Y97.220 E4.16781
G1 X91.439 Y98.082 E4.23955
G1 X91.047 Y98.937 E4.30749
G1 X90.882 Y99.151 E4.32694
G1 X90.740 Y99.271 E4.34039
G1 X90.540 Y99.377 E4.35677
G1 X90.317 Y99.437 E4.37340
G1 X90.124 Y99.446 E4.38740
G1 X89.810 Y99.382 E4.41049
G1 X89.635 Y99.297 E4.42455
G1 X89.483 Y99.179 E4.43845
G1 X89.300 Y98.960 E4.45905
G1 X89.196 Y98.715 E4.47829
G1 X89.161 Y98.539 E4.49122
G1 X89.162 Y98.343 E4.50537
G1 X89.224 Y98.073 E4.52541
G1 X89.526 Y97.391 E4.57926
G1 X90.019 Y96.474 E4.65443
G1 X90.431 Y95.833 E4.70941
G1 X90.873 Y95.234 E4.76318
G1 X91.307 Y94.715 E4.81201
G1 X91.786 Y94.206 E4.86245
G1 X92.302 Y93.721 E4.91357
G1 X92.852 Y93.264 E4.96526
G1 X93.421 Y92.847 E5.01615
G1 X94.024 Y92.460 E5.06793
G1 X94.860 Y92.010 E5.13649
G1 X95.101 Y91.952 E5.15437 F1200.000
G1 X95.372 Y91.960 E5.17393
G1 X95.550 Y92.005 E5.18718
G1 X95.716 Y92.082 E5.20036
G1 X95.930 Y92.244 E5.21976
G1 X96.080 Y92.439 E5.23750
G1 X96.179 Y92.660 E5.25501
G1 X96.223 Y92.900 E5.27264
G1 X96.198 Y93.177 E5.29272
G1 X96.162 Y93.293 E5.30147
G1 X96.270 Y93.531 F6000.000
G1 E3.30147 F1800.00000
G92 E0
G1 X103.340 Y92.907 F6000.000
G1 E2.00000 F1800.00000
G1 X103.387 Y92.589 E2.02319 F1200.000
G1 X103.519 Y92.258 E2.04896
G1 X103.729 Y91.969 E2.07470
G1 X103.971 Y91.761 E2.09775
G1 X104.308 Y91.590 E2.12503
G1 X104.660 Y91.523 E2.15093
G1 X104.882 Y91.512 E2.16697 F1200.000
G1 X105.228 Y91.575 E2.19238
G1 X105.806 Y91.862 E2.23894
G1 X106.464 Y92.251 E2.29413
G1 X107.262 Y92.804 E2.36426
G1 X107.859 Y93.285 E2.41958
G1 X108.390 Y93.769 E2.47146
G1 X108.888 Y94.282 E2.52305
G1 X109.345 Y94.811 E2.57358
G1 X109.809 Y95.418 E2.62870
G1 X110.372 Y96.280 E2.70307
G1 X110.878 Y97.228 E2.78065
G1 X111.183 Y97.921 E2.83527
G1 X111.262 Y98.203 E2.85647
G1 X111.278 Y98.523 E2.87962
G1 X111.226 Y98.832 E2.90223
G1 X111.108 Y99.124 E2.92495
G1 X110.922 Y99.391 E2.94842
G1 X110.705 Y99.592 E2.96980
G1 X110.322 Y99.800 E3.00125
G1 X110.030 Y99.871 E3.02301
G1 X109.700 Y99.880 E3.04681
G1 X109.345 Y99.799 E3.07308
G1 X109.103 Y99.687 E3.09238
G1 X108.853 Y99.504 E3.11470
G1 X108.646 Y99.267 E3.13742
G1 X108.533 Y99.065 E3.15414
G1 X108.238 Y98.406 E3.20625
G1 X107.774 Y97.570 E3.27528
G1 X107.231 Y96.794 E3.34367
G1 X106.811 Y96.293 E3.39086
G1 X106.166 Y95.645 E3.45692
G1 X105.708 Y95.255 E3.50034
G1 X104.929 Y94.699 E3.56947
G1 X103.994 Y94.165 E3.64716
G1 X103.793 Y94.009 E3.66555
G1 X103.584 Y93.763 E3.68887
G1 X103.445 Y93.496 E3.71059
G1 X103.372 Y93.250 E3.72913
G1 X103.346 Y92.967 E3.74966
G1 X103.902 Y92.469 F6000.000
G1 X104.050 Y92.266 E3.76782 F1200.000
G1 X104.214 Y92.124 E3.78347
G1 X104.449 Y92.005 E3.80247
G1 X104.712 Y91.956 E3.82177
G1 X104.854 Y91.948 E3.83204
G1 X105.090 Y91.991 E3.84938
G1 X105.599 Y92.243 E3.89037
G1 X106.229 Y92.617 E3.94328
G1 X107.002 Y93.152 E4.01115
G1 X107.576 Y93.615 E4.06437
G1 X108.087 Y94.081 E4.11436
G1 X108.568 Y94.575 E4.16409
G1 X109.008 Y95.085 E4.21275
G1 X109.454 Y95.669 E4.26576
G1 X109.998 Y96.502 E4.33759
G1 X110.487 Y97.419 E4.41262
G1 X110.773 Y98.067 E4.46383
G1 X110.831 Y98.274 E4.47930
G1 X110.842 Y98.498 E4.49549
G1 X110.806 Y98.713 E4.51125
G1 X110.724 Y98.916 E4.52706
G1 X110.592 Y99.104 E4.54365
G1 X110.450 Y99.237 E4.55768
G1 X110.165 Y99.391 E4.58111
G1 X109.971 Y99.439 E4.59549
G1 X109.743 Y99.445 E4.61194
G1 X109.486 Y99.386 E4.63098
G1 X109.324 Y99.311 E4.64388
G1 X109.149 Y99.182 E4.65958
G1 X109.003 Y99.015 E4.67560
G1 X108.921 Y98.869 E4.68766
G1 X108.626 Y98.212 E4.73969
G1 X108.143 Y97.340 E4.81168
G1 X107.576 Y96.530 E4.88306
G1 X107.132 Y96.000 E4.93297
G1 X106.461 Y95.326 E5.00166
G1 X105.975 Y94.912 E5.04772
G1 X105.163 Y94.333 E5.11976
G1 X104.236 Y93.803 E5.19689
G1 X104.094 Y93.694 E5.20977
G1 X103.947 Y93.519 E5.22629
G1 X103.849 Y93.332 E5.24150
G1 X103.800 Y93.168 E5.25391
G1 X103.777 Y92.919 E5.27192
G1 X103.809 Y92.703 E5.28771
G1 X103.880 Y92.525 E5.30154
G1 X103.781 Y92.248 F6000.000
G1 X104.685 Y87.818 F6000.000
G1 X100.179 Y85.565 E5.66526 F1200.000
G1 X104.678 Y83.316 E6.02844
G1 X100.173 Y81.063 E6.39216
G1 X104.415 Y78.942 E6.73459
G1 X104.448 Y79.336 E6.76313
G1 X104.636 Y80.668 E6.86028
G1 X104.912 Y82.042 E6.96147
G1 X105.273 Y83.395 E7.06258
G1 X105.677 Y84.627 E7.15616
G1 X106.151 Y85.837 E7.25000
G1 X106.736 Y87.106 E7.35087
G1 X107.347 Y88.251 E7.44459
G1 X108.021 Y89.359 E7.53829
G1 X108.845 Y90.551 E7.64286
G1 X109.645 Y91.573 E7.73656
G1 X111.228 Y93.384 E7.91025
G1 X111.825 Y94.181 E7.98215
G1 X112.363 Y95.011 E8.05358
G1 X112.866 Y95.922 E8.12869
G1 X113.303 Y96.872 E8.20417
G1 X113.655 Y97.801 E8.27594
G1 X113.953 Y98.797 E8.35098
G1 X114.176 Y99.804 E8.42547
G1 X114.316 Y100.734 E8.49336
G1 X114.405 Y101.827 E8.57255
G1 X114.412 Y102.815 E8.64387
G1 X114.351 Y103.802 E8.71525
G1 X114.207 Y104.879 E8.79368
G1 X114.006 Y105.847 E8.86506
G1 X113.738 Y106.799 E8.93647
G1 X113.365 Y107.833 E9.01585
G1 X112.963 Y108.738 E9.08735
G1 X112.455 Y109.688 E9.16514
G1 X111.625 Y111.040 E9.27971
G1 X111.353 Y111.672 E9.32935
G1 X111.169 Y112.324 E9.37827
G1 X111.076 Y112.941 E9.42331
G1 X111.059 Y113.618 E9.47227
G1 X111.123 Y114.242 E9.51753
G1 X111.284 Y114.932 E9.56872
G1 X116.935 Y133.299 E10.95615
G1 X118.258 Y133.039 E11.05352
G1 X118.570 Y133.026 E11.07609
G1 X118.855 Y133.043 E11.09670
G1 X119.173 Y133.094 E11.11991
G1 X119.434 Y133.161 E11.13941
G1 X119.724 Y133.266 E11.16162
G1 X119.971 Y133.382 E11.18136
G1 X120.229 Y133.533 E11.20295
G1 X120.459 Y133.700 E11.22347
G1 X120.677 Y133.889 E11.24429
G1 X120.884 Y134.108 E11.26606
G1 X121.078 Y134.360 E11.28899
G1 X121.234 Y134.607 E11.31011
G1 X121.374 Y134.890 E11.33289
G1 X121.494 Y135.210 E11.35761
G1 X121.576 Y135.531 E11.38149
G1 X121.620 Y135.831 E11.40340
G1 X121.635 Y136.162 E11.42730
G1 X121.619 Y136.447 E11.44792
G1 X121.570 Y136.765 E11.47112
G1 X121.504 Y137.027 E11.49063
G1 X121.401 Y137.317 E11.51283
G1 X121.286 Y137.565 E11.53258
G1 X121.136 Y137.823 E11.55416
G1 X120.971 Y138.054 E11.57468
G1 X120.782 Y138.273 E11.59550
G1 X120.564 Y138.481 E11.61727
G1 X120.314 Y138.677 E11.64020
G1 X120.067 Y138.834 E11.66132
G1 X119.786 Y138.976 E11.68410
G1 X119.551 Y139.064 E11.70218
G1 X117.177 Y139.048 E11.87360
G1 X116.975 Y139.008 E11.88851
G1 X116.765 Y138.934 E11.90458
G1 X116.568 Y138.830 E11.92066
G1 X116.422 Y138.724 E11.93367
G1 X116.223 Y138.539 E11.95327
G1 X116.092 Y138.368 E11.96887
G1 X115.982 Y138.174 E11.98495
G1 X115.892 Y137.943 E12.00283
G1 X109.925 Y118.547 E13.46805
G1 X109.687 Y117.870 E13.51987
G1 X109.498 Y117.510 E13.54924
G1 X109.279 Y117.183 E13.57764
G1 X109.026 Y116.881 E13.60603
G1 X108.743 Y116.608 E13.63442
G1 X108.433 Y116.367 E13.66281
G1 X108.099 Y116.160 E13.69120
G1 X107.744 Y115.990 E13.71959
G1 X107.368 Y115.856 E13.74843
G1 X106.914 Y115.755 E13.78200
G1 X106.558 Y115.713 E13.80788
G1 X106.143 Y115.710 E13.83784
G1 X105.707 Y115.755 E13.86946
G1 X104.460 Y116.118 E13.96325
G1 X103.874 Y113.985 E14.12302
G1 X103.845 Y113.857 E14.13250
G1 X104.703 Y113.530 E14.19880
G1 X105.306 Y113.254 E14.24666
G1 X105.890 Y112.948 E14.29430
G1 X106.457 Y112.610 E14.34193
G1 X107.004 Y112.241 E14.38962
G1 X107.570 Y111.811 E14.44093
G1 X108.113 Y111.347 E14.49250
G1 X108.694 Y110.777 E14.55123
G1 X109.536 Y109.863 E14.64097
G1 X108.979 Y109.293 E14.69849
G1 X109.113 Y109.115 E14.71463
G1 X109.817 Y109.492 E14.77227
G1 X110.546 Y108.270 E14.87499
G1 X110.921 Y107.535 E14.93458
G1 X111.227 Y106.823 E14.99055
G1 X111.486 Y106.092 E15.04650
G1 X111.704 Y105.324 E15.10417
G1 X111.868 Y104.554 E15.16101
G1 X111.983 Y103.754 E15.21935
G1 X112.048 Y102.911 E15.28039
G1 X112.005 Y102.512 E15.30939
G1 X111.801 Y102.069 E15.34461
G1 X111.501 Y101.749 E15.37628
G1 X111.123 Y101.533 E15.40771
G1 X110.684 Y101.438 E15.44010
G1 X110.196 Y101.494 E15.47560
G1 X109.796 Y101.681 E15.50749
G1 X109.471 Y101.978 E15.53926
G1 X109.250 Y102.360 E15.57113
G1 X109.166 Y102.733 E15.59871
G1 X109.092 Y103.594 E15.66114
G1 X108.926 Y104.509 E15.72828
G1 X108.718 Y105.261 E15.78459
G1 X108.445 Y105.994 E15.84109
G1 X108.077 Y106.764 E15.90274
G1 X107.659 Y107.466 E15.96170
G1 X107.182 Y108.125 E16.02045
G1 X106.621 Y108.768 E16.08204
G1 X106.060 Y109.306 E16.13817
G1 X105.395 Y109.839 E16.19967
G1 X104.717 Y110.289 E16.25845
G1 X103.963 Y110.694 E16.32022
G1 X103.213 Y111.013 E16.37908
G1 X102.432 Y111.267 E16.43840
G1 X101.634 Y111.448 E16.49748
G1 X100.818 Y111.558 E16.55689
G1 X99.994 Y111.595 E16.61646
G1 X99.170 Y111.557 E16.67604
G1 X98.354 Y111.446 E16.73547
G1 X97.553 Y111.262 E16.79482
G1 X96.776 Y111.009 E16.85384
G1 X96.022 Y110.687 E16.91299
G1 X95.304 Y110.301 E16.97187
G1 X94.594 Y109.831 E17.03337
G1 X93.959 Y109.323 E17.09207
G1 X93.370 Y108.759 E17.15097
G1 X92.813 Y108.117 E17.21233
G1 X92.315 Y107.423 E17.27396
G1 X91.916 Y106.751 E17.33043
G1 X91.580 Y106.051 E17.38647
G1 X91.278 Y105.248 E17.44843
G1 X91.061 Y104.457 E17.50762
G1 X90.906 Y103.568 E17.57283
G1 X90.836 Y102.759 E17.63143
G1 X90.764 Y102.396 E17.65816
G1 X90.546 Y101.995 E17.69109
G1 X90.151 Y101.650 E17.72897
G1 X89.792 Y101.493 E17.75725
G1 X89.413 Y101.441 E17.78490
G1 X88.929 Y101.513 E17.82023
G1 X88.549 Y101.716 E17.85137
G1 X88.397 Y101.851 E17.86603
G1 X88.183 Y102.095 E17.88946
G1 X88.002 Y102.488 E17.92071
G1 X87.952 Y102.929 E17.95275
G1 X88.023 Y103.800 E18.01585
G1 X88.164 Y104.723 E18.08326
G1 X88.371 Y105.608 E18.14883
G1 X88.655 Y106.508 E18.21703
G1 X88.994 Y107.350 E18.28256
G1 X89.395 Y108.163 E18.34795
G1 X90.155 Y109.450 E18.45588
G1 X90.884 Y109.133 E18.51329
G1 X91.006 Y109.310 E18.52879
G1 X90.460 Y109.866 E18.58504
G1 X91.505 Y110.984 E18.69559
G1 X92.202 Y111.623 E18.76388
G1 X92.943 Y112.202 E18.83177
G1 X93.641 Y112.671 E18.89249
G1 X94.414 Y113.112 E18.95671
G1 X95.259 Y113.513 E19.02424
G1 X96.157 Y113.871 E19.09406
G1 X95.538 Y116.139 E19.26380
G1 X94.901 Y115.916 E19.31252
G1 X94.432 Y115.784 E19.34772
G1 X93.808 Y115.706 E19.39307
G1 X93.173 Y115.738 E19.43900
G1 X92.557 Y115.879 E19.48458
G1 X91.988 Y116.117 E19.52913
G1 X91.544 Y116.383 E19.56653
G1 X91.106 Y116.747 E19.60763
G1 X90.697 Y117.214 E19.65250
G1 X90.370 Y117.750 E19.69778
G1 X90.147 Y118.312 E19.74145
G1 X84.109 Y137.938 E21.22400
G1 X83.997 Y138.213 E21.24543
G1 X83.831 Y138.473 E21.26775
G1 X83.649 Y138.667 E21.28695
G1 X83.435 Y138.827 E21.30620
G1 X83.158 Y138.963 E21.32851
