; generated by Slic3r 1.2.9 on 2016-12-04 at 12:21:46

; external perimeters extrusion width = 0.40mm
; perimeters extrusion width = 0.67mm
; infill extrusion width = 0.67mm
; solid infill extrusion width = 0.67mm
; top infill extrusion width = 0.26mm

M107
M190 S70 ; set bed temperature
M104 S205 ; set temperature
G28 ; home all axes
G1 Z5 F5000 ; lift nozzle

M109 S205 ; wait for temperature to be reached
G21 ; set units to millimeters
G90 ; use absolute coordinates
M82 ; use absolute distances for extrusion
G92 E0
G1 E-2.00000 F1800.00000
G92 E0
G1 Z0.400 F6000.000
G1 X71.307 Y80.633 F6000.000
G1 E2.00000 F1800.00000
M204 S2000
G1 X72.069 Y80.032 E2.07013 F1200.000
G1 X72.368 Y79.833 E2.09606
G1 X73.213 Y79.368 E2.16566
G1 X73.547 Y79.218 E2.19212
G1 X74.456 Y78.897 E2.26172
G1 X74.811 Y78.804 E2.28818
G1 X75.760 Y78.637 E2.35779
G1 X76.125 Y78.603 E2.38423
G1 X77.095 Y78.593 E2.45432
G1 X77.454 Y78.619 E2.48029 F1200.000
G1 X78.394 Y78.764 E2.54894
G1 X126.529 Y90.252 E6.12196
G1 X128.500 Y91.130 E6.27773
G1 X130.455 Y93.415 E6.49485
G1 X130.710 Y93.946 E6.53737
G1 X131.235 Y95.684 E6.66847
G1 X131.344 Y96.469 E6.72571
G1 X131.400 Y97.276 E6.78409
G1 X131.400 Y102.724 E7.17744
G1 X131.344 Y103.531 E7.23582
G1 X131.235 Y104.316 E7.29306
G1 X130.710 Y106.054 E7.42416
G1 X130.455 Y106.585 E7.46668
G1 X129.178 Y108.324 E7.62245
G1 X126.529 Y109.748 E7.83957
G1 X78.394 Y121.236 E11.41259
G1 X77.455 Y121.381 E11.48119
G1 X77.089 Y121.407 E11.50767
G1 X76.125 Y121.397 E11.57731
G1 X75.760 Y121.363 E11.60374
G1 X74.811 Y121.196 E11.67331
G1 X74.457 Y121.103 E11.69979
G1 X73.547 Y120.782 E11.76941
G1 X73.213 Y120.632 E11.79585
G1 X72.368 Y120.167 E11.86548
G1 X72.063 Y119.964 E11.89191
G1 X71.307 Y119.367 E11.96153
G1 X71.039 Y119.117 E11.98797
G1 X70.390 Y118.403 E12.05760
G1 X70.166 Y118.112 E12.08412
G1 X69.644 Y117.303 E12.15365
G1 X69.471 Y116.980 E12.18010
G1 X69.087 Y116.096 E12.24971
G1 X68.970 Y115.749 E12.27616
G1 X68.736 Y114.813 E12.34577
G1 X68.677 Y114.451 E12.37227
G1 X68.600 Y113.504 E12.44085
G1 X68.600 Y86.496 E14.39089
G1 X68.677 Y85.548 E14.45953
G1 X68.737 Y85.186 E14.48601
G1 X68.970 Y84.251 E14.55560
G1 X69.087 Y83.904 E14.58203
G1 X69.471 Y83.020 E14.65165
G1 X69.644 Y82.697 E14.67809
G1 X70.167 Y81.887 E14.74771
G1 X70.390 Y81.596 E14.77417
G1 X71.039 Y80.883 E14.84377
G1 X71.263 Y80.674 E14.86587
G1 X71.603 Y80.951 F6000.000
G1 X72.310 Y80.394 E14.93087 F1200.000
G1 X72.609 Y80.195 E14.95678
G1 X73.390 Y79.764 E15.02123
G1 X73.725 Y79.614 E15.04769
G1 X74.566 Y79.317 E15.11213
G1 X74.921 Y79.224 E15.13859
G1 X75.800 Y79.069 E15.20306
G1 X76.165 Y79.035 E15.22949
G1 X77.064 Y79.026 E15.29444
G1 X77.423 Y79.052 E15.32041 F1200.000
G1 X78.293 Y79.187 E15.38398
G1 X126.428 Y90.674 E18.95700
G1 X128.318 Y91.533 E19.10685
G1 X130.064 Y93.603 E19.30238
G1 X130.319 Y94.134 E19.34490
G1 X130.805 Y95.744 E19.46630
G1 X130.914 Y96.529 E19.52354
G1 X130.966 Y97.276 E19.57761
G1 X130.966 Y102.724 E19.97095
G1 X130.914 Y103.471 E20.02501
G1 X130.805 Y104.256 E20.08226
G1 X130.319 Y105.866 E20.20366
G1 X130.064 Y106.397 E20.24618
G1 X128.823 Y108.060 E20.39602
G1 X126.428 Y109.326 E20.59156
G1 X78.293 Y120.813 E24.16458
G1 X77.424 Y120.948 E24.22811
G1 X77.058 Y120.974 E24.25458
G1 X76.165 Y120.965 E24.31907
G1 X75.800 Y120.931 E24.34550
G1 X74.921 Y120.776 E24.40993
G1 X74.567 Y120.683 E24.43640
G1 X73.725 Y120.386 E24.50087
G1 X73.391 Y120.236 E24.52730
G1 X72.609 Y119.805 E24.59178
G1 X72.304 Y119.602 E24.61821
G1 X71.603 Y119.049 E24.68269
G1 X71.335 Y118.799 E24.70912
G1 X70.734 Y118.139 E24.77360
G1 X70.510 Y117.848 E24.80012
G1 X70.026 Y117.098 E24.86451
G1 X69.857 Y116.782 E24.89041
G1 X69.499 Y115.956 E24.95541
G1 X69.381 Y115.609 E24.98186
G1 X69.165 Y114.743 E25.04632
G1 X69.106 Y114.381 E25.07282
G1 X69.034 Y113.504 E25.13632
G1 X69.034 Y86.496 E27.08636
G1 X69.106 Y85.618 E27.14993
G1 X69.165 Y85.256 E27.17639
G1 X69.381 Y84.390 E27.24084
G1 X69.499 Y84.044 E27.26727
G1 X69.854 Y83.224 E27.33174
G1 X70.026 Y82.901 E27.35818
G1 X70.511 Y82.152 E27.42264
G1 X70.734 Y81.861 E27.44911
G1 X71.335 Y81.201 E27.51356
G1 X71.559 Y80.992 E27.53566
G1 E25.53566 F1800.00000
G92 E0
G1 X115.729 Y103.559 F6000.000
G1 E2.00000 F1800.00000
G1 X77.209 Y112.752 E4.85928 F1200.000
G1 X77.209 Y110.217 E5.04227
G1 X93.723 Y106.268 E6.26822
G1 X94.064 Y106.179 E6.29366
G1 X94.343 Y106.029 E6.31650
G1 X94.590 Y105.809 E6.34041
G1 X94.772 Y105.542 E6.36372
G1 X94.886 Y105.239 E6.38708
G1 X94.925 Y104.918 E6.41044
G1 X94.886 Y104.597 E6.43376
G1 X94.768 Y104.288 E6.45766
G1 X94.590 Y104.026 E6.48051
G1 X94.349 Y103.810 E6.50387
G1 X94.066 Y103.658 E6.52711
G1 X90.147 Y102.692 E6.81851
G1 X90.213 Y102.146 E6.85816
G1 X115.729 Y102.146 E8.70047
G1 X115.729 Y103.499 E8.79816
G1 X115.792 Y103.954 F6000.000
G1 E6.79816 F1800.00000
G92 E0
G1 X115.729 Y97.854 F6000.000
G1 E2.00000 F1800.00000
G1 X90.213 Y97.854 E3.84231 F1200.000
G1 X90.147 Y97.308 E3.88196
G1 X94.066 Y96.343 E4.17336
G1 X94.349 Y96.190 E4.19660
G1 X94.590 Y95.974 E4.21996
G1 X94.772 Y95.706 E4.24332
G1 X94.886 Y95.403 E4.26668
G1 X94.925 Y95.082 E4.29004
G1 X94.886 Y94.761 E4.31340
G1 X94.772 Y94.458 E4.33676
G1 X94.590 Y94.191 E4.36012
G1 X94.349 Y93.974 E4.38348
G1 X94.064 Y93.821 E4.40684
G1 X93.723 Y93.732 E4.43228
G1 X77.209 Y89.783 E5.65823
G1 X77.209 Y87.248 E5.84122
G1 X115.729 Y96.441 E8.70050
G1 X115.729 Y97.794 E8.79819
G1 X115.729 Y98.254 F6000.000
G1 X116.164 Y96.098 F6000.000
G1 X76.775 Y86.698 E11.72192 F1200.000
G1 X76.775 Y90.125 E11.96935
G1 X93.905 Y94.228 E13.24109
G1 X94.098 Y94.332 E13.25691
G1 X94.261 Y94.478 E13.27273
G1 X94.384 Y94.659 E13.28855
G1 X94.461 Y94.865 E13.30437
G1 X94.487 Y95.082 E13.32019
G1 X94.461 Y95.300 E13.33601
G1 X94.384 Y95.505 E13.35183
G1 X94.261 Y95.686 E13.36765
G1 X94.098 Y95.832 E13.38347
G1 X93.909 Y95.934 E13.39897
G1 X89.670 Y96.979 E13.71416
G1 X89.781 Y97.900 E13.78111
G1 X85.910 Y97.900 E14.06064
G1 X84.929 Y98.140 E14.13356
G1 X84.565 Y98.332 E14.16324
G1 X84.260 Y98.581 E14.19167
G1 X84.010 Y98.885 E14.22010
G1 X83.823 Y99.231 E14.24853
G1 X83.709 Y99.608 E14.27696
G1 X83.670 Y100.000 E14.30539
G1 X83.709 Y100.392 E14.33382
G1 X83.823 Y100.768 E14.36224
G1 X84.010 Y101.115 E14.39067
G1 X84.260 Y101.419 E14.41910
G1 X84.565 Y101.668 E14.44753
G1 X84.929 Y101.860 E14.47721
G1 X85.910 Y102.100 E14.55014
G1 X89.781 Y102.100 E14.82967
G1 X89.670 Y103.021 E14.89662
G1 X93.909 Y104.066 E15.21180
G1 X94.098 Y104.168 E15.22731
G1 X94.261 Y104.314 E15.24313
G1 X94.381 Y104.490 E15.25850
G1 X94.461 Y104.702 E15.27487
G1 X94.487 Y104.918 E15.29057
G1 X94.461 Y105.135 E15.30639
G1 X94.384 Y105.341 E15.32221
G1 X94.262 Y105.520 E15.33791
G1 X94.092 Y105.671 E15.35427
G1 X93.905 Y105.772 E15.36965
G1 X93.618 Y105.846 E15.39101
G1 X76.775 Y109.875 E16.64140
G1 X76.775 Y113.302 E16.88883
G1 X116.164 Y103.902 E19.81256
G1 X116.164 Y100.900 E20.02928
G1 X116.935 Y100.900 E20.08500
G1 X117.150 Y100.922 E20.10057
G1 X117.324 Y100.974 E20.11368
G1 X117.484 Y101.060 E20.12678
G1 X117.624 Y101.175 E20.13989
G1 X117.740 Y101.315 E20.15299
G1 X118.469 Y102.674 E20.26436
G1 X119.199 Y101.316 E20.37563
G1 X119.318 Y101.171 E20.38918
G1 X119.455 Y101.060 E20.40192
G1 X119.615 Y100.974 E20.41503
G1 X119.789 Y100.922 E20.42813
G1 X119.969 Y100.904 E20.44124
G1 X120.149 Y100.921 E20.45424
G1 X120.328 Y100.977 E20.46780
G1 X120.484 Y101.060 E20.48054
G1 X120.624 Y101.175 E20.49365
G1 X120.740 Y101.315 E20.50675
G1 X121.469 Y102.674 E20.61812
G1 X122.199 Y101.315 E20.72948
G1 X122.311 Y101.178 E20.74222
G1 X122.456 Y101.059 E20.75578
G1 X122.615 Y100.974 E20.76879
G1 X122.789 Y100.922 E20.78189
G1 X122.969 Y100.904 E20.79500
G1 X123.538 Y100.998 E20.83660
G1 X124.052 Y101.257 E20.87815
G1 X124.462 Y101.660 E20.91969
G1 X124.730 Y102.169 E20.96124
G1 X124.829 Y102.736 E21.00279
G1 X124.750 Y103.306 E21.04433
G1 X124.685 Y103.441 E21.05516
G1 X88.601 Y112.052 E23.73358
G1 X88.508 Y111.663 E23.76246
G1 X81.322 Y113.378 E24.29591
G1 X81.415 Y113.767 E24.32480
G1 X76.925 Y114.839 E24.65804
G1 X76.674 Y114.857 E24.67626
G1 X76.423 Y114.834 E24.69443
G1 X76.180 Y114.770 E24.71260
G1 X75.950 Y114.667 E24.73077
G1 X75.740 Y114.528 E24.74894
G1 X75.556 Y114.357 E24.76710
G1 X75.403 Y114.157 E24.78527
G1 X75.284 Y113.935 E24.80344
G1 X75.204 Y113.697 E24.82161
G1 X75.163 Y113.448 E24.83983
G1 X75.164 Y108.603 E25.18964
G1 X88.184 Y105.489 E26.15626
G1 X88.187 Y104.318 E26.24079
G1 X77.598 Y101.723 E27.02800
G1 X76.964 Y101.640 E27.07412
G1 X76.626 Y101.485 E27.10095
G1 X76.263 Y101.206 E27.13402
G1 X75.992 Y100.853 E27.16618
G1 X75.821 Y100.442 E27.19834
G1 X75.765 Y100.011 E27.22972
G1 X75.822 Y99.557 E27.26275
G1 X75.992 Y99.147 E27.29478
G1 X76.256 Y98.802 E27.32616
G1 X76.628 Y98.514 E27.36011
G1 X76.964 Y98.360 E27.38681
G1 X77.598 Y98.277 E27.43293
G1 X88.187 Y95.682 E28.22014
G1 X88.184 Y94.511 E28.30467
G1 X75.164 Y91.397 E29.27129
G1 X75.163 Y86.552 E29.62110
G1 X75.204 Y86.303 E29.63933
G1 X75.284 Y86.065 E29.65749
G1 X75.403 Y85.843 E29.67566
G1 X75.556 Y85.643 E29.69383
G1 X75.740 Y85.472 E29.71200
G1 X75.950 Y85.333 E29.73016
G1 X76.180 Y85.230 E29.74833
G1 X76.422 Y85.166 E29.76642
G1 X76.680 Y85.143 E29.78511
G1 X76.925 Y85.161 E29.80288
G1 X81.415 Y86.233 E30.13613
G1 X81.322 Y86.622 E30.16502
G1 X88.508 Y88.337 E30.69846
G1 X88.601 Y87.948 E30.72734
G1 X124.685 Y96.559 E33.40576
G1 X124.750 Y96.694 E33.41659
G1 X124.829 Y97.264 E33.45814
G1 X124.730 Y97.829 E33.49953
G1 X124.453 Y98.350 E33.54217
G1 X124.052 Y98.743 E33.58272
G1 X123.538 Y99.002 E33.62427
G1 X122.969 Y99.096 E33.66587
G1 X122.789 Y99.078 E33.67898
G1 X122.615 Y99.026 E33.69208
G1 X122.455 Y98.940 E33.70519
G1 X122.315 Y98.825 E33.71829
G1 X122.199 Y98.685 E33.73140
G1 X121.469 Y97.326 E33.84276
G1 X120.740 Y98.684 E33.95403
G1 X120.621 Y98.829 E33.96759
G1 X120.484 Y98.940 E33.98033
G1 X120.324 Y99.026 E33.99343
G1 X120.150 Y99.078 E34.00654
G1 X119.969 Y99.096 E34.01964
G1 X119.789 Y99.078 E34.03275
G1 X119.615 Y99.026 E34.04585
G1 X119.455 Y98.940 E34.05896
G1 X119.315 Y98.825 E34.07206
G1 X119.199 Y98.685 E34.08516
G1 X118.469 Y97.326 E34.19653
G1 X117.740 Y98.685 E34.30790
G1 X117.624 Y98.825 E34.32100
G1 X117.484 Y98.940 E34.33411
G1 X117.324 Y99.026 E34.34721
G1 X117.150 Y99.078 E34.36031
G1 X116.935 Y99.100 E34.37589
G1 X116.164 Y99.100 E34.43161
G1 X116.164 Y96.158 E34.64400
G1 X115.729 Y98.334 F6000.000
G1 X85.962 Y98.334 E36.79323 F1200.000
G1 X85.084 Y98.549 E36.85849
G1 X84.806 Y98.696 E36.88119
G1 X84.568 Y98.890 E36.90342
G1 X84.372 Y99.128 E36.92565
G1 X84.226 Y99.399 E36.94788
G1 X84.136 Y99.694 E36.97011
G1 X84.106 Y100.000 E36.99234
G1 X84.136 Y100.306 E37.01457
G1 X84.226 Y100.601 E37.03680
G1 X84.372 Y100.872 E37.05903
G1 X84.568 Y101.110 E37.08126
G1 X84.806 Y101.304 E37.10349
G1 X85.084 Y101.451 E37.12618
G1 X85.962 Y101.666 E37.19145
G1 X115.729 Y101.666 E39.34068
G1 X115.729 Y100.466 E39.42732
G1 X116.957 Y100.466 E39.51593
G1 X117.235 Y100.494 E39.53612
G1 X117.490 Y100.571 E39.55539
G1 X117.726 Y100.697 E39.57466
G1 X117.932 Y100.866 E39.59392
G1 X118.102 Y101.072 E39.61319
G1 X118.469 Y101.756 E39.66926
G1 X118.837 Y101.072 E39.72530
G1 X119.011 Y100.862 E39.74502
G1 X119.213 Y100.697 E39.76386
G1 X119.448 Y100.571 E39.78313
G1 X119.704 Y100.494 E39.80240
G1 X119.969 Y100.468 E39.82167
G1 X120.235 Y100.494 E39.84090
G1 X120.496 Y100.574 E39.86062
G1 X120.726 Y100.697 E39.87946
G1 X120.932 Y100.866 E39.89873
G1 X121.102 Y101.072 E39.91800
G1 X121.469 Y101.756 E39.97407
G1 X121.837 Y101.072 E40.03015
G1 X122.003 Y100.870 E40.04899
G1 X122.213 Y100.696 E40.06871
G1 X122.448 Y100.571 E40.08794
G1 X122.704 Y100.494 E40.10721
G1 X122.969 Y100.468 E40.12648
G1 X123.235 Y100.494 E40.14575
G1 X123.672 Y100.580 E40.17792
G1 X124.308 Y100.899 E40.22928
G1 X124.815 Y101.398 E40.28065
G1 X125.146 Y102.028 E40.33201
G1 X125.268 Y102.729 E40.38337
G1 X125.170 Y103.433 E40.43474
G1 X124.986 Y103.816 E40.46539
G1 X88.280 Y112.575 E43.19006
G1 X88.187 Y112.186 E43.21894
G1 X86.514 Y112.585 E43.34313
G1 X86.607 Y112.974 E43.37201
G1 X85.945 Y113.132 E43.42111
G1 X85.852 Y112.743 E43.44999
G1 X84.179 Y113.142 E43.57417
G1 X84.272 Y113.532 E43.60305
G1 X83.611 Y113.689 E43.65215
G1 X83.518 Y113.300 E43.68103
G1 X81.845 Y113.700 E43.80522
G1 X81.938 Y114.089 E43.83410
G1 X76.992 Y115.270 E44.20124
G1 X76.669 Y115.293 E44.22460
G1 X76.347 Y115.263 E44.24793
G1 X76.035 Y115.181 E44.27127
G1 X75.740 Y115.049 E44.29461
G1 X75.471 Y114.870 E44.31794
G1 X75.234 Y114.650 E44.34128
G1 X75.037 Y114.393 E44.36462
G1 X74.885 Y114.108 E44.38795
G1 X74.781 Y113.802 E44.41129
G1 X74.729 Y113.483 E44.43465
G1 X74.729 Y108.260 E44.81174
G1 X87.751 Y105.146 E45.77842
G1 X87.752 Y104.658 E45.81363
G1 X77.518 Y102.150 E46.57446
G1 X76.843 Y102.062 E46.62356
G1 X76.401 Y101.860 E46.65865
G1 X75.953 Y101.516 E46.69940
G1 X75.613 Y101.072 E46.73981
G1 X75.398 Y100.555 E46.78023
G1 X75.327 Y100.012 E46.81978
G1 X75.399 Y99.444 E46.86107
G1 X75.613 Y98.928 E46.90143
G1 X75.946 Y98.493 E46.94099
G1 X76.402 Y98.140 E46.98262
G1 X76.843 Y97.938 E47.01766
G1 X77.518 Y97.850 E47.06676
G1 X87.752 Y95.342 E47.82759
G1 X87.751 Y94.854 E47.86279
G1 X74.729 Y91.740 E48.82948
G1 X74.729 Y86.517 E49.20657
G1 X74.781 Y86.198 E49.22993
G1 X74.885 Y85.892 E49.25326
G1 X75.037 Y85.607 E49.27660
G1 X75.234 Y85.350 E49.29994
G1 X75.471 Y85.130 E49.32327
G1 X75.740 Y84.951 E49.34661
G1 X76.035 Y84.819 E49.36995
G1 X76.347 Y84.737 E49.39325
G1 X76.676 Y84.707 E49.41711
G1 X76.992 Y84.730 E49.43997
G1 X81.938 Y85.911 E49.80711
G1 X81.845 Y86.300 E49.83599
G1 X83.518 Y86.700 E49.96018
G1 X83.611 Y86.311 E49.98906
G1 X84.272 Y86.468 E50.03815
G1 X84.179 Y86.858 E50.06704
G1 X85.852 Y87.257 E50.19122
G1 X85.945 Y86.868 E50.22010
G1 X86.607 Y87.026 E50.26920
G1 X86.514 Y87.415 E50.29808
G1 X88.187 Y87.814 E50.42227
G1 X88.280 Y87.425 E50.45115
G1 X124.986 Y96.184 E53.17582
G1 X125.170 Y96.567 E53.20647
G1 X125.268 Y97.271 E53.25784
G1 X125.146 Y97.972 E53.30914
G1 X124.805 Y98.613 E53.36160
G1 X124.308 Y99.101 E53.41187
G1 X123.672 Y99.420 E53.46324
G1 X123.235 Y99.506 E53.49541
G1 X122.969 Y99.532 E53.51468
G1 X122.704 Y99.506 E53.53395
G1 X122.448 Y99.429 E53.55321
G1 X122.213 Y99.303 E53.57248
G1 X122.007 Y99.134 E53.59175
G1 X121.837 Y98.928 E53.61102
G1 X121.469 Y98.244 E53.66709
G1 X121.102 Y98.928 E53.72313
G1 X120.928 Y99.138 E53.74285
G1 X120.726 Y99.303 E53.76169
G1 X120.490 Y99.429 E53.78096
G1 X120.235 Y99.506 E53.80023
G1 X119.969 Y99.532 E53.81950
G1 X119.704 Y99.506 E53.83876
G1 X119.448 Y99.429 E53.85803
G1 X119.213 Y99.303 E53.87730
G1 X119.007 Y99.134 E53.89657
G1 X118.837 Y98.928 E53.91584
G1 X118.469 Y98.244 E53.97191
G1 X118.102 Y98.928 E54.02798
G1 X117.932 Y99.134 E54.04725
G1 X117.726 Y99.303 E54.06652
G1 X117.490 Y99.429 E54.08579
G1 X117.235 Y99.506 E54.10505
G1 X116.957 Y99.534 E54.12525
G1 X115.729 Y99.534 E54.21386
G1 X115.729 Y98.394 E54.29616
G1 X115.729 Y97.934 F6000.000
G1 X115.947 Y98.094 F6000.000
G1 X90.023 Y98.094 E56.16784 F1200.000
G1 E54.16784 F1800.00000
G92 E0
G1 X90.023 Y101.906 F6000.000
G1 E2.00000 F1800.00000
G1 X115.947 Y101.906 E3.87167 F1200.000
G1 X116.421 Y101.805 F6000.000
M204 S750
G1 X119.136 Y104.521 E4.14943 F1200.000
G1 X119.633 Y104.402 E4.18635
G1 X116.421 Y101.190 E4.51489
M204 S2000
G1 X117.032 Y101.186 F6000.000
M204 S750
G1 X117.648 Y101.803 E4.57795 F1200.000
M204 S2000
G1 X116.421 Y102.420 F6000.000
M204 S750
G1 X118.640 Y104.639 E4.80492 F1200.000
G1 X118.143 Y104.758 E4.84183
G1 X116.421 Y103.035 E5.01802
G1 X116.421 Y103.650 E5.06250
G1 X117.647 Y104.876 E5.18789
G1 X117.150 Y104.995 E5.22481
G1 X116.275 Y104.120 E5.31426
G1 X115.779 Y104.239 E5.35118
G1 X116.653 Y105.113 E5.44063
G1 X116.157 Y105.232 E5.47755
G1 X115.282 Y104.357 E5.56699
G1 X114.786 Y104.476 E5.60391
G1 X115.660 Y105.350 E5.69336
G1 X115.164 Y105.469 E5.73028
G1 X114.289 Y104.594 E5.81973
G1 X113.793 Y104.713 E5.85665
G1 X114.667 Y105.587 E5.94609
G1 X114.171 Y105.706 E5.98301
G1 X113.296 Y104.831 E6.07246
G1 X112.800 Y104.950 E6.10938
