; generated by Slic3r 1.2.9 on 2016-12-04 at 12:14:40

; external perimeters extrusion width = 0.40mm
; perimeters extrusion width = 0.67mm
; infill extrusion width = 0.67mm
; solid infill extrusion width = 0.67mm
; top infill extrusion width = 0.26mm

M107
M190 S70 ; set bed temperature
M104 S205 ; set temperature
G28 ; home all axes
G1 Z5 F5000 ; lift nozzle

M109 S205 ; wait for temperature to be reached
G21 ; set units to millimeters
G90 ; use absolute coordinates
M82 ; use absolute distances for extrusion
G92 E0
G1 E-2.00000 F1800.00000
G92 E0
G1 Z0.400 F6000.000
G1 X90.715 Y90.715 F6000.000
G1 E2.00000 F1800.00000
M204 S2000
G1 X91.149 Y90.306 E2.04304 F1200.000
G1 X91.692 Y89.854 E2.09407
G1 X92.256 Y89.447 E2.14425
G1 X92.852 Y89.076 E2.19497
G1 X93.428 Y88.768 E2.24214
G1 X94.067 Y88.478 E2.29279
G1 X94.786 Y88.212 E2.34813
G1 X95.401 Y88.031 E2.39444
G1 X95.923 Y87.909 E2.43312
G1 X96.511 Y87.806 E2.47622
G1 X97.029 Y87.744 E2.51394
G1 X97.531 Y87.709 E2.55021
G1 X102.050 Y87.698 E2.87652
G1 X103.016 Y87.748 E2.94633 F1200.000
G1 X103.897 Y87.874 E3.01064
G1 X104.496 Y88.004 E3.05489
G1 X104.918 Y88.120 E3.08647
G1 X105.757 Y88.407 E3.15051
G1 X106.572 Y88.768 E3.21484
G1 X107.420 Y89.238 E3.28487
G1 X108.117 Y89.710 E3.34563
G1 X108.858 Y90.312 E3.41452
G1 X109.235 Y90.666 E3.45191
G1 X109.586 Y91.029 E3.48834
G1 X110.185 Y91.744 E3.55573
G1 X110.678 Y92.448 E3.61774
G1 X111.147 Y93.261 E3.68551
G1 X111.510 Y94.039 E3.74752
G1 X111.718 Y94.580 E3.78936
G1 X111.872 Y95.054 E3.82537
G1 X112.099 Y95.966 E3.89318
G1 X112.234 Y96.814 E3.95519
G1 X112.284 Y97.391 E3.99699
G1 X112.302 Y98.000 E4.04100
G1 X112.302 Y102.079 E4.33554
G1 X112.246 Y103.078 E4.40773
G1 X112.122 Y103.919 E4.46912
G1 X111.908 Y104.823 E4.53623
G1 X111.641 Y105.630 E4.59757
G1 X111.424 Y106.161 E4.63900
G1 X111.214 Y106.609 E4.67470
G1 X110.943 Y107.114 E4.71612
G1 X110.687 Y107.537 E4.75180
G1 X110.366 Y108.012 E4.79322
G1 X110.067 Y108.408 E4.82903
G1 X109.698 Y108.846 E4.87035
G1 X109.361 Y109.207 E4.90601
G1 X108.949 Y109.606 E4.94743
G1 X108.446 Y110.037 E4.99524
G1 X108.012 Y110.366 E5.03454
G1 X107.572 Y110.665 E5.07298
G1 X107.114 Y110.943 E5.11164
G1 X106.646 Y111.195 E5.15008
G1 X106.161 Y111.424 E5.18876
G1 X105.693 Y111.618 E5.22536
G1 X105.129 Y111.816 E5.26852
G1 X104.613 Y111.965 E5.30727
G1 X104.132 Y112.079 E5.34297
G1 X103.568 Y112.182 E5.38438
G1 X103.078 Y112.246 E5.42007
G1 X102.506 Y112.290 E5.46148
G1 X98.000 Y112.302 E5.78681
G1 X97.277 Y112.277 E5.83905
G1 X96.569 Y112.202 E5.89045
G1 X95.868 Y112.079 E5.94186
G1 X95.177 Y111.908 E5.99326
G1 X94.369 Y111.641 E6.05463
G1 X93.515 Y111.275 E6.12175
G1 X93.076 Y111.049 E6.15743
G1 X92.600 Y110.773 E6.19714
G1 X91.876 Y110.284 E6.26021
G1 X91.154 Y109.698 E6.32733
G1 X90.537 Y109.102 E6.38928
G1 X89.932 Y108.407 E6.45582
G1 X89.432 Y107.720 E6.51719
G1 X89.127 Y107.234 E6.55861
G1 X88.878 Y106.788 E6.59547
G1 X88.633 Y106.288 E6.63570
G1 X88.432 Y105.819 E6.67255
G1 X88.196 Y105.164 E6.72276
G1 X88.035 Y104.613 E6.76421
G1 X87.921 Y104.132 E6.79989
G1 X87.818 Y103.568 E6.84133
G1 X87.734 Y102.861 E6.89272
G1 X87.699 Y102.180 E6.94196
G1 X87.698 Y98.000 E7.24376
G1 X87.731 Y97.172 E7.30361
G1 X87.838 Y96.305 E7.36667
G1 X88.031 Y95.401 E7.43339
G1 X88.287 Y94.566 E7.49644
G1 X88.634 Y93.710 E7.56317
G1 X89.037 Y92.921 E7.62714
G1 X89.521 Y92.148 E7.69300
G1 X90.038 Y91.462 E7.75501
G1 X90.673 Y90.758 E7.82344
G1 X91.022 Y91.022 F6000.000
G1 X91.436 Y90.631 E7.86456 F1200.000
G1 X91.957 Y90.198 E7.91346
G1 X92.497 Y89.808 E7.96158
G1 X93.069 Y89.452 E8.01019
G1 X93.734 Y89.101 E8.06450
G1 X94.322 Y88.843 E8.11087
G1 X94.922 Y88.624 E8.15697
G1 X95.566 Y88.437 E8.20538
G1 X96.009 Y88.335 E8.23818
G1 X96.575 Y88.235 E8.27970
G1 X97.553 Y88.142 E8.35066
G1 X102.047 Y88.132 E8.67508
G1 X102.974 Y88.180 E8.74216 F1200.000
G1 X103.815 Y88.300 E8.80343
G1 X104.288 Y88.401 E8.83837
G1 X104.793 Y88.535 E8.87612
G1 X105.601 Y88.813 E8.93783
G1 X106.378 Y89.156 E8.99912
G1 X107.193 Y89.608 E9.06641
G1 X108.013 Y90.176 E9.13844
G1 X108.679 Y90.736 E9.20123
G1 X109.268 Y91.325 E9.26141
G1 X109.625 Y91.736 E9.30069
G1 X109.922 Y92.117 E9.33560
G1 X110.422 Y92.858 E9.40012
G1 X110.824 Y93.582 E9.45993
G1 X111.187 Y94.399 E9.52445
G1 X111.458 Y95.186 E9.58458
G1 X111.599 Y95.712 E9.62390
G1 X111.700 Y96.185 E9.65883
G1 X111.824 Y97.070 E9.72336
G1 X111.867 Y97.898 E9.78320
G1 X111.868 Y102.000 E10.07936
G1 X111.856 Y102.487 E10.11457
G1 X111.814 Y103.029 E10.15382
G1 X111.695 Y103.841 E10.21304
G1 X111.491 Y104.702 E10.27690
G1 X111.234 Y105.480 E10.33608
G1 X111.028 Y105.983 E10.37534
G1 X110.824 Y106.417 E10.40995
G1 X110.567 Y106.896 E10.44921
G1 X110.320 Y107.307 E10.48381
G1 X110.015 Y107.757 E10.52306
G1 X109.725 Y108.140 E10.55777
G1 X109.376 Y108.555 E10.59693
G1 X109.049 Y108.906 E10.63152
G1 X108.658 Y109.283 E10.67077
G1 X108.176 Y109.697 E10.71666
G1 X107.757 Y110.015 E10.75463
G1 X107.339 Y110.299 E10.79111
G1 X106.896 Y110.568 E10.82848
G1 X106.452 Y110.807 E10.86496
G1 X105.538 Y111.212 E10.93711
G1 X104.995 Y111.403 E10.97864
G1 X104.506 Y111.544 E11.01542
G1 X104.039 Y111.655 E11.05004
G1 X103.505 Y111.753 E11.08928
G1 X103.029 Y111.814 E11.12389
G1 X102.487 Y111.856 E11.16314
G1 X98.000 Y111.868 E11.48713
G1 X97.310 Y111.844 E11.53696
G1 X96.632 Y111.773 E11.58620
G1 X95.960 Y111.655 E11.63544
G1 X95.298 Y111.491 E11.68468
G1 X94.520 Y111.234 E11.74388
G1 X93.707 Y110.885 E11.80775
G1 X93.281 Y110.666 E11.84234
G1 X92.829 Y110.405 E11.88001
G1 X92.132 Y109.933 E11.94079
G1 X91.445 Y109.376 E12.00467
G1 X90.850 Y108.801 E12.06441
G1 X90.274 Y108.139 E12.12774
G1 X89.791 Y107.476 E12.18695
G1 X89.502 Y107.016 E12.22620
G1 X89.261 Y106.584 E12.26189
G1 X89.029 Y106.110 E12.30004
G1 X88.834 Y105.655 E12.33573
G1 X88.608 Y105.028 E12.38386
G1 X88.456 Y104.506 E12.42314
G1 X88.345 Y104.040 E12.45773
G1 X88.247 Y103.505 E12.49700
G1 X88.167 Y102.828 E12.54623
G1 X88.133 Y102.174 E12.59346
G1 X88.132 Y98.000 E12.89485
G1 X88.164 Y97.210 E12.95197
G1 X88.267 Y96.374 E13.01277
G1 X88.450 Y95.514 E13.07628
G1 X88.697 Y94.708 E13.13708
G1 X89.027 Y93.893 E13.20059
G1 X89.416 Y93.133 E13.26224
G1 X89.877 Y92.397 E13.32495
G1 X90.376 Y91.735 E13.38477
G1 X90.980 Y91.065 E13.44993
G1 X91.329 Y91.329 F6000.000
G1 X91.724 Y90.956 E13.48913 F1200.000
G1 X92.222 Y90.542 E13.53590
G1 X92.739 Y90.169 E13.58195
G1 X93.286 Y89.828 E13.62846
G1 X93.920 Y89.494 E13.68024
G1 X94.483 Y89.246 E13.72467
G1 X95.058 Y89.036 E13.76884
G1 X95.674 Y88.857 E13.81517
G1 X96.094 Y88.760 E13.84629
G1 X96.639 Y88.665 E13.88623
G1 X97.576 Y88.576 E13.95417
G1 X102.043 Y88.566 E14.27670
G1 X102.933 Y88.612 E14.34105 F1200.000
G1 X103.732 Y88.726 E14.39929
G1 X104.668 Y88.951 E14.46881
G1 X105.446 Y89.218 E14.52819
G1 X106.184 Y89.544 E14.58644
G1 X106.965 Y89.978 E14.65099
G1 X107.751 Y90.521 E14.71993
G1 X108.383 Y91.053 E14.77956
G1 X108.950 Y91.621 E14.83752
G1 X109.287 Y92.009 E14.87465
G1 X109.576 Y92.378 E14.90846
G1 X110.050 Y93.081 E14.96970
G1 X110.437 Y93.779 E15.02732
G1 X110.782 Y94.554 E15.08856
G1 X111.043 Y95.313 E15.14648
G1 X111.176 Y95.810 E15.18364
G1 X111.273 Y96.268 E15.21747
G1 X111.392 Y97.108 E15.27872
G1 X111.433 Y97.906 E15.33637
G1 X111.434 Y102.000 E15.63199
G1 X111.422 Y102.469 E15.66587
G1 X111.383 Y102.981 E15.70295
G1 X111.268 Y103.763 E15.76000
G1 X111.074 Y104.580 E15.82061
G1 X110.827 Y105.330 E15.87763
G1 X110.632 Y105.805 E15.91473
G1 X110.435 Y106.225 E15.94826
G1 X110.192 Y106.678 E15.98535
G1 X109.952 Y107.076 E16.01886
G1 X109.664 Y107.501 E16.05595
G1 X109.383 Y107.872 E16.08957
G1 X109.053 Y108.265 E16.12657
G1 X108.737 Y108.604 E16.16007
G1 X108.367 Y108.961 E16.19716
G1 X107.905 Y109.357 E16.24113
G1 X107.501 Y109.664 E16.27777
G1 X107.106 Y109.933 E16.31228
G1 X106.257 Y110.419 E16.38286
G1 X105.384 Y110.806 E16.45188
G1 X104.862 Y110.990 E16.49181
G1 X104.399 Y111.124 E16.52662
G1 X103.947 Y111.231 E16.56016
G1 X103.441 Y111.323 E16.59724
G1 X102.981 Y111.383 E16.63075
G1 X102.469 Y111.422 E16.66784
G1 X98.000 Y111.434 E16.99050
G1 X97.530 Y111.422 E17.02443
G1 X96.882 Y111.367 E17.07144
G1 X96.237 Y111.268 E17.11854
G1 X95.601 Y111.124 E17.16562
G1 X94.800 Y110.874 E17.22621
G1 X93.932 Y110.512 E17.29408
G1 X93.202 Y110.123 E17.35382
G1 X92.518 Y109.678 E17.41271
G1 X91.877 Y109.177 E17.47149
G1 X91.263 Y108.604 E17.53211
G1 X90.731 Y108.013 E17.58949
G1 X90.151 Y107.233 E17.65972
G1 X89.877 Y106.798 E17.69681
G1 X89.645 Y106.380 E17.73134
G1 X89.425 Y105.932 E17.76740
G1 X89.236 Y105.492 E17.80192
G1 X89.020 Y104.892 E17.84797
G1 X88.876 Y104.399 E17.88508
G1 X88.769 Y103.947 E17.91860
G1 X88.677 Y103.442 E17.95570
G1 X88.600 Y102.794 E18.00276
G1 X88.568 Y102.169 E18.04797
G1 X88.566 Y98.000 E18.34897
G1 X88.596 Y97.247 E18.40335
G1 X88.696 Y96.443 E18.46189
G1 X88.870 Y95.626 E18.52220
G1 X89.107 Y94.851 E18.58073
G1 X89.421 Y94.077 E18.64104
G1 X89.795 Y93.345 E18.70036
G1 X90.233 Y92.646 E18.75992
G1 X90.713 Y92.008 E18.81755
G1 X91.287 Y91.372 E18.87943
G1 E16.87943 F1800.00000
G92 E0
G1 X102.735 Y102.663 F6000.000
G1 E2.00000 F1800.00000
G1 X102.280 Y103.045 E2.04286 F1200.000
G1 X101.925 Y103.250 E2.07247
G1 X101.629 Y103.375 E2.09567
G1 X101.153 Y103.503 E2.13124
G1 X100.679 Y103.544 E2.16560
G1 X99.153 Y103.539 E2.27579
G1 X98.841 Y103.500 E2.29846
G1 X98.455 Y103.404 E2.32719
G1 X98.086 Y103.255 E2.35592
G1 X97.800 Y103.096 E2.37956
G1 X97.337 Y102.735 E2.42197
G1 X96.955 Y102.280 E2.46483
G1 X96.750 Y101.925 E2.49445
G1 X96.627 Y101.635 E2.51720
G1 X96.517 Y101.252 E2.54593
G1 X96.461 Y100.853 E2.57504
G1 X96.457 Y99.226 E2.69253
G1 X96.538 Y98.649 E2.73458
G1 X96.741 Y98.091 E2.77744
G1 X96.949 Y97.731 E2.80749
G1 X97.198 Y97.412 E2.83666
G1 X97.489 Y97.132 E2.86583
G1 X97.815 Y96.894 E2.89500
G1 X98.172 Y96.705 E2.92417
G1 X98.552 Y96.566 E2.95334
G1 X98.947 Y96.482 E2.98251
G1 X99.327 Y96.456 E3.01001 F1200.000
G1 X100.859 Y96.461 E3.12065
G1 X101.351 Y96.539 E3.15657
G1 X101.834 Y96.706 E3.19347
G1 X102.353 Y97.005 E3.23677
G1 X102.799 Y97.407 E3.28008
G1 X103.110 Y97.820 E3.31741
G1 X103.371 Y98.353 E3.36027
G1 X103.503 Y98.847 E3.39717
G1 X103.544 Y99.321 E3.43153
G1 X103.539 Y100.853 E3.54216
G1 X103.483 Y101.246 E3.57080
G1 X103.402 Y101.551 E3.59356
G1 X103.255 Y101.914 E3.62185
G1 X103.096 Y102.200 E3.64548
G1 X102.772 Y102.616 E3.68357
G1 X102.421 Y102.360 F6000.000
G1 X102.030 Y102.688 E3.72039 F1200.000
G1 X101.731 Y102.860 E3.74534
G1 X101.487 Y102.964 E3.76443
G1 X101.077 Y103.074 E3.79507
G1 X100.661 Y103.110 E3.82526
G1 X99.180 Y103.105 E3.93217
G1 X98.921 Y103.073 E3.95106
G1 X98.590 Y102.990 E3.97568
G1 X98.273 Y102.862 E4.00030
G1 X98.040 Y102.733 E4.01955
G1 X97.640 Y102.421 E4.05621
G1 X97.312 Y102.030 E4.09303
G1 X97.140 Y101.731 E4.11798
G1 X97.037 Y101.489 E4.13690
G1 X96.943 Y101.162 E4.16153
G1 X96.895 Y100.822 E4.18629
G1 X96.891 Y99.255 E4.29940
G1 X96.962 Y98.755 E4.33592
G1 X97.136 Y98.275 E4.37274
G1 X97.310 Y97.974 E4.39785
G1 X97.521 Y97.704 E4.42264
G1 X97.768 Y97.465 E4.44742
G1 X98.046 Y97.263 E4.47221
G1 X98.349 Y97.102 E4.49700
G1 X98.672 Y96.985 E4.52178
G1 X99.008 Y96.913 E4.54657
G1 X99.341 Y96.890 E4.57073 F1200.000
G1 X100.824 Y96.895 E4.67781
G1 X101.245 Y96.962 E4.70858
G1 X101.653 Y97.103 E4.73972
G1 X102.097 Y97.359 E4.77670
G1 X102.478 Y97.701 E4.81369
G1 X102.738 Y98.048 E4.84500
G1 X102.962 Y98.506 E4.88182
G1 X103.074 Y98.923 E4.91296
G1 X103.110 Y99.339 E4.94314
G1 X103.105 Y100.822 E5.05022
G1 X103.057 Y101.159 E5.07480
G1 X102.989 Y101.413 E5.09373
G1 X102.862 Y101.727 E5.11818
G1 X102.733 Y101.960 E5.13743
G1 X102.458 Y102.313 E5.16976
G1 X102.517 Y102.748 F6000.000
G1 X104.610 Y104.014 F6000.000
G1 X104.489 Y104.174 E5.18424 F1200.000
G1 X104.255 Y104.416 E5.20855
G1 X103.993 Y104.637 E5.23328
G1 X103.709 Y104.829 E5.25800
G1 X103.407 Y104.990 E5.28272
G1 X103.092 Y105.119 E5.30733
G1 X102.638 Y105.243 E5.34126
G1 X102.074 Y105.305 E5.38223
G1 X97.801 Y105.299 E5.69079
G1 X97.462 Y105.261 E5.71536
G1 X97.128 Y105.188 E5.74008
G1 X96.803 Y105.080 E5.76481
G1 X96.490 Y104.940 E5.78954
G1 X96.194 Y104.768 E5.81426
G1 X95.917 Y104.566 E5.83900
G1 X95.668 Y104.341 E5.86328
G1 X95.360 Y103.988 E5.89710
G1 X95.175 Y103.714 E5.92096
G1 X94.961 Y103.298 E5.95477
G1 X94.844 Y102.982 E5.97908
G1 X94.760 Y102.650 E6.00380
G1 X94.695 Y102.080 E6.04521
G1 X94.697 Y97.891 E6.34767
G1 X94.727 Y97.540 E6.37309
G1 X94.793 Y97.200 E6.39807
G1 X94.894 Y96.870 E6.42304
G1 X95.030 Y96.551 E6.44802
G1 X95.197 Y96.249 E6.47300
G1 X95.396 Y95.965 E6.49797
G1 X95.623 Y95.704 E6.52295
G1 X95.876 Y95.468 E6.54793
G1 X96.152 Y95.260 E6.57290
G1 X96.448 Y95.082 E6.59788
G1 X96.762 Y94.936 E6.62286
G1 X97.089 Y94.823 E6.64782
G1 X97.420 Y94.747 E6.67238
G1 X97.897 Y94.697 E6.70698
G1 X101.976 Y94.694 E7.00150
G1 X102.472 Y94.729 E7.03740
G1 X103.015 Y94.855 E7.07767 F1200.000
G1 X103.460 Y95.035 E7.11228
G1 X103.937 Y95.323 E7.15255
G1 X104.305 Y95.631 E7.18716
G1 X104.670 Y96.053 E7.22742
G1 X104.917 Y96.449 E7.26116
G1 X105.110 Y96.881 E7.29532
G1 X105.175 Y97.083 E7.31067
G1 X105.253 Y97.420 E7.33563
G1 X105.303 Y97.897 E7.37025
G1 X105.305 Y102.074 E7.67183
G1 X105.278 Y102.425 E7.69722
G1 X105.217 Y102.755 E7.72152
G1 X105.078 Y103.203 E7.75534
G1 X104.940 Y103.510 E7.77963
G1 X104.771 Y103.801 E7.80392
G1 X104.646 Y103.966 E7.81891
G1 X104.956 Y104.276 F6000.000
G1 X104.819 Y104.457 E7.83529 F1200.000
G1 X104.551 Y104.734 E7.86313
G1 X104.255 Y104.983 E7.89111
G1 X103.934 Y105.201 E7.91909
G1 X103.592 Y105.384 E7.94707
G1 X103.231 Y105.531 E7.97521
G1 X102.731 Y105.668 E8.01266
G1 X102.483 Y105.709 E8.03083
G1 X102.091 Y105.739 E8.05921
G1 X97.776 Y105.733 E8.37073
G1 X97.392 Y105.690 E8.39865
G1 X97.013 Y105.607 E8.42663
G1 X96.645 Y105.486 E8.45461
G1 X96.292 Y105.327 E8.48259
G1 X95.957 Y105.132 E8.51057
G1 X95.643 Y104.904 E8.53856
G1 X95.357 Y104.646 E8.56637
G1 X95.015 Y104.253 E8.60398
G1 X94.800 Y103.936 E8.63164
G1 X94.563 Y103.473 E8.66924
G1 X94.429 Y103.111 E8.69707
G1 X94.333 Y102.735 E8.72505
G1 X94.277 Y102.350 E8.75319
G1 X94.261 Y102.093 E8.77178
G1 X94.262 Y97.872 E9.07654
G1 X94.297 Y97.480 E9.10497
G1 X94.371 Y97.095 E9.13323
G1 X94.486 Y96.721 E9.16149
G1 X94.639 Y96.361 E9.18975
G1 X94.829 Y96.018 E9.21801
G1 X95.053 Y95.698 E9.24628
G1 X95.310 Y95.402 E9.27454
G1 X95.596 Y95.135 E9.30280
G1 X95.909 Y94.900 E9.33106
G1 X96.244 Y94.698 E9.35932
G1 X96.599 Y94.533 E9.38759
G1 X96.969 Y94.405 E9.41584
G1 X97.349 Y94.318 E9.44395
G1 X97.874 Y94.262 E9.48211
G1 X101.991 Y94.260 E9.77936
G1 X102.525 Y94.297 E9.81801
G1 X102.775 Y94.341 E9.83636 F1200.000
G1 X103.153 Y94.443 E9.86462
G1 X103.644 Y94.641 E9.90279
G1 X103.868 Y94.760 E9.92114
G1 X104.196 Y94.973 E9.94939
G1 X104.601 Y95.313 E9.98756
G1 X104.778 Y95.496 E10.00591
G1 X105.024 Y95.800 E10.03415
G1 X105.302 Y96.244 E10.07200
G1 X105.516 Y96.725 E10.11000
G1 X105.594 Y96.967 E10.12835
G1 X105.682 Y97.348 E10.15660
G1 X105.738 Y97.874 E10.19478
G1 X105.739 Y102.091 E10.49921
G1 X105.709 Y102.480 E10.52744
G1 X105.639 Y102.859 E10.55526
G1 X105.485 Y103.357 E10.59287
G1 X105.327 Y103.708 E10.62069
G1 X105.133 Y104.041 E10.64851
G1 X104.992 Y104.228 E10.66540
G1 X104.731 Y104.248 F6000.000
G1 X103.760 Y98.745 F6000.000
M204 S750
G1 X105.047 Y100.032 E10.79957 F1200.000
G1 X105.047 Y100.659 E10.84580
G1 X103.801 Y99.412 E10.97579
G1 X103.798 Y100.037 E11.02184
G1 X105.047 Y101.286 E11.15209
G1 X105.048 Y101.913 E11.19832
G1 X103.796 Y100.661 E11.32882
G1 X103.733 Y101.226 E11.37069
G1 X105.016 Y102.509 E11.50445
G1 X104.893 Y103.012 E11.54265
G1 X103.586 Y101.706 E11.67885
G1 X103.388 Y102.135 E11.71368
G1 X104.712 Y103.458 E11.85166
G1 X104.466 Y103.839 E11.88510
G1 X103.135 Y102.508 E12.02390
G1 X102.851 Y102.851 E12.05673
G1 X104.166 Y104.167 E12.19385
G1 X103.843 Y104.471 E12.22655
G1 X102.510 Y103.138 E12.36554
G1 X102.133 Y103.387 E12.39889
G1 X103.456 Y104.710 E12.53680
G1 X103.014 Y104.896 E12.57209
G1 X101.708 Y103.590 E12.70826
G1 X101.221 Y103.729 E12.74564
G1 X102.510 Y105.018 E12.87998
