; generated by Slic3r 1.2.9 on 2018-09-22 at 09:17:22

; external perimeters extrusion width = 0.40mm
; perimeters extrusion width = 0.67mm
; infill extrusion width = 0.67mm
; solid infill extrusion width = 0.67mm
; top infill extrusion width = 0.26mm

M107
M190 S78 ; set bed temperature
M104 S245 ; set temperature
G28 ; home all axes
G1 Z5 F5000 ; lift nozzle

M109 S245 ; wait for temperature to be reached
G21 ; set units to millimeters
G90 ; use absolute coordinates
M82 ; use absolute distances for extrusion
G92 E0
G1 E-2.00000 F1800.00000
G92 E0
G1 Z0.400 F6000.000
G1 X14.164 Y14.545 F6000.000
G1 E2.00000 F1800.00000
M204 S2000
G1 X15.887 Y13.246 E2.15577 F1200.000
G1 X18.500 Y12.632 E2.34960
G1 X181.500 Y12.632 E14.11836
G1 X183.621 Y13.028 E14.27413
G1 X185.455 Y14.164 E14.42990 F1200.000
G1 X186.754 Y15.887 E14.58567
G1 X187.368 Y18.500 E14.77950
G1 X187.368 Y181.500 E26.54825
G1 X186.972 Y183.621 E26.70403
G1 X185.836 Y185.455 E26.85980
G1 X184.113 Y186.754 E27.01557
G1 X181.500 Y187.368 E27.20939
G1 X18.500 Y187.368 E38.97815
G1 X16.379 Y186.972 E39.13392
G1 X14.545 Y185.836 E39.28969
G1 X13.246 Y184.113 E39.44547
G1 X12.632 Y181.500 E39.63929
G1 X12.632 Y18.500 E51.40805
G1 X13.028 Y16.379 E51.56382
G1 X14.133 Y14.596 E51.71526
G1 X14.547 Y14.794 F6000.000
G1 X14.593 Y14.723 E51.72139 F1200.000
G1 X16.294 Y13.534 E51.87124
G1 X18.500 Y13.066 E52.03404
G1 X181.500 Y13.066 E63.80279
G1 X183.537 Y13.462 E63.95264
G1 X185.277 Y14.593 E64.10249 F1200.000
G1 X186.466 Y16.294 E64.25233
G1 X186.934 Y18.500 E64.41513
G1 X186.934 Y181.500 E76.18389
G1 X186.538 Y183.537 E76.33374
G1 X185.407 Y185.277 E76.48358
G1 X183.706 Y186.466 E76.63343
G1 X181.500 Y186.934 E76.79622
G1 X18.500 Y186.934 E88.56498
G1 X16.463 Y186.538 E88.71483
G1 X14.723 Y185.407 E88.86468
G1 X13.534 Y183.706 E89.01452
G1 X13.066 Y181.500 E89.17732
G1 X13.066 Y18.500 E100.94608
G1 X13.462 Y16.463 E101.09592
G1 X14.514 Y14.844 E101.23530
G1 E99.23530 F1800.00000
G92 E0
G1 X89.240 Y159.240 F6000.000
G1 E2.00000 F1800.00000
G1 X110.760 Y159.240 E3.55376 F1200.000
G1 X110.760 Y180.760 E5.10753
G1 X89.240 Y180.760 E6.66129
G1 X89.240 Y159.300 E8.21073
G1 X89.240 Y158.840 F6000.000
G1 X88.760 Y158.760 F6000.000
G1 X111.240 Y158.760 E9.83380 F1200.000
G1 X111.240 Y181.240 E11.45688
G1 X88.760 Y181.240 E13.07996
G1 X88.760 Y158.820 E14.69871
G1 X89.106 Y158.960 F6000.000
G1 E12.69871 F1800.00000
G92 E0
G1 X90.694 Y160.694 F6000.000
G1 E2.00000 F1800.00000
G1 X109.306 Y160.694 E3.34378 F1200.000
G1 X109.306 Y179.306 E4.68756
G1 X90.694 Y179.306 E6.03134
G1 X90.694 Y160.754 E7.37079
G1 X90.260 Y160.260 F6000.000
G1 X109.740 Y160.260 E8.77727 F1200.000
G1 X109.740 Y179.740 E10.18374
G1 X90.260 Y179.740 E11.59022
G1 X90.260 Y160.320 E12.99236
G1 X90.606 Y160.460 F6000.000
G1 X89.004 Y159.004 F6000.000
G1 X110.996 Y159.004 E14.58021 F1200.000
G1 X110.996 Y180.996 E16.16806
G1 X89.004 Y180.996 E17.75591
G1 X89.000 Y159.064 E19.33946
G1 E17.33946 F1800.00000
G92 E0
G1 X90.951 Y178.825 F6000.000
G1 E2.00000 F1800.00000
M204 S750
G1 X91.175 Y179.049 E2.02298 F1200.000
G1 X91.792 Y179.049 E2.06765
G1 X90.951 Y178.208 E2.15380
G1 X90.951 Y177.592 E2.19847
G1 X92.408 Y179.049 E2.34779
G1 X93.024 Y179.049 E2.39246
G1 X90.951 Y176.976 E2.60495
G1 X90.951 Y176.359 E2.64962
G1 X93.641 Y179.049 E2.92529
G1 X94.257 Y179.049 E2.96995
G1 X90.951 Y175.743 E3.30879
G1 X90.951 Y175.127 E3.35346
G1 X94.873 Y179.049 E3.75547
G1 X95.490 Y179.049 E3.80014
G1 X90.951 Y174.510 E4.26532
G1 X90.951 Y173.894 E4.30999
G1 X96.106 Y179.049 E4.83835
G1 X96.722 Y179.049 E4.88302
G1 X90.951 Y173.278 E5.47454
G1 X90.951 Y172.661 E5.51921
G1 X97.339 Y179.049 E6.17391
G1 X97.955 Y179.049 E6.21858
G1 X90.951 Y172.045 E6.93645
G1 X90.951 Y171.429 E6.98112
G1 X98.571 Y179.049 E7.76216
G1 X99.188 Y179.049 E7.80683
G1 X90.951 Y170.812 E8.65104
G1 X90.951 Y170.196 E8.69571
G1 X99.804 Y179.049 E9.60310
G1 X100.420 Y179.049 E9.64777
G1 X90.951 Y169.580 E10.61833
G1 X90.951 Y168.963 E10.66300
G1 X101.037 Y179.049 E11.69673
G1 X101.653 Y179.049 E11.74140
G1 X90.951 Y168.347 E12.83830
G1 X90.951 Y167.731 E12.88297
G1 X102.269 Y179.049 E14.04304
G1 X102.886 Y179.049 E14.08771
G1 X90.951 Y167.114 E15.31096
G1 X90.951 Y166.498 E15.35563
G1 X103.502 Y179.049 E16.64205
G1 X104.118 Y179.049 E16.68672
G1 X90.951 Y165.882 E18.03631
G1 X90.951 Y165.265 E18.08098
G1 X104.735 Y179.049 E19.49374
G1 X105.351 Y179.049 E19.53841
G1 X90.951 Y164.649 E21.01434
G1 X90.951 Y164.033 E21.05901
G1 X105.967 Y179.049 E22.59812
G1 X106.584 Y179.049 E22.64279
G1 X90.951 Y163.416 E24.24507
G1 X90.951 Y162.800 E24.28974
G1 X107.200 Y179.049 E25.95519
G1 X107.816 Y179.049 E25.99986
G1 X90.951 Y162.184 E27.72848
G1 X90.951 Y161.567 E27.77315
G1 X108.433 Y179.049 E29.56495
G1 X109.029 Y179.029 E29.60819
G1 X90.971 Y160.971 E31.45906
G1 X91.567 Y160.951 E31.50230
G1 X109.049 Y178.433 E33.29410
G1 X109.049 Y177.816 E33.33877
G1 X92.184 Y160.951 E35.06740
G1 X92.800 Y160.951 E35.11207
G1 X109.049 Y177.200 E36.77752
G1 X109.049 Y176.584 E36.82219
G1 X93.416 Y160.951 E38.42447
G1 X94.033 Y160.951 E38.46914
G1 X109.049 Y175.967 E40.00825
G1 X109.049 Y175.351 E40.05292
G1 X94.649 Y160.951 E41.52886
G1 X95.265 Y160.951 E41.57353
G1 X109.049 Y174.735 E42.98629
G1 X109.049 Y174.118 E43.03096
G1 X95.882 Y160.951 E44.38056
G1 X96.498 Y160.951 E44.42523
G1 X109.049 Y173.502 E45.71165
G1 X109.049 Y172.886 E45.75632
G1 X97.114 Y160.951 E46.97956
G1 X97.731 Y160.951 E47.02423
G1 X109.049 Y172.269 E48.18431
G1 X109.049 Y171.653 E48.22898
G1 X98.347 Y160.951 E49.32589
G1 X98.963 Y160.951 E49.37056
G1 X109.049 Y171.037 E50.40429
G1 X109.049 Y170.420 E50.44896
G1 X99.580 Y160.951 E51.41952
G1 X100.196 Y160.951 E51.46419
G1 X109.049 Y169.804 E52.37158
G1 X109.049 Y169.188 E52.41625
G1 X100.812 Y160.951 E53.26046
G1 X101.429 Y160.951 E53.30513
G1 X109.049 Y168.571 E54.08618
G1 X109.049 Y167.955 E54.13085
G1 X102.045 Y160.951 E54.84872
G1 X102.661 Y160.951 E54.89339
G1 X109.049 Y167.339 E55.54809
G1 X109.049 Y166.722 E55.59276
G1 X103.278 Y160.951 E56.18429
G1 X103.894 Y160.951 E56.22896
G1 X109.049 Y166.106 E56.75731
G1 X109.049 Y165.490 E56.80198
G1 X104.510 Y160.951 E57.26717
G1 X105.127 Y160.951 E57.31183
G1 X109.049 Y164.873 E57.71385
G1 X109.049 Y164.257 E57.75852
G1 X105.743 Y160.951 E58.09736
G1 X106.359 Y160.951 E58.14203
G1 X109.049 Y163.641 E58.41769
G1 X109.049 Y163.024 E58.46236
G1 X106.976 Y160.951 E58.67486
G1 X107.592 Y160.951 E58.71953
G1 X109.049 Y162.408 E58.86885
G1 X109.049 Y161.792 E58.91352
G1 X108.208 Y160.951 E58.99967
G1 X108.825 Y160.951 E59.04434
G1 X109.049 Y161.175 E59.06732
M204 S2000
G1 E57.06732 F1800.00000
G92 E0
G1 X89.240 Y110.760 F6000.000
G1 E2.00000 F1800.00000
G1 X89.240 Y89.240 E3.55376 F1200.000
G1 X110.760 Y89.240 E5.10753
G1 X110.760 Y110.760 E6.66129
G1 X89.300 Y110.760 E8.21073
G1 X88.840 Y110.760 F6000.000
G1 X88.760 Y111.240 F6000.000
G1 X88.760 Y88.760 E9.83381 F1200.000
G1 X111.240 Y88.760 E11.45688
G1 X111.240 Y111.240 E13.07996
G1 X88.820 Y111.240 E14.69871
G1 X88.960 Y110.894 F6000.000
G1 E12.69871 F1800.00000
G92 E0
G1 X90.694 Y109.306 F6000.000
G1 E2.00000 F1800.00000
G1 X90.694 Y90.694 E3.34378 F1200.000
G1 X109.306 Y90.694 E4.68756
G1 X109.306 Y109.306 E6.03134
G1 X90.754 Y109.306 E7.37079
G1 X90.260 Y109.740 F6000.000
G1 X90.260 Y90.260 E8.77727 F1200.000
G1 X109.740 Y90.260 E10.18374
G1 X109.740 Y109.740 E11.59022
G1 X90.320 Y109.740 E12.99236
G1 X90.460 Y109.394 F6000.000
G1 X90.951 Y108.825 F6000.000
M204 S750
G1 X91.175 Y109.049 E13.01534 F1200.000
G1 X91.792 Y109.049 E13.06001
G1 X90.951 Y108.208 E13.14616
G1 X90.951 Y107.592 E13.19083
G1 X92.408 Y109.049 E13.34015
G1 X93.024 Y109.049 E13.38482
G1 X90.951 Y106.976 E13.59731
G1 X90.951 Y106.359 E13.64198
G1 X93.641 Y109.049 E13.91765
G1 X94.257 Y109.049 E13.96232
G1 X90.951 Y105.743 E14.30115
G1 X90.951 Y105.127 E14.34582
G1 X94.873 Y109.049 E14.74783
G1 X95.490 Y109.049 E14.79250
G1 X90.951 Y104.510 E15.25769
G1 X90.951 Y103.894 E15.30235
G1 X96.106 Y109.049 E15.83071
G1 X96.722 Y109.049 E15.87538
G1 X90.951 Y103.278 E16.46690
G1 X90.951 Y102.661 E16.51157
G1 X97.339 Y109.049 E17.16627
G1 X97.955 Y109.049 E17.21094
G1 X90.951 Y102.045 E17.92881
G1 X90.951 Y101.429 E17.97348
G1 X98.571 Y109.049 E18.75452
G1 X99.188 Y109.049 E18.79919
G1 X90.951 Y100.812 E19.64341
G1 X90.951 Y100.196 E19.68808
G1 X99.804 Y109.049 E20.59546
G1 X100.420 Y109.049 E20.64013
G1 X90.951 Y99.580 E21.61069
G1 X90.951 Y98.963 E21.65536
G1 X101.037 Y109.049 E22.68909
G1 X101.653 Y109.049 E22.73376
G1 X90.951 Y98.347 E23.83066
G1 X90.951 Y97.731 E23.87533
G1 X102.269 Y109.049 E25.03541
G1 X102.886 Y109.049 E25.08007
G1 X90.951 Y97.114 E26.30332
G1 X90.951 Y96.498 E26.34799
G1 X103.502 Y109.049 E27.63441
G1 X104.118 Y109.049 E27.67908
G1 X90.951 Y95.882 E29.02867
G1 X90.951 Y95.265 E29.07334
G1 X104.735 Y109.049 E30.48610
G1 X105.351 Y109.049 E30.53077
G1 X90.951 Y94.649 E32.00671
G1 X90.951 Y94.033 E32.05138
G1 X105.967 Y109.049 E33.59048
G1 X106.584 Y109.049 E33.63515
G1 X90.951 Y93.416 E35.23743
G1 X90.951 Y92.800 E35.28210
G1 X107.200 Y109.049 E36.94755
G1 X107.816 Y109.049 E36.99222
G1 X90.951 Y92.184 E38.72085
G1 X90.951 Y91.567 E38.76551
G1 X108.433 Y109.049 E40.55731
G1 X109.029 Y109.029 E40.60055
G1 X90.971 Y90.971 E42.45142
G1 X91.567 Y90.951 E42.49467
G1 X109.049 Y108.433 E44.28647
G1 X109.049 Y107.816 E44.33113
G1 X92.184 Y90.951 E46.05976
G1 X92.800 Y90.951 E46.10443
G1 X109.049 Y107.200 E47.76988
G1 X109.049 Y106.584 E47.81455
G1 X93.416 Y90.951 E49.41683
G1 X94.033 Y90.951 E49.46150
G1 X109.049 Y105.967 E51.00061
G1 X109.049 Y105.351 E51.04528
G1 X94.649 Y90.951 E52.52122
G1 X95.265 Y90.951 E52.56589
G1 X109.049 Y104.735 E53.97866
G1 X109.049 Y104.118 E54.02332
G1 X95.882 Y90.951 E55.37292
G1 X96.498 Y90.951 E55.41759
G1 X109.049 Y103.502 E56.70401
G1 X109.049 Y102.886 E56.74868
G1 X97.114 Y90.951 E57.97193
G1 X97.731 Y90.951 E58.01660
G1 X109.049 Y102.269 E59.17667
G1 X109.049 Y101.653 E59.22134
G1 X98.347 Y90.951 E60.31825
G1 X98.963 Y90.951 E60.36292
G1 X109.049 Y101.037 E61.39665
G1 X109.049 Y100.420 E61.44132
G1 X99.580 Y90.951 E62.41188
G1 X100.196 Y90.951 E62.45655
G1 X109.049 Y99.804 E63.36394
G1 X109.049 Y99.188 E63.40861
G1 X100.812 Y90.951 E64.25283
G1 X101.429 Y90.951 E64.29749
G1 X109.049 Y98.571 E65.07854
G1 X109.049 Y97.955 E65.12321
G1 X102.045 Y90.951 E65.84108
G1 X102.661 Y90.951 E65.88575
G1 X109.049 Y97.339 E66.54045
G1 X109.049 Y96.722 E66.58512
G1 X103.278 Y90.951 E67.17665
G1 X103.894 Y90.951 E67.22132
G1 X109.049 Y96.106 E67.74967
G1 X109.049 Y95.490 E67.79434
G1 X104.510 Y90.951 E68.25953
G1 X105.127 Y90.951 E68.30420
G1 X109.049 Y94.873 E68.70621
G1 X109.049 Y94.257 E68.75088
G1 X105.743 Y90.951 E69.08972
G1 X106.359 Y90.951 E69.13439
G1 X109.049 Y93.641 E69.41006
G1 X109.049 Y93.024 E69.45473
G1 X106.976 Y90.951 E69.66722
G1 X107.592 Y90.951 E69.71189
G1 X109.049 Y92.408 E69.86121
G1 X109.049 Y91.792 E69.90588
G1 X108.208 Y90.951 E69.99204
G1 X108.825 Y90.951 E70.03671
G1 X109.049 Y91.175 E70.05968
M204 S2000
G1 E68.05968 F1800.00000
G92 E0
G1 X89.004 Y110.996 F6000.000
G1 E2.00000 F1800.00000
G1 X89.004 Y89.004 E3.58785 F1200.000
G1 X110.996 Y89.004 E5.17570
G1 X110.996 Y110.996 E6.76355
G1 X89.064 Y111.000 E8.34710
G1 E6.34710 F1800.00000
G92 E0
G1 X89.240 Y40.760 F6000.000
G1 E2.00000 F1800.00000
G1 X89.240 Y19.240 E3.55376 F1200.000
G1 X110.760 Y19.240 E5.10753
G1 X110.760 Y40.760 E6.66129
G1 X89.300 Y40.760 E8.21073
G1 X88.840 Y40.760 F6000.000
G1 X88.760 Y41.240 F6000.000
G1 X88.760 Y18.760 E9.83380 F1200.000
G1 X111.240 Y18.760 E11.45688
G1 X111.240 Y41.240 E13.07996
G1 X88.820 Y41.240 E14.69871
G1 X88.960 Y40.894 F6000.000
G1 E12.69871 F1800.00000
G92 E0
G1 X90.694 Y39.306 F6000.000
G1 E2.00000 F1800.00000
G1 X90.694 Y20.694 E3.34378 F1200.000
G1 X109.306 Y20.694 E4.68756
G1 X109.306 Y39.306 E6.03134
G1 X90.754 Y39.306 E7.37079
G1 X90.260 Y39.740 F6000.000
G1 X90.260 Y20.260 E8.77727 F1200.000
G1 X109.740 Y20.260 E10.18374
G1 X109.740 Y39.740 E11.59022
G1 X90.320 Y39.740 E12.99236
G1 X90.460 Y39.394 F6000.000
G1 X90.951 Y38.825 F6000.000
M204 S750
G1 X91.175 Y39.049 E13.01534 F1200.000
G1 X91.792 Y39.049 E13.06001
G1 X90.951 Y38.208 E13.14616
G1 X90.951 Y37.592 E13.19083
G1 X92.408 Y39.049 E13.34015
G1 X93.024 Y39.049 E13.38482
G1 X90.951 Y36.976 E13.59731
G1 X90.951 Y36.359 E13.64198
G1 X93.641 Y39.049 E13.91765
G1 X94.257 Y39.049 E13.96232
G1 X90.951 Y35.743 E14.30115
G1 X90.951 Y35.127 E14.34582
G1 X94.873 Y39.049 E14.74783
G1 X95.490 Y39.049 E14.79250
G1 X90.951 Y34.510 E15.25768
G1 X90.951 Y33.894 E15.30235
G1 X96.106 Y39.049 E15.83071
G1 X96.722 Y39.049 E15.87538
G1 X90.951 Y33.278 E16.46690
G1 X90.951 Y32.661 E16.51157
G1 X97.339 Y39.049 E17.16627
G1 X97.955 Y39.049 E17.21094
G1 X90.951 Y32.045 E17.92881
G1 X90.951 Y31.429 E17.97348
G1 X98.571 Y39.049 E18.75452
G1 X99.188 Y39.049 E18.79919
G1 X90.951 Y30.812 E19.64340
G1 X90.951 Y30.196 E19.68807
G1 X99.804 Y39.049 E20.59546
G1 X100.420 Y39.049 E20.64013
G1 X90.951 Y29.580 E21.61069
G1 X90.951 Y28.963 E21.65536
G1 X101.037 Y39.049 E22.68909
G1 X101.653 Y39.049 E22.73375
G1 X90.951 Y28.347 E23.83066
G1 X90.951 Y27.731 E23.87533
G1 X102.269 Y39.049 E25.03540
G1 X102.886 Y39.049 E25.08007
G1 X90.951 Y27.114 E26.30332
G1 X90.951 Y26.498 E26.34799
G1 X103.502 Y39.049 E27.63440
G1 X104.118 Y39.049 E27.67907
G1 X90.951 Y25.882 E29.02866
G1 X90.951 Y25.265 E29.07333
G1 X104.735 Y39.049 E30.48610
G1 X105.351 Y39.049 E30.53076
G1 X90.951 Y24.649 E32.00670
G1 X90.951 Y24.033 E32.05137
G1 X105.967 Y39.049 E33.59048
G1 X106.584 Y39.049 E33.63514
G1 X90.951 Y23.416 E35.23742
G1 X90.951 Y22.800 E35.28209
G1 X107.200 Y39.049 E36.94754
G1 X107.816 Y39.049 E36.99221
G1 X90.951 Y22.184 E38.72084
G1 X90.951 Y21.567 E38.76550
G1 X108.433 Y39.049 E40.55730
G1 X109.029 Y39.029 E40.60054
G1 X90.971 Y20.971 E42.45141
G1 X91.567 Y20.951 E42.49466
G1 X109.049 Y38.433 E44.28645
G1 X109.049 Y37.816 E44.33112
G1 X92.184 Y20.951 E46.05975
G1 X92.800 Y20.951 E46.10442
G1 X109.049 Y37.200 E47.76987
G1 X109.049 Y36.584 E47.81454
G1 X93.416 Y20.951 E49.41682
G1 X94.033 Y20.951 E49.46149
G1 X109.049 Y35.967 E51.00060
G1 X109.049 Y35.351 E51.04527
G1 X94.649 Y20.951 E52.52121
G1 X95.265 Y20.951 E52.56588
G1 X109.049 Y34.735 E53.97864
G1 X109.049 Y34.118 E54.02331
G1 X95.882 Y20.951 E55.37290
G1 X96.498 Y20.951 E55.41757
G1 X109.049 Y33.502 E56.70399
G1 X109.049 Y32.886 E56.74866
G1 X97.114 Y20.951 E57.97191
G1 X97.731 Y20.951 E58.01658
G1 X109.049 Y32.269 E59.17666
G1 X109.049 Y31.653 E59.22133
G1 X98.347 Y20.951 E60.31823
G1 X98.963 Y20.951 E60.36290
G1 X109.049 Y31.037 E61.39663
G1 X109.049 Y30.420 E61.44130
G1 X99.580 Y20.951 E62.41186
G1 X100.196 Y20.951 E62.45653
G1 X109.049 Y29.804 E63.36392
G1 X109.049 Y29.188 E63.40859
G1 X100.812 Y20.951 E64.25281
G1 X101.429 Y20.951 E64.29748
G1 X109.049 Y28.571 E65.07852
G1 X109.049 Y27.955 E65.12319
G1 X102.045 Y20.951 E65.84106
G1 X102.661 Y20.951 E65.88573
G1 X109.049 Y27.339 E66.54043
G1 X109.049 Y26.722 E66.58510
G1 X103.278 Y20.951 E67.17663
G1 X103.894 Y20.951 E67.22130
G1 X109.049 Y26.106 E67.74966
G1 X109.049 Y25.490 E67.79433
G1 X104.510 Y20.951 E68.25951
G1 X105.127 Y20.951 E68.30418
G1 X109.049 Y24.873 E68.70619
G1 X109.049 Y24.257 E68.75086
G1 X105.743 Y20.951 E69.08970
G1 X106.359 Y20.951 E69.13437
G1 X109.049 Y23.641 E69.41004
G1 X109.049 Y23.024 E69.45471
G1 X106.976 Y20.951 E69.66720
G1 X107.592 Y20.951 E69.71187
G1 X109.049 Y22.408 E69.86120
G1 X109.049 Y21.792 E69.90587
G1 X108.208 Y20.951 E69.99202
G1 X108.825 Y20.951 E70.03669
G1 X109.049 Y21.175 E70.05967
M204 S2000
G1 E68.05967 F1800.00000
G92 E0
G1 X89.000 Y40.977 F6000.000
G1 E2.00000 F1800.00000
G1 X89.004 Y19.004 E3.58648 F1200.000
G1 X110.996 Y19.004 E5.17433
G1 X110.996 Y40.996 E6.76218
G1 X89.044 Y41.000 E8.34713
G1 E6.34713 F1800.00000
G92 E0
G1 X39.306 Y39.306 F6000.000
G1 E2.00000 F1800.00000
G1 X20.694 Y39.306 E3.34378 F1200.000
G1 X20.694 Y20.694 E4.68756
G1 X39.306 Y20.694 E6.03135
G1 X39.306 Y39.246 E7.37079
G1 X39.740 Y39.740 F6000.000
